alexis-jensen/Push-Recovery/PushRecovery/log/torques2108.txt
q0 qdot0 tau0 q1 qdot1 tau1 q2 qdot2 tau2 q3 qdot3 tau3 q4 qdot4 tau4 q5 qdot5 tau5 q6 qdot6 tau6 q7 qdot7 tau7 q8 qdot8 tau8 q9 qdot9 tau9 q10 qdot10 tau10 q11 qdot11 tau11 
0 0 0 0 0 0 0 0 0 0 0 0 0 0 0 0 0 0 0 0 0 0 0 0 0 0 0 0 0 0 0 0 0 0 0 0 
0 0 0 0 0 0 0 0 0 0 0 0 0 0 0 0 0 0 0 0 0 0 0 0 0 0 0 0 0 0 0 0 0 0 0 0 
0 0 0 0 0 0 0 0 0 0 0 0 0 0 0 0 0 0 0 0 0 0 0 0 0 0 0 0 0 0 0 0 0 0 0 0 
0 0 0 0 0 0 0 0 0 0 0 0 0 0 0 0 0 0 0 0 0 0 0 0 0 0 0 0 0 0 0 0 0 0 0 0 
0 0 0 0 0 0 0 0 0 0 0 0 0 0 0 0 0 0 0 0 0 0 0 0 0 0 0 0 0 0 0 0 0 0 0 0 
0 0 0.925817 0.0193984 1.24981 -7.85454 0 0 0 0 0 0 0.575563 0 11.1963 0.570349 0 8.94522 0 0 0 0.766086 0 0.244469 -1.8201 0 -37.7629 -0.778036 0 -10.6309 0 0 0 1.83205 0 0.57176 
0 0 0.874444 0.0193984 1.24981 -7.78643 0 0 0 0 0 0 0.575563 0 11.2069 0.570349 0 9.18917 0 0 0 0.766086 0 0.244469 -1.8201 0 -37.3802 -0.778036 0 -10.488 0 0 0 1.83205 0 0.57176 
0 0 0.874444 0.0193984 1.24981 -7.78643 0 0 0 0 0 0 0.575563 0 11.2069 0.570349 0 9.18917 0 0 0 0.766086 0 0.244469 -1.8201 0 -37.3802 -0.778036 0 -10.488 0 0 0 1.83205 0 0.57176 
0 0 1.64551 5.43813 3.13356 42.1681 0 0 0 0 0 0 -0.651865 0 -5.79099 -0.645492 0 -10.3601 0 0 0 0.673353 0 0.219622 -2.48812 0 -22.5768 -0.69876 0 7.1081 0 0 0 2.5135 0 0.781587 
0 0 1.58195 5.43813 3.13356 42.2316 0 0 0 0 0 0 -0.651865 0 -5.84377 -0.645492 0 -10.17 0 0 0 0.673353 0 0.219622 -2.48812 0 -22.3071 -0.69876 0 7.12302 0 0 0 2.5135 0 0.781587 
0 0 1.58195 5.43813 3.13356 42.2316 0 0 0 0 0 0 -0.651865 0 -5.84377 -0.645492 0 -10.17 0 0 0 0.673353 0 0.219622 -2.48812 0 -22.3071 -0.69876 0 7.12302 0 0 0 2.5135 0 0.781587 
0 0 1.58195 5.43813 3.13356 42.2316 0 0 0 0 0 0 -0.651865 0 -5.84377 -0.645492 0 -10.17 0 0 0 0.673353 0 0.219622 -2.48812 0 -22.3071 -0.69876 0 7.12302 0 0 0 2.5135 0 0.781587 
0 0 2.2864 3.78341 4.8879 -16.4722 0 0 0 0 0 0 -2.09767 0 -13.8455 -2.04876 0 -20.3998 0 0 0 0.420013 0 0.143116 -2.83929 0 -21.19 -0.45509 0 12.3196 0 0 0 2.87432 0 0.891896 
0 0 2.21582 3.78341 4.8879 -16.4182 0 0 0 0 0 0 -2.09767 0 -13.9463 -2.04876 0 -20.2669 0 0 0 0.420013 0 0.143116 -2.83929 0 -21.0352 -0.45509 0 12.2252 0 0 0 2.87432 0 0.891896 
0 0 2.21582 3.78341 4.8879 -16.4182 0 0 0 0 0 0 -2.09767 0 -13.9463 -2.04876 0 -20.2669 0 0 0 0.420013 0 0.143116 -2.83929 0 -21.0352 -0.45509 0 12.2252 0 0 0 2.87432 0 0.891896 
0 0 -1.2983 7.7642 6.18428 32.1724 0 0 0 0 0 0 -3.12387 0 -21.6925 -3.11729 0 -17.9256 0 0 0 0.160564 0 0.0640034 -3.06725 0 -14.9118 -0.203147 0 8.00998 0 0 0 3.10916 0 0.963517 
0 0 -1.25915 7.7642 6.18428 32.1368 0 0 0 0 0 0 -3.12387 0 -21.6639 -3.11729 0 -18.0355 0 0 0 0.160564 0 0.0640034 -3.06725 0 -15.0648 -0.203147 0 8.0066 0 0 0 3.10916 0 0.963517 
0 0 -1.25915 7.7642 6.18428 32.1368 0 0 0 0 0 0 -3.12387 0 -21.6639 -3.11729 0 -18.0355 0 0 0 0.160564 0 0.0640034 -3.06725 0 -15.0648 -0.203147 0 8.0066 0 0 0 3.10916 0 0.963517 
0 0 -0.0837657 4.28931 6.97586 -34.4616 0 0 0 0 0 0 -3.84488 0 -21.6821 -3.6138 0 -18.8771 0 0 0 0.00144106 0 0.0163136 -3.36229 0 -21.4799 -0.0512094 0 8.77258 0 0 0 3.41296 0 1.05619 
0 0 -0.082372 4.28931 6.97586 -34.4647 0 0 0 0 0 0 -3.84488 0 -21.6882 -3.6138 0 -18.8914 0 0 0 0.00144106 0 0.0163136 -3.36229 0 -21.5048 -0.0512094 0 8.75658 0 0 0 3.41296 0 1.05619 
0 0 -0.082372 4.28931 6.97586 -34.4647 0 0 0 0 0 0 -3.84488 0 -21.6882 -3.6138 0 -18.8914 0 0 0 0.00144106 0 0.0163136 -3.36229 0 -21.5048 -0.0512094 0 8.75658 0 0 0 3.41296 0 1.05619 
0 0 -0.082372 4.28931 6.97586 -34.4647 0 0 0 0 0 0 -3.84488 0 -21.6882 -3.6138 0 -18.8914 0 0 0 0.00144106 0 0.0163136 -3.36229 0 -21.5048 -0.0512094 0 8.75658 0 0 0 3.41296 0 1.05619 
0 0 -0.145261 8.07066 7.56065 24.7758 0 0 0 0 0 0 -3.59477 0 -13.8621 -3.98337 0 -20.0173 0 0 0 0.0442217 0 0.0334888 -3.57753 0 -22.0018 -0.105611 0 5.06065 0 0 0 3.63508 0 1.12381 
0 0 -0.144936 8.07066 7.56065 24.7743 0 0 0 0 0 0 -3.59477 0 -13.8665 -3.98337 0 -20.025 0 0 0 0.0442217 0 0.0334888 -3.57753 0 -22.016 -0.105611 0 5.05014 0 0 0 3.63508 0 1.12381 
0 0 -0.144936 8.07066 7.56065 24.7743 0 0 0 0 0 0 -3.59477 0 -13.8665 -3.98337 0 -20.025 0 0 0 0.0442217 0 0.0334888 -3.57753 0 -22.016 -0.105611 0 5.05014 0 0 0 3.63508 0 1.12381 
0 0 -0.0898642 4.13591 7.85547 -43.9442 0 0 0 0 0 0 -4.5853 0 -27.0874 -4.04767 0 -17.9832 0 0 0 -0.247853 0 -0.0587586 -3.80804 0 -23.8428 0.187962 0 12.5651 0 0 0 3.87341 0 1.19621 
0 0 -0.0903679 4.13591 7.85547 -43.9424 0 0 0 0 0 0 -4.5853 0 -27.0829 -4.04767 0 -17.9747 0 0 0 -0.247853 0 -0.0587586 -3.80804 0 -23.8274 0.187962 0 12.5761 0 0 0 3.87341 0 1.19621 
0 0 -0.0903679 4.13591 7.85547 -43.9424 0 0 0 0 0 0 -4.5853 0 -27.0829 -4.04767 0 -17.9747 0 0 0 -0.247853 0 -0.0587586 -3.80804 0 -23.8274 0.187962 0 12.5761 0 0 0 3.87341 0 1.19621 
0 0 -0.236394 8.58046 8.25051 27.2896 0 0 0 0 0 0 -4.01654 0 -13.8814 -4.33777 0 -21.2562 0 0 0 -0.0848023 0 -0.00321883 -3.91298 0 -22.5592 0.0115172 0 4.04552 0 0 0 3.98204 0 1.22918 
0 0 -0.235814 8.58046 8.25051 27.2877 0 0 0 0 0 0 -4.01654 0 -13.8864 -4.33777 0 -21.2658 0 0 0 -0.0848023 0 -0.00321883 -3.91298 0 -22.5765 0.0115172 0 4.03323 0 0 0 3.98204 0 1.22918 
0 0 -0.235814 8.58046 8.25051 27.2877 0 0 0 0 0 0 -4.01654 0 -13.8864 -4.33777 0 -21.2658 0 0 0 -0.0848023 0 -0.00321883 -3.91298 0 -22.5765 0.0115172 0 4.03323 0 0 0 3.98204 0 1.22918 
0 0 -0.235814 8.58046 8.25051 27.2877 0 0 0 0 0 0 -4.01654 0 -13.8864 -4.33777 0 -21.2658 0 0 0 -0.0848023 0 -0.00321883 -3.91298 0 -22.5765 0.0115172 0 4.03323 0 0 0 3.98204 0 1.22918 
0 0 -0.175343 4.94345 8.30379 -40.1286 0 0 0 0 0 0 -4.72773 0 -25.829 -4.17882 0 -16.7801 0 0 0 -0.279253 0 -0.0647577 -4.12521 0 -25.6719 0.207351 0 11.2908 0 0 0 4.20218 0 1.29583 
0 0 -0.176152 4.94345 8.30379 -40.1259 0 0 0 0 0 0 -4.72773 0 -25.8218 -4.17882 0 -16.7666 0 0 0 -0.279253 0 -0.0647577 -4.12521 0 -25.6474 0.207351 0 11.3081 0 0 0 4.20218 0 1.29583 
0 0 -0.176152 4.94345 8.30379 -40.1259 0 0 0 0 0 0 -4.72773 0 -25.8218 -4.17882 0 -16.7666 0 0 0 -0.279253 0 -0.0647577 -4.12521 0 -25.6474 0.207351 0 11.3081 0 0 0 4.20218 0 1.29583 
0 0 -0.320927 9.55812 8.50794 32.8714 0 0 0 0 0 0 -3.89581 0 -11.4318 -4.29998 0 -19.4139 0 0 0 -0.0377507 0 0.0158927 -4.2082 0 -23.8643 -0.0489487 0 2.73578 0 0 0 4.28834 0 1.3219 
0 0 -0.320822 9.55812 8.50794 32.871 0 0 0 0 0 0 -3.89581 0 -11.4328 -4.29998 0 -19.4159 0 0 0 -0.0377507 0 0.0158927 -4.2082 0 -23.8679 -0.0489487 0 2.73318 0 0 0 4.28834 0 1.3219 
0 0 -0.320822 9.55812 8.50794 32.871 0 0 0 0 0 0 -3.89581 0 -11.4328 -4.29998 0 -19.4159 0 0 0 -0.0377507 0 0.0158927 -4.2082 0 -23.8679 -0.0489487 0 2.73318 0 0 0 4.28834 0 1.3219 
0 0 -0.231476 5.75894 8.372 -36.1403 0 0 0 0 0 0 -4.43887 0 -22.9944 -3.96797 0 -13.8551 0 0 0 -0.202314 0 -0.0366285 -4.40427 0 -26.7655 0.118145 0 10.7317 0 0 0 4.49227 0 1.38347 
0 0 -0.232688 5.75894 8.372 -36.1362 0 0 0 0 0 0 -4.43887 0 -22.9837 -3.96797 0 -13.8349 0 0 0 -0.202314 0 -0.0366285 -4.40427 0 -26.7289 0.118145 0 10.7576 0 0 0 4.49227 0 1.38347 
0 0 -0.232688 5.75894 8.372 -36.1362 0 0 0 0 0 0 -4.43887 0 -22.9837 -3.96797 0 -13.8349 0 0 0 -0.202314 0 -0.0366285 -4.40427 0 -26.7289 0.118145 0 10.7576 0 0 0 4.49227 0 1.38347 
0 0 -0.232688 5.75894 8.372 -36.1362 0 0 0 0 0 0 -4.43887 0 -22.9837 -3.96797 0 -13.8349 0 0 0 -0.202314 0 -0.0366285 -4.40427 0 -26.7289 0.118145 0 10.7576 0 0 0 4.49227 0 1.38347 
0 0 -0.384908 10.0762 8.44256 35.1108 0 0 0 0 0 0 -3.54996 0 -9.08968 -3.99613 0 -16.5149 0 0 0 0.0266745 0 0.0395448 -4.44667 0 -24.039 -0.123922 0 3.0401 0 0 0 4.53641 0 1.39679 
0 0 -0.385064 10.0762 8.44256 35.1113 0 0 0 0 0 0 -3.54996 0 -9.08857 -3.99613 0 -16.5127 0 0 0 0.0266745 0 0.0395448 -4.44667 0 -24.035 -0.123922 0 3.04281 0 0 0 4.53641 0 1.39679 
0 0 -0.385064 10.0762 8.44256 35.1113 0 0 0 0 0 0 -3.54996 0 -9.08857 -3.99613 0 -16.5127 0 0 0 0.0266745 0 0.0395448 -4.44667 0 -24.035 -0.123922 0 3.04281 0 0 0 4.53641 0 1.39679 
0 0 -0.285899 5.95043 8.22177 -35.5589 0 0 0 0 0 0 -4.09198 0 -20.9571 -3.63626 0 -11.3003 0 0 0 -0.168933 0 -0.0237027 -4.58574 0 -26.2199 0.0772172 0 11.5764 0 0 0 4.6813 0 1.44046 
0 0 -0.287148 5.95043 8.22177 -35.5546 0 0 0 0 0 0 -4.09198 0 -20.946 -3.63626 0 -11.2794 0 0 0 -0.168933 0 -0.0237027 -4.58574 0 -26.182 0.0772172 0 11.6032 0 0 0 4.6813 0 1.44046 
0 0 -0.287148 5.95043 8.22177 -35.5546 0 0 0 0 0 0 -4.09198 0 -20.946 -3.63626 0 -11.2794 0 0 0 -0.168933 0 -0.0237027 -4.58574 0 -26.182 0.0772172 0 11.6032 0 0 0 4.6813 0 1.44046 
0 0 -0.435234 9.95815 8.24466 34.0203 0 0 0 0 0 0 -3.25489 0 -7.73815 -3.67496 0 -14.3739 0 0 0 0.0209737 0 0.039346 -4.56992 0 -23.1085 -0.123142 0 4.23328 0 0 0 4.66482 0 1.4355 
0 0 -0.435258 9.95815 8.24466 34.0203 0 0 0 0 0 0 -3.25489 0 -7.73821 -3.67496 0 -14.3739 0 0 0 0.0209737 0 0.039346 -4.56992 0 -23.1085 -0.123142 0 4.23319 0 0 0 4.66482 0 1.4355 
0 0 -0.435258 9.95815 8.24466 34.0203 0 0 0 0 0 0 -3.25489 0 -7.73821 -3.67496 0 -14.3739 0 0 0 0.0209737 0 0.039346 -4.56992 0 -23.1085 -0.123142 0 4.23319 0 0 0 4.66482 0 1.4355 
0 0 -0.435258 9.95815 8.24466 34.0203 0 0 0 0 0 0 -3.25489 0 -7.73821 -3.67496 0 -14.3739 0 0 0 0.0209737 0 0.039346 -4.56992 0 -23.1085 -0.123142 0 4.23319 0 0 0 4.66482 0 1.4355 
0 0 -0.326697 5.75127 8.0371 -35.906 0 0 0 0 0 0 -3.8321 0 -19.6796 -3.39214 0 -10.1832 0 0 0 -0.201303 0 -0.033045 -4.64518 0 -24.8663 0.107026 0 12.6802 0 0 0 4.7433 0 1.45913 
0 0 -0.327733 5.75127 8.0371 -35.9025 0 0 0 0 0 0 -3.8321 0 -19.6703 -3.39214 0 -10.1659 0 0 0 -0.201303 0 -0.033045 -4.64518 0 -24.8348 0.107026 0 12.7025 0 0 0 4.7433 0 1.45913 
0 0 -0.327733 5.75127 8.0371 -35.9025 0 0 0 0 0 0 -3.8321 0 -19.6703 -3.39214 0 -10.1659 0 0 0 -0.201303 0 -0.033045 -4.64518 0 -24.8348 0.107026 0 12.7025 0 0 0 4.7433 0 1.45913 
0 0 -0.45818 9.66624 8.06017 32.8737 0 0 0 0 0 0 -3.05579 0 -7.00069 -3.46503 0 -13.225 0 0 0 -0.0347162 0 0.022111 -4.59535 0 -22.2006 -0.0682632 0 5.34864 0 0 0 4.6913 0 1.44349 
0 0 -0.457945 9.66624 8.06017 32.8729 0 0 0 0 0 0 -3.05579 0 -7.00298 -3.46503 0 -13.2293 0 0 0 -0.0347162 0 0.022111 -4.59535 0 -22.2083 -0.0682632 0 5.34315 0 0 0 4.6913 0 1.44349 
0 0 -0.457945 9.66624 8.06017 32.8729 0 0 0 0 0 0 -3.05579 0 -7.00298 -3.46503 0 -13.2293 0 0 0 -0.0347162 0 0.022111 -4.59535 0 -22.2083 -0.0682632 0 5.34315 0 0 0 4.6913 0 1.44349 
0 0 -0.343904 5.5191 7.88071 -35.9809 0 0 0 0 0 0 -3.67339 0 -19.0327 -3.24038 0 -9.6148 0 0 0 -0.265306 0 -0.0532777 -4.64054 0 -23.942 0.171411 0 13.5312 0 0 0 4.73842 0 1.45768 
0 0 -0.344733 5.5191 7.88071 -35.978 0 0 0 0 0 0 -3.67339 0 -19.0253 -3.24038 0 -9.60089 0 0 0 -0.265306 0 -0.0532777 -4.64054 0 -23.9168 0.171411 0 13.5491 0 0 0 4.73842 0 1.45768 
0 0 -0.344733 5.5191 7.88071 -35.978 0 0 0 0 0 0 -3.67339 0 -19.0253 -3.24038 0 -9.60089 0 0 0 -0.265306 0 -0.0532777 -4.64054 0 -23.9168 0.171411 0 13.5491 0 0 0 4.73842 0 1.45768 
0 0 -0.344733 5.5191 7.88071 -35.978 0 0 0 0 0 0 -3.67339 0 -19.0253 -3.24038 0 -9.60089 0 0 0 -0.265306 0 -0.0532777 -4.64054 0 -23.9168 0.171411 0 13.5491 0 0 0 4.73842 0 1.45768 
0 0 -0.461669 9.49961 7.9184 33.061 0 0 0 0 0 0 -2.92185 0 -6.4137 -3.33593 0 -12.5869 0 0 0 -0.0959317 0 0.00262503 -4.58266 0 -21.7336 -0.00626833 0 5.93983 0 0 0 4.67799 0 1.43951 
0 0 -0.461253 9.49961 7.9184 33.0596 0 0 0 0 0 0 -2.92185 0 -6.41755 -3.33593 0 -12.5941 0 0 0 -0.0959317 0 0.00262503 -4.58266 0 -21.7466 -0.00626833 0 5.93058 0 0 0 4.67799 0 1.43951 
0 0 -0.461253 9.49961 7.9184 33.0596 0 0 0 0 0 0 -2.92185 0 -6.41755 -3.33593 0 -12.5941 0 0 0 -0.0959317 0 0.00262503 -4.58266 0 -21.7466 -0.00626833 0 5.93058 0 0 0 4.67799 0 1.43951 
0 0 -0.349077 5.44852 7.75463 -35.09 0 0 0 0 0 0 -3.55659 0 -18.4964 -3.12968 0 -9.06571 0 0 0 -0.319333 0 -0.070574 -4.62513 0 -23.6008 0.226434 0 13.9516 0 0 0 4.72229 0 1.45285 
0 0 -0.349806 5.44852 7.75463 -35.0875 0 0 0 0 0 0 -3.55659 0 -18.4899 -3.12968 0 -9.05348 0 0 0 -0.319333 0 -0.070574 -4.62513 0 -23.5786 0.226434 0 13.9674 0 0 0 4.72229 0 1.45285 
0 0 -0.349806 5.44852 7.75463 -35.0875 0 0 0 0 0 0 -3.55659 0 -18.4899 -3.12968 0 -9.05348 0 0 0 -0.319333 0 -0.070574 -4.62513 0 -23.5786 0.226434 0 13.9674 0 0 0 4.72229 0 1.45285 
0 0 -0.462198 9.49671 7.79632 34.1457 0 0 0 0 0 0 -2.80438 0 -5.77356 -3.22329 0 -11.8999 0 0 0 -0.13719 0 -0.0105877 -4.57322 0 -21.6381 0.0357611 0 6.15765 0 0 0 4.66806 0 1.43655 
0 0 -0.461713 9.49671 7.79632 34.144 0 0 0 0 0 0 -2.80438 0 -5.77799 -3.22329 0 -11.9082 0 0 0 -0.13719 0 -0.0105877 -4.57322 0 -21.653 0.0357611 0 6.14702 0 0 0 4.66806 0 1.43655 
0 0 -0.461713 9.49671 7.79632 34.144 0 0 0 0 0 0 -2.80438 0 -5.77799 -3.22329 0 -11.9082 0 0 0 -0.13719 0 -0.0105877 -4.57322 0 -21.653 0.0357611 0 6.14702 0 0 0 4.66806 0 1.43655 
0 0 -0.461713 9.49671 7.79632 34.144 0 0 0 0 0 0 -2.80438 0 -5.77799 -3.22329 0 -11.9082 0 0 0 -0.13719 0 -0.0105877 -4.57322 0 -21.653 0.0357611 0 6.14702 0 0 0 4.66806 0 1.43655 
0 0 -0.352409 5.48901 7.63191 -33.8222 0 0 0 0 0 0 -3.43815 0 -17.851 -3.01176 0 -8.31472 0 0 0 -0.350909 0 -0.0807094 -4.62033 0 -23.5148 0.258673 0 14.1357 0 0 0 4.71723 0 1.45135 
0 0 -0.35312 5.48901 7.63191 -33.8198 0 0 0 0 0 0 -3.43815 0 -17.8446 -3.01176 0 -8.30281 0 0 0 -0.350909 0 -0.0807094 -4.62033 0 -23.4932 0.258673 0 14.151 0 0 0 4.71723 0 1.45135 
0 0 -0.35312 5.48901 7.63191 -33.8198 0 0 0 0 0 0 -3.43815 0 -17.8446 -3.01176 0 -8.30281 0 0 0 -0.350909 0 -0.0807094 -4.62033 0 -23.4932 0.258673 0 14.151 0 0 0 4.71723 0 1.45135 
0 0 -0.465162 9.54817 7.6671 35.3068 0 0 0 0 0 0 -2.67565 0 -5.02214 -3.09476 0 -11.0585 0 0 0 -0.159656 0 -0.0177996 -4.57252 0 -21.5849 0.0587004 0 6.27935 0 0 0 4.66726 0 1.43634 
0 0 -0.464662 9.54817 7.6671 35.3051 0 0 0 0 0 0 -2.67565 0 -5.02668 -3.09476 0 -11.0669 0 0 0 -0.159656 0 -0.0177996 -4.57252 0 -21.6002 0.0587004 0 6.26844 0 0 0 4.66726 0 1.43634 
0 0 -0.464662 9.54817 7.6671 35.3051 0 0 0 0 0 0 -2.67565 0 -5.02668 -3.09476 0 -11.0669 0 0 0 -0.159656 0 -0.0177996 -4.57252 0 -21.6002 0.0587004 0 6.26844 0 0 0 4.66726 0 1.43634 
0 0 -0.356715 5.53144 7.49472 -32.7263 0 0 0 0 0 0 -3.30355 0 -17.0978 -2.87649 0 -7.45631 0 0 0 -0.370554 0 -0.0870529 -4.61841 0 -23.3513 0.278849 0 14.3318 0 0 0 4.71517 0 1.45074 
0 0 -0.357424 5.53144 7.49472 -32.7239 0 0 0 0 0 0 -3.30355 0 -17.0915 -2.87649 0 -7.44448 0 0 0 -0.370554 0 -0.0870529 -4.61841 0 -23.3297 0.278849 0 14.347 0 0 0 4.71517 0 1.45074 
0 0 -0.357424 5.53144 7.49472 -32.7239 0 0 0 0 0 0 -3.30355 0 -17.0915 -2.87649 0 -7.44448 0 0 0 -0.370554 0 -0.0870529 -4.61841 0 -23.3297 0.278849 0 14.347 0 0 0 4.71517 0 1.45074 
0 0 -0.357424 5.53144 7.49472 -32.7239 0 0 0 0 0 0 -3.30355 0 -17.0915 -2.87649 0 -7.44448 0 0 0 -0.370554 0 -0.0870529 -4.61841 0 -23.3297 0.278849 0 14.347 0 0 0 4.71517 0 1.45074 
0 0 -0.469275 9.56077 7.51874 36.1266 0 0 0 0 0 0 -2.53288 0 -4.22078 -2.95168 0 -10.1625 0 0 0 -0.179333 0 -0.0241963 -4.56723 0 -21.3778 0.0790397 0 6.50681 0 0 0 4.66169 0 1.43468 
0 0 -0.468749 9.56077 7.51874 36.1248 0 0 0 0 0 0 -2.53288 0 -4.22553 -2.95168 0 -10.1713 0 0 0 -0.179333 0 -0.0241963 -4.56723 0 -21.3939 0.0790397 0 6.49539 0 0 0 4.66169 0 1.43468 
0 0 -0.468749 9.56077 7.51874 36.1248 0 0 0 0 0 0 -2.53288 0 -4.22553 -2.95168 0 -10.1713 0 0 0 -0.179333 0 -0.0241963 -4.56723 0 -21.3939 0.0790397 0 6.49539 0 0 0 4.66169 0 1.43468 
0 0 -0.367227 5.42149 7.30933 -32.8644 0 0 0 0 0 0 -3.17429 0 -16.4708 -2.72323 0 -6.40048 0 0 0 -0.418825 0 -0.10236 -4.58627 0 -22.4334 0.327555 0 15.2696 0 0 0 4.68164 0 1.44065 
0 0 -0.367893 5.42149 7.30933 -32.8621 0 0 0 0 0 0 -3.17429 0 -16.4648 -2.72323 0 -6.38931 0 0 0 -0.418825 0 -0.10236 -4.58627 0 -22.4131 0.327555 0 15.284 0 0 0 4.68164 0 1.44065 
0 0 -0.367893 5.42149 7.30933 -32.8621 0 0 0 0 0 0 -3.17429 0 -16.4648 -2.72323 0 -6.38931 0 0 0 -0.418825 0 -0.10236 -4.58627 0 -22.4131 0.327555 0 15.284 0 0 0 4.68164 0 1.44065 
0 0 -0.539919 9.577 7.37099 37.8797 0 0 0 0 0 0 -2.37497 0 -3.38426 -2.83985 0 -9.82475 0 0 0 -0.21118 0 -0.0345954 -4.53131 0 -20.9916 0.112101 0 6.28978 0 0 0 4.62412 0 1.4234 
0 0 -0.539309 9.577 7.37099 37.8776 0 0 0 0 0 0 -2.37497 0 -3.38979 -2.83985 0 -9.83502 0 0 0 -0.21118 0 -0.0345954 -4.53131 0 -21.0103 0.112101 0 6.27651 0 0 0 4.62412 0 1.4234 
0 0 -0.539309 9.577 7.37099 37.8776 0 0 0 0 0 0 -2.37497 0 -3.38979 -2.83985 0 -9.83502 0 0 0 -0.21118 0 -0.0345954 -4.53131 0 -21.0103 0.112101 0 6.27651 0 0 0 4.62412 0 1.4234 
0 0 -0.539309 9.577 7.37099 37.8776 0 0 0 0 0 0 -2.37497 0 -3.38979 -2.83985 0 -9.83502 0 0 0 -0.21118 0 -0.0345954 -4.53131 0 -21.0103 0.112101 0 6.27651 0 0 0 4.62412 0 1.4234 
0 0 -0.437617 5.51239 7.18036 -31.0603 0 0 0 0 0 0 -3.01122 0 -15.8115 -2.59956 0 -5.65708 0 0 0 -0.429005 0 -0.106557 -4.58096 0 -22.9761 0.340828 0 14.7314 0 0 0 4.6759 0 1.439 
0 0 -0.43819 5.51239 7.18036 -31.0584 0 0 0 0 0 0 -3.01122 0 -15.8063 -2.59956 0 -5.64739 0 0 0 -0.429005 0 -0.106557 -4.58096 0 -22.9585 0.340828 0 14.744 0 0 0 4.6759 0 1.439 
0 0 -0.43819 5.51239 7.18036 -31.0584 0 0 0 0 0 0 -3.01122 0 -15.8063 -2.59956 0 -5.64739 0 0 0 -0.429005 0 -0.106557 -4.58096 0 -22.9585 0.340828 0 14.744 0 0 0 4.6759 0 1.439 
0 0 -0.537495 9.45311 7.17731 37.0381 0 0 0 0 0 0 -2.24223 0 -2.89195 -2.65072 0 -8.26643 0 0 0 -0.245554 0 -0.0466253 -4.52674 0 -20.9273 0.150277 0 6.96588 0 0 0 4.61913 0 1.42198 
0 0 -0.536826 9.45311 7.17731 37.0358 0 0 0 0 0 0 -2.24223 0 -2.89786 -2.65072 0 -8.27744 0 0 0 -0.245554 0 -0.0466253 -4.52674 0 -20.9474 0.150277 0 6.95167 0 0 0 4.61913 0 1.42198 
0 0 -0.536826 9.45311 7.17731 37.0358 0 0 0 0 0 0 -2.24223 0 -2.89786 -2.65072 0 -8.27744 0 0 0 -0.245554 0 -0.0466253 -4.52674 0 -20.9474 0.150277 0 6.95167 0 0 0 4.61913 0 1.42198 
0 0 -0.433422 5.33757 6.97545 -31.136 0 0 0 0 0 0 -2.87443 0 -15.0947 -2.42695 0 -4.85414 0 0 0 -0.475257 0 -0.122299 -4.54865 0 -22.2535 0.39083 0 15.2821 0 0 0 4.64195 0 1.42886 
0 0 -0.433961 5.33757 6.97545 -31.1342 0 0 0 0 0 0 -2.87443 0 -15.0899 -2.42695 0 -4.84522 0 0 0 -0.475257 0 -0.122299 -4.54865 0 -22.2373 0.39083 0 15.2936 0 0 0 4.64195 0 1.42886 
0 0 -0.433961 5.33757 6.97545 -31.1342 0 0 0 0 0 0 -2.87443 0 -15.0899 -2.42695 0 -4.84522 0 0 0 -0.475257 0 -0.122299 -4.54865 0 -22.2373 0.39083 0 15.2936 0 0 0 4.64195 0 1.42886 
0 0 -0.433961 5.33757 6.97545 -31.1342 0 0 0 0 0 0 -2.87443 0 -15.0899 -2.42695 0 -4.84522 0 0 0 -0.475257 0 -0.122299 -4.54865 0 -22.2373 0.39083 0 15.2936 0 0 0 4.64195 0 1.42886 
0 0 -0.529752 9.25597 6.96086 36.9484 0 0 0 0 0 0 -2.08867 0 -2.02044 -2.48712 0 -7.50132 0 0 0 -0.301061 0 -0.0652974 -4.47388 0 -20.2563 0.209597 0 7.48036 0 0 0 4.56369 0 1.40539 
0 0 -0.528975 9.25597 6.96086 36.9458 0 0 0 0 0 0 -2.08867 0 -2.02721 -2.48712 0 -7.51395 0 0 0 -0.301061 0 -0.0652974 -4.47388 0 -20.2793 0.209597 0 7.46408 0 0 0 4.56369 0 1.40539 
0 0 -0.528975 9.25597 6.96086 36.9458 0 0 0 0 0 0 -2.08867 0 -2.02721 -2.48712 0 -7.51395 0 0 0 -0.301061 0 -0.0652974 -4.47388 0 -20.2793 0.209597 0 7.46408 0 0 0 4.56369 0 1.40539 
0 0 -0.428233 5.14438 6.75191 -30.8851 0 0 0 0 0 0 -2.71029 0 -14.2459 -2.2755 0 -4.20376 0 0 0 -0.543816 0 -0.145104 -4.47655 0 -21.5145 0.46331 0 15.8943 0 0 0 4.56641 0 1.40623 
0 0 -0.428689 5.14438 6.75191 -30.8835 0 0 0 0 0 0 -2.71029 0 -14.2419 -2.2755 0 -4.19623 0 0 0 -0.543816 0 -0.145104 -4.47655 0 -21.5008 0.46331 0 15.904 0 0 0 4.56641 0 1.40623 
0 0 -0.428689 5.14438 6.75191 -30.8835 0 0 0 0 0 0 -2.71029 0 -14.2419 -2.2755 0 -4.19623 0 0 0 -0.543816 0 -0.145104 -4.47655 0 -21.5008 0.46331 0 15.904 0 0 0 4.56641 0 1.40623 
0 0 -0.516908 9.04857 6.72296 37.0071 0 0 0 0 0 0 -1.91644 0 -1.1583 -2.33291 0 -6.76709 0 0 0 -0.382737 0 -0.0923198 -4.39019 0 -19.6453 0.295486 0 8.13674 0 0 0 4.47604 0 1.37911 
0 0 -0.516037 9.04857 6.72296 37.0042 0 0 0 0 0 0 -1.91644 0 -1.16583 -2.33291 0 -6.78115 0 0 0 -0.382737 0 -0.0923198 -4.39019 0 -19.6709 0.295486 0 8.11863 0 0 0 4.47604 0 1.37911 
0 0 -0.516037 9.04857 6.72296 37.0042 0 0 0 0 0 0 -1.91644 0 -1.16583 -2.33291 0 -6.78115 0 0 0 -0.382737 0 -0.0923198 -4.39019 0 -19.6709 0.295486 0 8.11863 0 0 0 4.47604 0 1.37911 
0 0 -0.516037 9.04857 6.72296 37.0042 0 0 0 0 0 0 -1.91644 0 -1.16583 -2.33291 0 -6.78115 0 0 0 -0.382737 0 -0.0923198 -4.39019 0 -19.6709 0.295486 0 8.11863 0 0 0 4.47604 0 1.37911 
0 0 -0.418585 4.91339 6.49977 -30.8597 0 0 0 0 0 0 -2.54406 0 -13.5375 -2.11789 0 -3.46954 0 0 0 -0.641514 0 -0.177278 -4.38202 0 -20.8868 0.565595 0 16.659 0 0 0 4.46744 0 1.37655 
0 0 -0.418962 4.91339 6.49977 -30.8584 0 0 0 0 0 0 -2.54406 0 -13.5341 -2.11789 0 -3.46329 0 0 0 -0.641514 0 -0.177278 -4.38202 0 -20.8754 0.565595 0 16.6671 0 0 0 4.46744 0 1.37655 
0 0 -0.418962 4.91339 6.49977 -30.8584 0 0 0 0 0 0 -2.54406 0 -13.5341 -2.11789 0 -3.46329 0 0 0 -0.641514 0 -0.177278 -4.38202 0 -20.8754 0.565595 0 16.6671 0 0 0 4.46744 0 1.37655 
0 0 -0.496504 8.78068 6.4557 36.7284 0 0 0 0 0 0 -1.75165 0 -0.433508 -2.16819 0 -6.01469 0 0 0 -0.491978 0 -0.128211 -4.28763 0 -19.0888 0.409591 0 8.87761 0 0 0 4.36871 0 1.34692 
0 0 -0.495548 8.78068 6.4557 36.7253 0 0 0 0 0 0 -1.75165 0 -0.441722 -2.16819 0 -6.03004 0 0 0 -0.491978 0 -0.128211 -4.28763 0 -19.1167 0.409591 0 8.85784 0 0 0 4.36871 0 1.34692 
0 0 -0.495548 8.78068 6.4557 36.7253 0 0 0 0 0 0 -1.75165 0 -0.441722 -2.16819 0 -6.03004 0 0 0 -0.491978 0 -0.128211 -4.28763 0 -19.1167 0.409591 0 8.85784 0 0 0 4.36871 0 1.34692 
0 0 -0.401401 4.61515 6.22334 -31.1658 0 0 0 0 0 0 -2.38679 0 -12.9165 -1.95365 0 -2.80354 0 0 0 -0.761612 0 -0.216656 -4.26981 0 -20.2781 0.690806 0 17.4204 0 0 0 4.35005 0 1.34132 
0 0 -0.401705 4.61515 6.22334 -31.1648 0 0 0 0 0 0 -2.38679 0 -12.9137 -1.95365 0 -2.79845 0 0 0 -0.761612 0 -0.216656 -4.26981 0 -20.2688 0.690806 0 17.427 0 0 0 4.35005 0 1.34132 
0 0 -0.401705 4.61515 6.22334 -31.1648 0 0 0 0 0 0 -2.38679 0 -12.9137 -1.95365 0 -2.79845 0 0 0 -0.761612 0 -0.216656 -4.26981 0 -20.2688 0.690806 0 17.427 0 0 0 4.35005 0 1.34132 
0 0 -0.401705 4.61515 6.22334 -31.1648 0 0 0 0 0 0 -2.38679 0 -12.9137 -1.95365 0 -2.79845 0 0 0 -0.761612 0 -0.216656 -4.26981 0 -20.2688 0.690806 0 17.427 0 0 0 4.35005 0 1.34132 
0 0 -0.46896 8.45764 6.17212 36.2601 0 0 0 0 0 0 -1.59328 0 0.247303 -2.00642 0 -5.41414 0 0 0 -0.619518 0 -0.169928 -4.16581 0 -18.4715 0.542239 0 9.61928 0 0 0 4.24133 0 1.30867 
0 0 -0.467935 8.45764 6.17212 36.2568 0 0 0 0 0 0 -1.59328 0 0.238498 -2.00642 0 -5.4306 0 0 0 -0.619518 0 -0.169928 -4.16581 0 -18.5015 0.542239 0 9.59809 0 0 0 4.24133 0 1.30867 
0 0 -0.467935 8.45764 6.17212 36.2568 0 0 0 0 0 0 -1.59328 0 0.238498 -2.00642 0 -5.4306 0 0 0 -0.619518 0 -0.169928 -4.16581 0 -18.5015 0.542239 0 9.59809 0 0 0 4.24133 0 1.30867 
0 0 -0.379431 4.28273 5.93608 -31.4926 0 0 0 0 0 0 -2.23168 0 -12.292 -1.80336 0 -2.33613 0 0 0 -0.901931 0 -0.262354 -4.13283 0 -19.465 0.836144 0 18.3114 0 0 0 4.20697 0 1.29831 
0 0 -0.379673 4.28273 5.93608 -31.4918 0 0 0 0 0 0 -2.23168 0 -12.2897 -1.80336 0 -2.332 0 0 0 -0.901931 0 -0.262354 -4.13283 0 -19.4575 0.836144 0 18.3167 0 0 0 4.20697 0 1.29831 
0 0 -0.379673 4.28273 5.93608 -31.4918 0 0 0 0 0 0 -2.23168 0 -12.2897 -1.80336 0 -2.332 0 0 0 -0.901931 0 -0.262354 -4.13283 0 -19.4575 0.836144 0 18.3167 0 0 0 4.20697 0 1.29831 
0 0 -0.436892 8.0918 5.87751 35.5525 0 0 0 0 0 0 -1.4423 0 0.824496 -1.85455 0 -4.88817 0 0 0 -0.76755 0 -0.218003 -4.02306 0 -17.8708 0.695134 0 10.4374 0 0 0 4.09236 0 1.26384 
0 0 -0.435821 8.0918 5.87751 35.549 0 0 0 0 0 0 -1.4423 0 0.815244 -1.85455 0 -4.90548 0 0 0 -0.76755 0 -0.218003 -4.02306 0 -17.9023 0.695134 0 10.4151 0 0 0 4.09236 0 1.26384 
0 0 -0.435821 8.0918 5.87751 35.549 0 0 0 0 0 0 -1.4423 0 0.815244 -1.85455 0 -4.90548 0 0 0 -0.76755 0 -0.218003 -4.02306 0 -17.9023 0.695134 0 10.4151 0 0 0 4.09236 0 1.26384 
0 0 -0.435821 8.0918 5.87751 35.549 0 0 0 0 0 0 -1.4423 0 0.815244 -1.85455 0 -4.90548 0 0 0 -0.76755 0 -0.218003 -4.02306 0 -17.9023 0.695134 0 10.4151 0 0 0 4.09236 0 1.26384 
0 0 -0.351258 3.90315 5.64559 -32.1723 0 0 0 0 0 0 -2.0909 0 -11.8346 -1.65566 0 -1.92259 0 0 0 -1.04952 0 -0.310332 -3.99002 0 -19.0327 0.988741 0 18.9264 0 0 0 4.05796 0 1.25346 
0 0 -0.351465 3.90315 5.64559 -32.1716 0 0 0 0 0 0 -2.0909 0 -11.8327 -1.65566 0 -1.91901 0 0 0 -1.04952 0 -0.310332 -3.99002 0 -19.0262 0.988741 0 18.931 0 0 0 4.05796 0 1.25346 
0 0 -0.351465 3.90315 5.64559 -32.1716 0 0 0 0 0 0 -2.0909 0 -11.8327 -1.65566 0 -1.91901 0 0 0 -1.04952 0 -0.310332 -3.99002 0 -19.0262 0.988741 0 18.931 0 0 0 4.05796 0 1.25346 
0 0 -0.400043 7.73092 5.6002 35.0121 0 0 0 0 0 0 -1.30075 0 1.35124 -1.71822 0 -4.62165 0 0 0 -0.908188 0 -0.263742 -3.88207 0 -17.5286 0.840602 0 10.8949 0 0 0 3.94528 0 1.21956 
0 0 -0.398954 7.73092 5.6002 35.0085 0 0 0 0 0 0 -1.30075 0 1.34176 -1.71822 0 -4.63937 0 0 0 -0.908188 0 -0.263742 -3.88207 0 -17.5608 0.840602 0 10.8721 0 0 0 3.94528 0 1.21956 
0 0 -0.398954 7.73092 5.6002 35.0085 0 0 0 0 0 0 -1.30075 0 1.34176 -1.71822 0 -4.63937 0 0 0 -0.908188 0 -0.263742 -3.88207 0 -17.5608 0.840602 0 10.8721 0 0 0 3.94528 0 1.21956 
0 0 -0.320556 3.5728 5.38411 -32.485 0 0 0 0 0 0 -1.95619 0 -11.3965 -1.53139 0 -1.72597 0 0 0 -1.18528 0 -0.354535 -3.85281 0 -18.7501 1.12934 0 19.3644 0 0 0 3.91481 0 1.21037 
0 0 -0.320747 3.5728 5.38411 -32.4843 0 0 0 0 0 0 -1.95619 0 -11.3947 -1.53139 0 -1.72264 0 0 0 -1.18528 0 -0.354535 -3.85281 0 -18.744 1.12934 0 19.3688 0 0 0 3.91481 0 1.21037 
0 0 -0.320747 3.5728 5.38411 -32.4843 0 0 0 0 0 0 -1.95619 0 -11.3947 -1.53139 0 -1.72264 0 0 0 -1.18528 0 -0.354535 -3.85281 0 -18.744 1.12934 0 19.3688 0 0 0 3.91481 0 1.21037 
0 0 -0.320747 3.5728 5.38411 -32.4843 0 0 0 0 0 0 -1.95619 0 -11.3947 -1.53139 0 -1.72264 0 0 0 -1.18528 0 -0.354535 -3.85281 0 -18.744 1.12934 0 19.3688 0 0 0 3.91481 0 1.21037 
0 0 -0.363259 7.41926 5.35145 34.6052 0 0 0 0 0 0 -1.1728 0 1.75914 -1.59952 0 -4.41198 0 0 0 -1.0381 0 -0.306056 -3.75201 0 -17.3703 0.975179 0 11.2874 0 0 0 3.80964 0 1.17872 
0 0 -0.362171 7.41926 5.35145 34.6016 0 0 0 0 0 0 -1.1728 0 1.74961 -1.59952 0 -4.42979 0 0 0 -1.0381 0 -0.306056 -3.75201 0 -17.4027 0.975179 0 11.2645 0 0 0 3.80964 0 1.17872 
0 0 -0.362171 7.41926 5.35145 34.6016 0 0 0 0 0 0 -1.1728 0 1.74961 -1.59952 0 -4.42979 0 0 0 -1.0381 0 -0.306056 -3.75201 0 -17.4027 0.975179 0 11.2645 0 0 0 3.80964 0 1.17872 
0 0 -0.291175 3.29094 5.15185 -32.6858 0 0 0 0 0 0 -1.8395 0 -11.0779 -1.42237 0 -1.59019 0 0 0 -1.30957 0 -0.395054 -3.72955 0 -18.6187 1.25821 0 19.7123 0 0 0 3.78627 0 1.17166 
0 0 -0.291371 3.29094 5.15185 -32.6851 0 0 0 0 0 0 -1.8395 0 -11.076 -1.42237 0 -1.58678 0 0 0 -1.30957 0 -0.395054 -3.72955 0 -18.6125 1.25821 0 19.7167 0 0 0 3.78627 0 1.17166 
0 0 -0.291371 3.29094 5.15185 -32.6851 0 0 0 0 0 0 -1.8395 0 -11.076 -1.42237 0 -1.58678 0 0 0 -1.30957 0 -0.395054 -3.72955 0 -18.6125 1.25821 0 19.7167 0 0 0 3.78627 0 1.17166 
0 0 -0.329748 7.15839 5.13339 34.344 0 0 0 0 0 0 -1.0649 0 2.05535 -1.49613 0 -4.27295 0 0 0 -1.15511 0 -0.344201 -3.63733 0 -17.33 1.0965 0 11.5756 0 0 0 3.69008 0 1.1427 
0 0 -0.328678 7.15839 5.13339 34.3404 0 0 0 0 0 0 -1.0649 0 2.04593 -1.49613 0 -4.29056 0 0 0 -1.15511 0 -0.344201 -3.63733 0 -17.362 1.0965 0 11.553 0 0 0 3.69008 0 1.1427 
0 0 -0.328678 7.15839 5.13339 34.3404 0 0 0 0 0 0 -1.0649 0 2.04593 -1.49613 0 -4.29056 0 0 0 -1.15511 0 -0.344201 -3.63733 0 -17.362 1.0965 0 11.553 0 0 0 3.69008 0 1.1427 
0 0 -0.328678 7.15839 5.13339 34.3404 0 0 0 0 0 0 -1.0649 0 2.04593 -1.49613 0 -4.29056 0 0 0 -1.15511 0 -0.344201 -3.63733 0 -17.362 1.0965 0 11.553 0 0 0 3.69008 0 1.1427 
0 0 -0.266321 3.05723 4.94785 -32.7664 0 0 0 0 0 0 -1.74137 0 -10.827 -1.33034 0 -1.52095 0 0 0 -1.42401 0 -0.4323 -3.61757 0 -18.4424 1.3767 0 20.0764 0 0 0 3.66963 0 1.13649 
0 0 -0.266539 3.05723 4.94785 -32.7657 0 0 0 0 0 0 -1.74137 0 -10.825 -1.33034 0 -1.51717 0 0 0 -1.42401 0 -0.4323 -3.61757 0 -18.4355 1.3767 0 20.0813 0 0 0 3.66963 0 1.13649 
0 0 -0.266539 3.05723 4.94785 -32.7657 0 0 0 0 0 0 -1.74137 0 -10.825 -1.33034 0 -1.51717 0 0 0 -1.42401 0 -0.4323 -3.61757 0 -18.4355 1.3767 0 20.0813 0 0 0 3.66963 0 1.13649 
0 0 -0.302162 6.92557 4.93831 34.0228 0 0 0 0 0 0 -0.97693 0 2.24923 -1.40472 0 -4.12823 0 0 0 -1.26426 0 -0.37967 -3.53365 0 -17.3224 1.20932 0 11.8589 0 0 0 3.58218 0 1.11014 
0 0 -0.301126 6.92557 4.93831 34.0193 0 0 0 0 0 0 -0.97693 0 2.24006 -1.40472 0 -4.14539 0 0 0 -1.26426 0 -0.37967 -3.53365 0 -17.3536 1.20932 0 11.8369 0 0 0 3.58218 0 1.11014 
0 0 -0.301126 6.92557 4.93831 34.0193 0 0 0 0 0 0 -0.97693 0 2.24006 -1.40472 0 -4.14539 0 0 0 -1.26426 0 -0.37967 -3.53365 0 -17.3536 1.20932 0 11.8369 0 0 0 3.58218 0 1.11014 
0 0 -0.24445 2.84029 4.76947 -32.9844 0 0 0 0 0 0 -1.66324 0 -10.6882 -1.24417 0 -1.44403 0 0 0 -1.52102 0 -0.463888 -3.52536 0 -18.574 1.47718 0 20.1429 0 0 0 3.57362 0 1.10753 
0 0 -0.244706 2.84029 4.76947 -32.9835 0 0 0 0 0 0 -1.66324 0 -10.6858 -1.24417 0 -1.43961 0 0 0 -1.52102 0 -0.463888 -3.52536 0 -18.5659 1.47718 0 20.1487 0 0 0 3.57362 0 1.10753 
0 0 -0.244706 2.84029 4.76947 -32.9835 0 0 0 0 0 0 -1.66324 0 -10.6858 -1.24417 0 -1.43961 0 0 0 -1.52102 0 -0.463888 -3.52536 0 -18.5659 1.47718 0 20.1487 0 0 0 3.57362 0 1.10753 
0 0 -0.244706 2.84029 4.76947 -32.9835 0 0 0 0 0 0 -1.66324 0 -10.6858 -1.24417 0 -1.43961 0 0 0 -1.52102 0 -0.463888 -3.52536 0 -18.5659 1.47718 0 20.1487 0 0 0 3.57362 0 1.10753 
0 0 -0.278198 6.73777 4.77914 33.8964 0 0 0 0 0 0 -0.900868 0 2.4411 -1.3274 0 -4.11198 0 0 0 -1.34718 0 -0.406715 -3.45179 0 -17.4804 1.29534 0 11.83 0 0 0 3.49691 0 1.08442 
0 0 -0.277209 6.73777 4.77914 33.8931 0 0 0 0 0 0 -0.900868 0 2.43229 -1.3274 0 -4.12845 0 0 0 -1.34718 0 -0.406715 -3.45179 0 -17.5103 1.29534 0 11.8088 0 0 0 3.49691 0 1.08442 
0 0 -0.277209 6.73777 4.77914 33.8931 0 0 0 0 0 0 -0.900868 0 2.43229 -1.3274 0 -4.12845 0 0 0 -1.34718 0 -0.406715 -3.45179 0 -17.5103 1.29534 0 11.8088 0 0 0 3.49691 0 1.08442 
0 0 -0.226005 2.6902 4.62956 -32.8918 0 0 0 0 0 0 -1.59043 0 -10.5106 -1.17648 0 -1.45649 0 0 0 -1.592 0 -0.487098 -3.45313 0 -18.7393 1.551 0 20.0859 0 0 0 3.49832 0 1.08484 
0 0 -0.226306 2.6902 4.62956 -32.8907 0 0 0 0 0 0 -1.59043 0 -10.5079 -1.17648 0 -1.45133 0 0 0 -1.592 0 -0.487098 -3.45313 0 -18.73 1.551 0 20.0926 0 0 0 3.49832 0 1.08484 
0 0 -0.226306 2.6902 4.62956 -32.8907 0 0 0 0 0 0 -1.59043 0 -10.5079 -1.17648 0 -1.45133 0 0 0 -1.592 0 -0.487098 -3.45313 0 -18.73 1.551 0 20.0926 0 0 0 3.49832 0 1.08484 
0 0 -0.259194 6.60143 4.64996 33.842 0 0 0 0 0 0 -0.833398 0 2.59955 -1.26203 0 -4.04904 0 0 0 -1.41091 0 -0.427558 -3.38798 0 -17.6363 1.36164 0 11.8404 0 0 0 3.43039 0 1.06438 
0 0 -0.258252 6.60143 4.64996 33.8387 0 0 0 0 0 0 -0.833398 0 2.59113 -1.26203 0 -4.06478 0 0 0 -1.41091 0 -0.427558 -3.38798 0 -17.6648 1.36164 0 11.8202 0 0 0 3.43039 0 1.06438 
0 0 -0.258252 6.60143 4.64996 33.8387 0 0 0 0 0 0 -0.833398 0 2.59113 -1.26203 0 -4.06478 0 0 0 -1.41091 0 -0.427558 -3.38798 0 -17.6648 1.36164 0 11.8202 0 0 0 3.43039 0 1.06438 
0 0 -0.258252 6.60143 4.64996 33.8387 0 0 0 0 0 0 -0.833398 0 2.59113 -1.26203 0 -4.06478 0 0 0 -1.41091 0 -0.427558 -3.38798 0 -17.6648 1.36164 0 11.8202 0 0 0 3.43039 0 1.06438 
0 0 -0.211954 2.57887 4.5132 -32.7611 0 0 0 0 0 0 -1.52625 0 -10.3492 -1.11721 0 -1.43269 0 0 0 -1.64874 0 -0.505668 -3.39605 0 -18.876 1.61007 0 20.0659 0 0 0 3.4388 0 1.06691 
0 0 -0.2123 2.57887 4.5132 -32.7599 0 0 0 0 0 0 -1.52625 0 -10.346 -1.11721 0 -1.42678 0 0 0 -1.64874 0 -0.505668 -3.39605 0 -18.8653 1.61007 0 20.0736 0 0 0 3.4388 0 1.06691 
0 0 -0.2123 2.57887 4.5132 -32.7599 0 0 0 0 0 0 -1.52625 0 -10.346 -1.11721 0 -1.42678 0 0 0 -1.64874 0 -0.505668 -3.39605 0 -18.8653 1.61007 0 20.0736 0 0 0 3.4388 0 1.06691 
0 0 -0.258218 6.57574 4.56516 34.5977 0 0 0 0 0 0 -0.763682 0 2.80615 -1.2156 0 -4.15819 0 0 0 -1.44635 0 -0.439434 -3.34961 0 -18.1286 1.39939 0 11.3764 0 0 0 3.39001 0 1.05233 
0 0 -0.257315 6.57574 4.56516 34.5947 0 0 0 0 0 0 -0.763682 0 2.79809 -1.2156 0 -4.17324 0 0 0 -1.44635 0 -0.439434 -3.34961 0 -18.156 1.39939 0 11.357 0 0 0 3.39001 0 1.05233 
0 0 -0.257315 6.57574 4.56516 34.5947 0 0 0 0 0 0 -0.763682 0 2.79809 -1.2156 0 -4.17324 0 0 0 -1.44635 0 -0.439434 -3.34961 0 -18.156 1.39939 0 11.357 0 0 0 3.39001 0 1.05233 
0 0 -0.219535 2.5957 4.44811 -32.0539 0 0 0 0 0 0 -1.4667 0 -10.299 -1.06559 0 -1.33216 0 0 0 -1.66665 0 -0.512094 -3.38256 0 -19.5916 1.63048 0 19.5638 0 0 0 3.42395 0 1.06268 
0 0 -0.219921 2.5957 4.44811 -32.0526 0 0 0 0 0 0 -1.4667 0 -10.2955 -1.06559 0 -1.32564 0 0 0 -1.66665 0 -0.512094 -3.38256 0 -19.5797 1.63048 0 19.5722 0 0 0 3.42395 0 1.06268 
0 0 -0.219921 2.5957 4.44811 -32.0526 0 0 0 0 0 0 -1.4667 0 -10.2955 -1.06559 0 -1.32564 0 0 0 -1.66665 0 -0.512094 -3.38256 0 -19.5797 1.63048 0 19.5722 0 0 0 3.42395 0 1.06268 
0 0 -0.219921 2.5957 4.44811 -32.0526 0 0 0 0 0 0 -1.4667 0 -10.2955 -1.06559 0 -1.32564 0 0 0 -1.66665 0 -0.512094 -3.38256 0 -19.5797 1.63048 0 19.5722 0 0 0 3.42395 0 1.06268 
0 0 -0.245595 6.54522 4.49416 34.497 0 0 0 0 0 0 -0.72116 0 2.82982 -1.14606 0 -3.81612 0 0 0 -1.46013 0 -0.44461 -3.34815 0 -18.618 1.41581 0 11.211 0 0 0 3.38758 0 1.05187 
0 0 -0.244717 6.54522 4.49416 34.494 0 0 0 0 0 0 -0.72116 0 2.82212 -1.14606 0 -3.83052 0 0 0 -1.46013 0 -0.44461 -3.34815 0 -18.6441 1.41581 0 11.1925 0 0 0 3.38758 0 1.05187 
0 0 -0.244717 6.54522 4.49416 34.494 0 0 0 0 0 0 -0.72116 0 2.82212 -1.14606 0 -3.83052 0 0 0 -1.46013 0 -0.44461 -3.34815 0 -18.6441 1.41581 0 11.1925 0 0 0 3.38758 0 1.05187 
0 0 -0.203919 2.54428 4.37621 -32.0427 0 0 0 0 0 0 -1.42488 0 -10.1402 -1.00364 0 -1.17544 0 0 0 -1.68227 0 -0.517695 -3.37262 0 -19.5758 1.64828 0 19.6058 0 0 0 3.41285 0 1.05956 
0 0 -0.204351 2.54428 4.37621 -32.0412 0 0 0 0 0 0 -1.42488 0 -10.1363 -1.00364 0 -1.16831 0 0 0 -1.68227 0 -0.517695 -3.37262 0 -19.5628 1.64828 0 19.6149 0 0 0 3.41285 0 1.05956 
0 0 -0.204351 2.54428 4.37621 -32.0412 0 0 0 0 0 0 -1.42488 0 -10.1363 -1.00364 0 -1.16831 0 0 0 -1.68227 0 -0.517695 -3.37262 0 -19.5628 1.64828 0 19.6149 0 0 0 3.41285 0 1.05956 
0 0 -0.230305 6.48709 4.42118 34.4853 0 0 0 0 0 0 -0.672105 0 3.09152 -1.09034 0 -3.68118 0 0 0 -1.47729 0 -0.450612 -3.33088 0 -18.5636 1.43489 0 11.2571 0 0 0 3.36899 0 1.04645 
0 0 -0.229446 6.48709 4.42118 34.4825 0 0 0 0 0 0 -0.672105 0 3.08403 -1.09034 0 -3.69518 0 0 0 -1.47729 0 -0.450612 -3.33088 0 -18.5891 1.43489 0 11.2392 0 0 0 3.36899 0 1.04645 
0 0 -0.229446 6.48709 4.42118 34.4825 0 0 0 0 0 0 -0.672105 0 3.08403 -1.09034 0 -3.69518 0 0 0 -1.47729 0 -0.450612 -3.33088 0 -18.5891 1.43489 0 11.2392 0 0 0 3.36899 0 1.04645 
0 0 -0.229446 6.48709 4.42118 34.4825 0 0 0 0 0 0 -0.672105 0 3.08403 -1.09034 0 -3.69518 0 0 0 -1.47729 0 -0.450612 -3.33088 0 -18.5891 1.43489 0 11.2392 0 0 0 3.36899 0 1.04645 
0 0 -0.189771 2.49056 4.30554 -31.9209 0 0 0 0 0 0 -1.37114 0 -9.8953 -0.951462 0 -1.05072 0 0 0 -1.69818 0 -0.523232 -3.35412 0 -19.6379 1.66587 0 19.5717 0 0 0 3.393 0 1.05375 
0 0 -0.190232 2.49056 4.30554 -31.9194 0 0 0 0 0 0 -1.37114 0 -9.89125 -0.951462 0 -1.04315 0 0 0 -1.69818 0 -0.523232 -3.35412 0 -19.6242 1.66587 0 19.5815 0 0 0 3.393 0 1.05375 
0 0 -0.190232 2.49056 4.30554 -31.9194 0 0 0 0 0 0 -1.37114 0 -9.89125 -0.951462 0 -1.04315 0 0 0 -1.69818 0 -0.523232 -3.35412 0 -19.6242 1.66587 0 19.5815 0 0 0 3.393 0 1.05375 
0 0 -0.21543 6.44795 4.35358 34.6776 0 0 0 0 0 0 -0.613386 0 3.37554 -1.04156 0 -3.57388 0 0 0 -1.492 0 -0.455779 -3.31207 0 -18.6326 1.4513 0 11.2191 0 0 0 3.3488 0 1.04055 
0 0 -0.214587 6.44795 4.35358 34.6748 0 0 0 0 0 0 -0.613386 0 3.36824 -1.04156 0 -3.58753 0 0 0 -1.492 0 -0.455779 -3.31207 0 -18.6574 1.4513 0 11.2016 0 0 0 3.3488 0 1.04055 
0 0 -0.214587 6.44795 4.35358 34.6748 0 0 0 0 0 0 -0.613386 0 3.36824 -1.04156 0 -3.58753 0 0 0 -1.492 0 -0.455779 -3.31207 0 -18.6574 1.4513 0 11.2016 0 0 0 3.3488 0 1.04055 
0 0 -0.177297 2.45449 4.23687 -31.7069 0 0 0 0 0 0 -1.31373 0 -9.66682 -0.901211 0 -0.881531 0 0 0 -1.71528 0 -0.529148 -3.33571 0 -19.7017 1.68467 0 19.6159 0 0 0 3.37325 0 1.04797 
0 0 -0.177776 2.45449 4.23687 -31.7053 0 0 0 0 0 0 -1.31373 0 -9.66264 -0.901211 0 -0.873733 0 0 0 -1.71528 0 -0.529148 -3.33571 0 -19.6875 1.68467 0 19.6259 0 0 0 3.37325 0 1.04797 
0 0 -0.177776 2.45449 4.23687 -31.7053 0 0 0 0 0 0 -1.31373 0 -9.66264 -0.901211 0 -0.873733 0 0 0 -1.71528 0 -0.529148 -3.33571 0 -19.6875 1.68467 0 19.6259 0 0 0 3.37325 0 1.04797 
0 0 -0.177776 2.45449 4.23687 -31.7053 0 0 0 0 0 0 -1.31373 0 -9.66264 -0.901211 0 -0.873733 0 0 0 -1.71528 0 -0.529148 -3.33571 0 -19.6875 1.68467 0 19.6259 0 0 0 3.37325 0 1.04797 
0 0 -0.208497 6.40917 4.2829 34.8158 0 0 0 0 0 0 -0.557888 0 3.59441 -0.989716 0 -3.38043 0 0 0 -1.51242 0 -0.462784 -3.29323 0 -18.6575 1.47356 0 11.2976 0 0 0 3.32858 0 1.03463 
0 0 -0.207658 6.40917 4.2829 34.8131 0 0 0 0 0 0 -0.557888 0 3.58718 -0.989716 0 -3.39394 0 0 0 -1.51242 0 -0.462784 -3.29323 0 -18.6821 1.47356 0 11.2802 0 0 0 3.32858 0 1.03463 
0 0 -0.207658 6.40917 4.2829 34.8131 0 0 0 0 0 0 -0.557888 0 3.58718 -0.989716 0 -3.39394 0 0 0 -1.51242 0 -0.462784 -3.29323 0 -18.6821 1.47356 0 11.2802 0 0 0 3.32858 0 1.03463 
0 0 -0.176609 2.41712 4.16604 -31.489 0 0 0 0 0 0 -1.25982 0 -9.47775 -0.848368 0 -0.683559 0 0 0 -1.73638 0 -0.536377 -3.31771 0 -19.7537 1.70765 0 19.6381 0 0 0 3.35386 0 1.04232 
0 0 -0.177093 2.41712 4.16604 -31.4874 0 0 0 0 0 0 -1.25982 0 -9.47355 -0.848368 0 -0.675723 0 0 0 -1.73638 0 -0.536377 -3.31771 0 -19.7395 1.70765 0 19.6482 0 0 0 3.35386 0 1.04232 
0 0 -0.177093 2.41712 4.16604 -31.4874 0 0 0 0 0 0 -1.25982 0 -9.47355 -0.848368 0 -0.675723 0 0 0 -1.73638 0 -0.536377 -3.31771 0 -19.7395 1.70765 0 19.6482 0 0 0 3.35386 0 1.04232 
0 0 -0.196996 6.35568 4.20707 34.8138 0 0 0 0 0 0 -0.505249 0 3.81126 -0.932118 0 -3.13869 0 0 0 -1.53521 0 -0.470584 -3.27499 0 -18.6972 1.49836 0 11.3775 0 0 0 3.30894 0 1.0289 
0 0 -0.196149 6.35568 4.20707 34.8111 0 0 0 0 0 0 -0.505249 0 3.80406 -0.932118 0 -3.15218 0 0 0 -1.53521 0 -0.470584 -3.27499 0 -18.7218 1.49836 0 11.3602 0 0 0 3.30894 0 1.0289 
0 0 -0.196149 6.35568 4.20707 34.8111 0 0 0 0 0 0 -0.505249 0 3.80406 -0.932118 0 -3.15218 0 0 0 -1.53521 0 -0.470584 -3.27499 0 -18.7218 1.49836 0 11.3602 0 0 0 3.30894 0 1.0289 
0 0 -0.196149 6.35568 4.20707 34.8111 0 0 0 0 0 0 -0.505249 0 3.80406 -0.932118 0 -3.15218 0 0 0 -1.53521 0 -0.470584 -3.27499 0 -18.7218 1.49836 0 11.3602 0 0 0 3.30894 0 1.0289 
0 0 -0.16916 2.34012 4.08211 -31.5556 0 0 0 0 0 0 -1.21152 0 -9.24616 -0.788013 0 -0.33203 0 0 0 -1.76488 0 -0.545957 -3.29413 0 -19.4705 1.73812 0 19.9749 0 0 0 3.32874 0 1.03491 
0 0 -0.169651 2.34012 4.08211 -31.554 0 0 0 0 0 0 -1.21152 0 -9.24194 -0.788013 0 -0.324161 0 0 0 -1.76488 0 -0.545957 -3.29413 0 -19.4562 1.73812 0 19.985 0 0 0 3.32874 0 1.03491 
0 0 -0.169651 2.34012 4.08211 -31.554 0 0 0 0 0 0 -1.21152 0 -9.24194 -0.788013 0 -0.324161 0 0 0 -1.76488 0 -0.545957 -3.29413 0 -19.4562 1.73812 0 19.985 0 0 0 3.32874 0 1.03491 
0 0 -0.211852 6.30677 4.12014 35.2401 0 0 0 0 0 0 -0.448905 0 4.37429 -0.87413 0 -2.47035 0 0 0 -1.56488 0 -0.480497 -3.24604 0 -17.6973 1.52988 0 12.1342 0 0 0 3.2783 0 1.0198 
0 0 -0.210962 6.30677 4.12014 35.2373 0 0 0 0 0 0 -0.448905 0 4.36676 -0.87413 0 -2.48445 0 0 0 -1.56488 0 -0.480497 -3.24604 0 -17.7229 1.52988 0 12.1161 0 0 0 3.2783 0 1.0198 
0 0 -0.210962 6.30677 4.12014 35.2373 0 0 0 0 0 0 -0.448905 0 4.36676 -0.87413 0 -2.48445 0 0 0 -1.56488 0 -0.480497 -3.24604 0 -17.7229 1.52988 0 12.1161 0 0 0 3.2783 0 1.0198 
0 0 -0.220726 2.33076 3.98054 -30.5734 0 0 0 0 0 0 -1.13923 0 -8.27852 -0.714523 0 1.10157 0 0 0 -1.79305 0 -0.555261 -3.26605 0 -17.6166 1.76772 0 21.3575 0 0 0 3.29922 0 1.02609 
0 0 -0.22105 2.33076 3.98054 -30.5724 0 0 0 0 0 0 -1.13923 0 -8.27572 -0.714523 0 1.10677 0 0 0 -1.79305 0 -0.555261 -3.26605 0 -17.6072 1.76772 0 21.3643 0 0 0 3.29922 0 1.02609 
0 0 -0.22105 2.33076 3.98054 -30.5724 0 0 0 0 0 0 -1.13923 0 -8.27572 -0.714523 0 1.10677 0 0 0 -1.79305 0 -0.555261 -3.26605 0 -17.6072 1.76772 0 21.3643 0 0 0 3.29922 0 1.02609 
0 0 -0.22105 2.33076 3.98054 -30.5724 0 0 0 0 0 0 -1.13923 0 -8.27572 -0.714523 0 1.10677 0 0 0 -1.79305 0 -0.555261 -3.26605 0 -17.6072 1.76772 0 21.3643 0 0 0 3.29922 0 1.02609 
0 0 -0.301882 6.35951 3.99695 36.9353 0 0 0 0 0 0 -0.340626 0 5.95138 -0.77014 0 -0.187979 0 0 0 -1.58259 0 -0.486276 -3.22685 0 -15.0283 1.54826 0 14.0164 0 0 0 3.25827 0 1.01378 
0 0 -0.300671 6.35951 3.99695 36.9314 0 0 0 0 0 0 -0.340626 0 5.94115 -0.77014 0 -0.207147 0 0 0 -1.58259 0 -0.486276 -3.22685 0 -15.0631 1.54826 0 13.9917 0 0 0 3.25827 0 1.01378 
0 0 -0.300671 6.35951 3.99695 36.9314 0 0 0 0 0 0 -0.340626 0 5.94115 -0.77014 0 -0.207147 0 0 0 -1.58259 0 -0.486276 -3.22685 0 -15.0631 1.54826 0 13.9917 0 0 0 3.25827 0 1.01378 
0 0 -0.348219 2.45313 3.83232 -28.1097 0 0 0 0 0 0 -0.985419 0 -6.16634 -0.562055 0 4.28242 0 0 0 -1.78853 0 -0.553778 -3.27031 0 -14.4822 1.763 0 23.4984 0 0 0 3.30368 0 1.02743 
0 0 -0.348067 2.45313 3.83232 -28.1102 0 0 0 0 0 0 -0.985419 0 -6.1675 -0.562055 0 4.28019 0 0 0 -1.78853 0 -0.553778 -3.27031 0 -14.4863 1.763 0 23.4956 0 0 0 3.30368 0 1.02743 
0 0 -0.348067 2.45313 3.83232 -28.1102 0 0 0 0 0 0 -0.985419 0 -6.1675 -0.562055 0 4.28019 0 0 0 -1.78853 0 -0.553778 -3.27031 0 -14.4863 1.763 0 23.4956 0 0 0 3.30368 0 1.02743 
0 0 -0.447667 6.56933 3.83072 40.1726 0 0 0 0 0 0 -0.214963 0 7.66256 -0.575781 0 3.56519 0 0 0 -1.58981 0 -0.48867 -3.25498 0 -11.3516 1.55587 0 17.2954 0 0 0 3.28764 0 1.02261 
0 0 -0.445974 6.56933 3.83072 40.1672 0 0 0 0 0 0 -0.214963 0 7.64835 -0.575781 0 3.53853 0 0 0 -1.58981 0 -0.48867 -3.25498 0 -11.4001 1.55587 0 17.2612 0 0 0 3.28764 0 1.02261 
0 0 -0.445974 6.56933 3.83072 40.1672 0 0 0 0 0 0 -0.214963 0 7.64835 -0.575781 0 3.53853 0 0 0 -1.58981 0 -0.48867 -3.25498 0 -11.4001 1.55587 0 17.2612 0 0 0 3.28764 0 1.02261 
0 0 -0.445974 6.56933 3.83072 40.1672 0 0 0 0 0 0 -0.214963 0 7.64835 -0.575781 0 3.53853 0 0 0 -1.58981 0 -0.48867 -3.25498 0 -11.4001 1.55587 0 17.2612 0 0 0 3.28764 0 1.02261 
0 0 -0.510134 2.69 3.62198 -24.6116 0 0 0 0 0 0 -0.789187 0 -3.21427 -0.298573 0 9.01909 0 0 0 -1.76888 0 -0.547312 -3.32344 0 -10.3062 1.74242 0 26.5364 0 0 0 3.35931 0 1.04412 
0 0 -0.509156 2.69 3.62198 -24.6147 0 0 0 0 0 0 -0.789187 0 -3.22235 -0.298573 0 9.00386 0 0 0 -1.76888 0 -0.547312 -3.32344 0 -10.3339 1.74242 0 26.5169 0 0 0 3.35931 0 1.04412 
0 0 -0.509156 2.69 3.62198 -24.6147 0 0 0 0 0 0 -0.789187 0 -3.22235 -0.298573 0 9.00386 0 0 0 -1.76888 0 -0.547312 -3.32344 0 -10.3339 1.74242 0 26.5169 0 0 0 3.35931 0 1.04412 
0 0 -0.63249 6.81819 3.58124 43.9262 0 0 0 0 0 0 -0.0576757 0 9.93373 -0.260021 0 8.8928 0 0 0 -1.59708 0 -0.490895 -3.32125 0 -6.27484 1.56295 0 21.9227 0 0 0 3.35725 0 1.04343 
0 0 -0.630142 6.81819 3.58124 43.9186 0 0 0 0 0 0 -0.0576757 0 9.91398 -0.260021 0 8.85574 0 0 0 -1.59708 0 -0.490895 -3.32125 0 -6.3422 1.56295 0 21.8752 0 0 0 3.35725 0 1.04343 
0 0 -0.630142 6.81819 3.58124 43.9186 0 0 0 0 0 0 -0.0576757 0 9.91398 -0.260021 0 8.85574 0 0 0 -1.59708 0 -0.490895 -3.32125 0 -6.3422 1.56295 0 21.8752 0 0 0 3.35725 0 1.04343 
0 0 -0.701693 2.97538 3.33294 -20.1387 0 0 0 0 0 0 -0.52063 0 0.704821 0.0739239 0 14.8452 0 0 0 -1.7374 0 -0.536818 -3.4069 0 -5.14392 1.70904 0 30.0921 0 0 0 3.44694 0 1.07033 
0 0 -0.699612 2.97538 3.33294 -20.1454 0 0 0 0 0 0 -0.52063 0 0.68751 0.0739239 0 14.8127 0 0 0 -1.7374 0 -0.536818 -3.4069 0 -5.20311 1.70904 0 30.0504 0 0 0 3.44694 0 1.07033 
0 0 -0.699612 2.97538 3.33294 -20.1454 0 0 0 0 0 0 -0.52063 0 0.68751 0.0739239 0 14.8127 0 0 0 -1.7374 0 -0.536818 -3.4069 0 -5.20311 1.70904 0 30.0504 0 0 0 3.44694 0 1.07033 
0 0 -0.699612 2.97538 3.33294 -20.1454 0 0 0 0 0 0 -0.52063 0 0.68751 0.0739239 0 14.8127 0 0 0 -1.7374 0 -0.536818 -3.4069 0 -5.20311 1.70904 0 30.0504 0 0 0 3.44694 0 1.07033 
0 0 -0.837181 7.1443 3.26704 48.8023 0 0 0 0 0 0 0.156986 0 12.6856 0.15213 0 15.1397 0 0 0 -1.59636 0 -0.490536 -3.4192 0 -0.535817 1.56182 0 27.2259 0 0 0 3.4599 0 1.07419 
0 0 -0.834034 7.1443 3.26704 48.7922 0 0 0 0 0 0 0.156986 0 12.6592 0.15213 0 15.0902 0 0 0 -1.59636 0 -0.490536 -3.4192 0 -0.62589 1.56182 0 27.1623 0 0 0 3.4599 0 1.07419 
0 0 -0.834034 7.1443 3.26704 48.7922 0 0 0 0 0 0 0.156986 0 12.6592 0.15213 0 15.0902 0 0 0 -1.59636 0 -0.490536 -3.4192 0 -0.62589 1.56182 0 27.1623 0 0 0 3.4599 0 1.07419 
0 0 -0.894596 3.28384 2.96212 -15.2011 0 0 0 0 0 0 -0.193527 0 5.2941 0.554804 0 21.8927 0 0 0 -1.70283 0 -0.525332 -3.51695 0 0.906747 1.67251 0 34.517 0 0 0 3.5623 0 1.10489 
0 0 -0.891176 3.28384 2.96212 -15.212 0 0 0 0 0 0 -0.193527 0 5.26564 0.554804 0 21.8392 0 0 0 -1.70283 0 -0.525332 -3.51695 0 0.809463 1.67251 0 34.4484 0 0 0 3.5623 0 1.10489 
0 0 -0.891176 3.28384 2.96212 -15.212 0 0 0 0 0 0 -0.193527 0 5.26564 0.554804 0 21.8392 0 0 0 -1.70283 0 -0.525332 -3.51695 0 0.809463 1.67251 0 34.4484 0 0 0 3.5623 0 1.10489 
0 0 -1.03015 7.4278 2.85085 53.7475 0 0 0 0 0 0 0.418947 0 15.9026 0.676882 0 22.4286 0 0 0 -1.61036 0 -0.4949 -3.52776 0 6.13407 1.5757 0 33.554 0 0 0 3.57377 0 1.10829 
0 0 -1.02602 7.4278 2.85085 53.7343 0 0 0 0 0 0 0.418947 0 15.8681 0.676882 0 22.3637 0 0 0 -1.61036 0 -0.4949 -3.52776 0 6.01621 1.5757 0 33.4709 0 0 0 3.57377 0 1.10829 
0 0 -1.02602 7.4278 2.85085 53.7343 0 0 0 0 0 0 0.418947 0 15.8681 0.676882 0 22.3637 0 0 0 -1.61036 0 -0.4949 -3.52776 0 6.01621 1.5757 0 33.4709 0 0 0 3.57377 0 1.10829 
0 0 -1.02602 7.4278 2.85085 53.7343 0 0 0 0 0 0 0.418947 0 15.8681 0.676882 0 22.3637 0 0 0 -1.61036 0 -0.4949 -3.52776 0 6.01621 1.5757 0 33.4709 0 0 0 3.57377 0 1.10829 
0 0 -1.08307 3.60337 2.50558 -9.30879 0 0 0 0 0 0 0.211239 0 10.6963 1.1137 0 29.394 0 0 0 -1.67708 0 -0.516687 -3.61931 0 7.90398 1.64501 0 39.3944 0 0 0 3.66963 0 1.13704 
0 0 -1.07812 3.60337 2.50558 -9.32444 0 0 0 0 0 0 0.211239 0 10.6554 1.1137 0 29.317 0 0 0 -1.67708 0 -0.516687 -3.61931 0 7.76398 1.64501 0 39.2957 0 0 0 3.66963 0 1.13704 
0 0 -1.07812 3.60337 2.50558 -9.32444 0 0 0 0 0 0 0.211239 0 10.6554 1.1137 0 29.317 0 0 0 -1.67708 0 -0.516687 -3.61931 0 7.76398 1.64501 0 39.2957 0 0 0 3.66963 0 1.13704 
0 0 -1.21219 5.90736 2.43942 37.9792 0 0 0 0 0 0 0.74287 0 19.5695 1.16553 0 28.9045 0 0 0 -1.61556 0 -0.496416 -3.60496 0 14.0136 1.58053 0 40.0572 0 0 0 3.65474 0 1.13253 
0 0 -1.20676 5.90736 2.43942 37.9621 0 0 0 0 0 0 0.74287 0 19.5247 1.16553 0 28.8204 0 0 0 -1.61556 0 -0.496416 -3.60496 0 13.8606 1.58053 0 39.9493 0 0 0 3.65474 0 1.13253 
0 0 -1.20676 5.90736 2.43942 37.9621 0 0 0 0 0 0 0.74287 0 19.5247 1.16553 0 28.8204 0 0 0 -1.61556 0 -0.496416 -3.60496 0 13.8606 1.58053 0 39.9493 0 0 0 3.65474 0 1.13253 
0 0 -1.25778 2.79322 2.13091 -7.38195 0 0 0 0 0 0 0.67198 0 16.5506 1.50463 0 35.1663 0 0 0 -1.63428 0 -0.502446 -3.63556 0 16.9489 1.59972 0 44.456 0 0 0 3.68686 0 1.14214 
0 0 -1.25125 2.79322 2.13091 -7.40223 0 0 0 0 0 0 0.67198 0 16.4974 1.50463 0 35.0662 0 0 0 -1.63428 0 -0.502446 -3.63556 0 16.7668 1.59972 0 44.3277 0 0 0 3.68686 0 1.14214 
0 0 -1.25125 2.79322 2.13091 -7.40223 0 0 0 0 0 0 0.67198 0 16.4974 1.50463 0 35.0662 0 0 0 -1.63428 0 -0.502446 -3.63556 0 16.7668 1.59972 0 44.3277 0 0 0 3.68686 0 1.14214 
0 0 -1.25125 2.79322 2.13091 -7.40223 0 0 0 0 0 0 0.67198 0 16.4974 1.50463 0 35.0662 0 0 0 -1.63428 0 -0.502446 -3.63556 0 16.7668 1.59972 0 44.3277 0 0 0 3.68686 0 1.14214 
0 0 -1.35307 4.14018 2.14889 24.5442 0 0 0 0 0 0 1.11152 0 23.4352 1.45638 0 33.9812 0 0 0 -1.58142 0 -0.485021 -3.60528 0 22.1935 1.54429 0 45.9666 0 0 0 3.6553 0 1.13262 
0 0 -1.34592 4.14018 2.14889 24.5223 0 0 0 0 0 0 1.11152 0 23.3775 1.45638 0 33.8727 0 0 0 -1.58142 0 -0.485021 -3.60528 0 21.9961 1.54429 0 45.8274 0 0 0 3.6553 0 1.13262 
0 0 -1.34592 4.14018 2.14889 24.5223 0 0 0 0 0 0 1.11152 0 23.3775 1.45638 0 33.8727 0 0 0 -1.58142 0 -0.485021 -3.60528 0 21.9961 1.54429 0 45.8274 0 0 0 3.6553 0 1.13262 
0 0 -1.35614 2.14338 1.88008 -3.2776 0 0 0 0 0 0 1.14636 0 21.9213 1.73722 0 39.6017 0 0 0 -1.53981 0 -0.47135 -3.6173 0 24.1282 1.50081 0 48.0485 0 0 0 3.66789 0 1.1364 
0 0 -1.3479 2.14338 1.88008 -3.30234 0 0 0 0 0 0 1.14636 0 21.856 1.73722 0 39.4787 0 0 0 -1.53981 0 -0.47135 -3.6173 0 23.9044 1.50081 0 47.8907 0 0 0 3.66789 0 1.1364 
0 0 -1.3479 2.14338 1.88008 -3.30234 0 0 0 0 0 0 1.14636 0 21.856 1.73722 0 39.4787 0 0 0 -1.53981 0 -0.47135 -3.6173 0 23.9044 1.50081 0 47.8907 0 0 0 3.66789 0 1.1364 
0 0 -1.35923 2.62312 1.93859 12.3029 0 0 0 0 0 0 1.49107 0 26.4955 1.66491 0 37.5118 0 0 0 -1.49818 0 -0.457624 -3.60349 0 26.754 1.45715 0 49.4542 0 0 0 3.65352 0 1.13206 
0 0 -1.35057 2.62312 1.93859 12.2774 0 0 0 0 0 0 1.49107 0 26.428 1.66491 0 37.3844 0 0 0 -1.49818 0 -0.457624 -3.60349 0 26.5222 1.45715 0 49.2908 0 0 0 3.65352 0 1.13206 
0 0 -1.35057 2.62312 1.93859 12.2774 0 0 0 0 0 0 1.49107 0 26.428 1.66491 0 37.3844 0 0 0 -1.49818 0 -0.457624 -3.60349 0 26.5222 1.45715 0 49.2908 0 0 0 3.65352 0 1.13206 
0 0 -1.35057 2.62312 1.93859 12.2774 0 0 0 0 0 0 1.49107 0 26.428 1.66491 0 37.3844 0 0 0 -1.49818 0 -0.457624 -3.60349 0 26.5222 1.45715 0 49.2908 0 0 0 3.65352 0 1.13206 
0 0 -1.31951 1.6533 1.68033 0.610276 0 0 0 0 0 0 1.62876 0 26.2688 1.90388 0 41.8218 0 0 0 -1.42349 0 -0.433095 -3.5842 0 28.0186 1.37913 0 49.3527 0 0 0 3.63336 0 1.126 
0 0 -1.31017 1.6533 1.68033 0.583413 0 0 0 0 0 0 1.62876 0 26.1975 1.90388 0 41.6871 0 0 0 -1.42349 0 -0.433095 -3.5842 0 27.7732 1.37913 0 49.1798 0 0 0 3.63336 0 1.126 
0 0 -1.31017 1.6533 1.68033 0.583413 0 0 0 0 0 0 1.62876 0 26.1975 1.90388 0 41.6871 0 0 0 -1.42349 0 -0.433095 -3.5842 0 27.7732 1.37913 0 49.1798 0 0 0 3.63336 0 1.126 
0 0 -1.30696 2.70756 1.66634 17.6023 0 0 0 0 0 0 1.87716 0 28.5134 1.92095 0 40.441 0 0 0 -1.45135 0 -0.442195 -3.58727 0 28.1735 1.40808 0 51.6311 0 0 0 3.6366 0 1.12696 
0 0 -1.29746 2.70756 1.66634 17.5757 0 0 0 0 0 0 1.87716 0 28.4424 1.92095 0 40.3068 0 0 0 -1.45135 0 -0.442195 -3.58727 0 27.929 1.40808 0 51.4589 0 0 0 3.6366 0 1.12696 
0 0 -1.29746 2.70756 1.66634 17.5757 0 0 0 0 0 0 1.87716 0 28.4424 1.92095 0 40.3068 0 0 0 -1.45135 0 -0.442195 -3.58727 0 27.929 1.40808 0 51.4589 0 0 0 3.6366 0 1.12696 
0 0 -1.32956 2.17039 1.39827 7.85771 0 0 0 0 0 0 2.07586 0 29.1177 2.10855 0 42.7556 0 0 0 -1.4087 0 -0.428241 -3.5068 0 30.1184 1.36369 0 50.1561 0 0 0 3.5524 0 1.10168 
0 0 -1.31959 2.17039 1.39827 7.83049 0 0 0 0 0 0 2.07586 0 29.0447 2.10855 0 42.6176 0 0 0 -1.4087 0 -0.428241 -3.5068 0 29.8667 1.36369 0 49.9789 0 0 0 3.5524 0 1.10168 
0 0 -1.31959 2.17039 1.39827 7.83049 0 0 0 0 0 0 2.07586 0 29.0447 2.10855 0 42.6176 0 0 0 -1.4087 0 -0.428241 -3.5068 0 29.8667 1.36369 0 49.9789 0 0 0 3.5524 0 1.10168 
0 0 -1.31959 2.17039 1.39827 7.83049 0 0 0 0 0 0 2.07586 0 29.0447 2.10855 0 42.6176 0 0 0 -1.4087 0 -0.428241 -3.5068 0 29.8667 1.36369 0 49.9789 0 0 0 3.5524 0 1.10168 
0 0 -1.41381 2.76724 1.21504 18.2924 0 0 0 0 0 0 2.23498 0 29.3113 2.25865 0 42.9702 0 0 0 -1.53818 0 -0.47067 -3.47367 0 28.9766 1.49864 0 53.0726 0 0 0 3.51778 0 1.09127 
0 0 -1.40384 2.76724 1.21504 18.2657 0 0 0 0 0 0 2.23498 0 29.2397 2.25865 0 42.8345 0 0 0 -1.53818 0 -0.47067 -3.47367 0 28.729 1.49864 0 52.8984 0 0 0 3.51778 0 1.09127 
0 0 -1.40384 2.76724 1.21504 18.2657 0 0 0 0 0 0 2.23498 0 29.2397 2.25865 0 42.8345 0 0 0 -1.53818 0 -0.47067 -3.47367 0 28.729 1.49864 0 52.8984 0 0 0 3.51778 0 1.09127 
0 0 -1.55698 2.33832 0.928999 12.1512 0 0 0 0 0 0 2.36228 0 29.0938 2.37863 0 42.8152 0 0 0 -1.65062 0 -0.507554 -3.3076 0 31.4414 1.61595 0 52.4686 0 0 0 3.34412 0 1.03911 
0 0 -1.54692 2.33832 0.928999 12.1248 0 0 0 0 0 0 2.36228 0 29.0225 2.37863 0 42.68 0 0 0 -1.65062 0 -0.507554 -3.3076 0 31.1946 1.61595 0 52.295 0 0 0 3.34412 0 1.03911 
0 0 -1.54692 2.33832 0.928999 12.1248 0 0 0 0 0 0 2.36228 0 29.0225 2.37863 0 42.68 0 0 0 -1.65062 0 -0.507554 -3.3076 0 31.1946 1.61595 0 52.295 0 0 0 3.34412 0 1.03911 
0 0 -1.72762 2.2173 0.658597 14.3872 0 0 0 0 0 0 2.46416 0 28.5633 2.47462 0 42.33 0 0 0 -1.86582 0 -0.578148 -3.13319 0 31.3615 1.84051 0 53.9638 0 0 0 3.16173 0 0.984323 
0 0 -1.71746 2.2173 0.658597 14.3608 0 0 0 0 0 0 2.46416 0 28.4919 2.47462 0 42.1947 0 0 0 -1.86582 0 -0.578148 -3.13319 0 31.1144 1.84051 0 53.7899 0 0 0 3.16173 0 0.984323 
0 0 -1.71746 2.2173 0.658597 14.3608 0 0 0 0 0 0 2.46416 0 28.4919 2.47462 0 42.1947 0 0 0 -1.86582 0 -0.578148 -3.13319 0 31.1144 1.84051 0 53.7899 0 0 0 3.16173 0 0.984323 
0 0 -1.71746 2.2173 0.658597 14.3608 0 0 0 0 0 0 2.46416 0 28.4919 2.47462 0 42.1947 0 0 0 -1.86582 0 -0.578148 -3.13319 0 31.1144 1.84051 0 53.7899 0 0 0 3.16173 0 0.984323 
0 0 -1.89136 1.55572 0.32515 9.45695 0 0 0 0 0 0 2.5457 0 27.7226 2.55139 0 41.4336 0 0 0 -2.10267 0 -0.655803 -2.87652 0 32.5251 2.08756 0 53.8706 0 0 0 2.89339 0 0.903686 
0 0 -1.88123 1.55572 0.32515 9.4307 0 0 0 0 0 0 2.5457 0 27.6517 2.55139 0 41.2991 0 0 0 -2.10267 0 -0.655803 -2.87652 0 32.2793 2.08756 0 53.6977 0 0 0 2.89339 0 0.903686 
0 0 -1.88123 1.55572 0.32515 9.4307 0 0 0 0 0 0 2.5457 0 27.6517 2.55139 0 41.2991 0 0 0 -2.10267 0 -0.655803 -2.87652 0 32.2793 2.08756 0 53.6977 0 0 0 2.89339 0 0.903686 
0 0 -2.02876 0.994645 -0.0102953 8.25234 0 0 0 0 0 0 2.61093 0 26.6795 2.61292 0 40.2229 0 0 0 -2.39933 0 -0.753099 -2.60262 0 32.2216 2.39714 0 54.4214 0 0 0 2.60693 0 0.817625 
0 0 -2.0188 0.994645 -0.0102953 8.2264 0 0 0 0 0 0 2.61093 0 26.6095 2.61292 0 40.09 0 0 0 -2.39933 0 -0.753099 -2.60262 0 31.979 2.39714 0 54.2508 0 0 0 2.60693 0 0.817625 
0 0 -2.0188 0.994645 -0.0102953 8.2264 0 0 0 0 0 0 2.61093 0 26.6095 2.61292 0 40.09 0 0 0 -2.39933 0 -0.753099 -2.60262 0 31.979 2.39714 0 54.2508 0 0 0 2.60693 0 0.817625 
0 0 -2.10887 0.180236 -0.38457 4.01265 0 0 0 0 0 0 2.66293 0 25.5337 2.66208 0 38.7659 0 0 0 -2.72001 0 -0.858183 -2.27752 0 32.5011 2.73155 0 54.4048 0 0 0 2.26715 0 0.715458 
0 0 -2.09923 0.180236 -0.38457 3.98718 0 0 0 0 0 0 2.66293 0 25.4652 2.66208 0 38.6359 0 0 0 -2.72001 0 -0.858183 -2.27752 0 32.2638 2.73155 0 54.2379 0 0 0 2.26715 0 0.715458 
0 0 -2.09923 0.180236 -0.38457 3.98718 0 0 0 0 0 0 2.66293 0 25.4652 2.66208 0 38.6359 0 0 0 -2.72001 0 -0.858183 -2.27752 0 32.2638 2.73155 0 54.2379 0 0 0 2.26715 0 0.715458 
0 0 -2.09923 0.180236 -0.38457 3.98718 0 0 0 0 0 0 2.66293 0 25.4652 2.66208 0 38.6359 0 0 0 -2.72001 0 -0.858183 -2.27752 0 32.2638 2.73155 0 54.2379 0 0 0 2.26715 0 0.715458 
0 0 -2.13365 -0.564371 -0.755495 1.68851 0 0 0 0 0 0 2.7047 0 24.2065 2.70159 0 36.9158 0 0 0 -3.06639 0 -0.971755 -1.94613 0 31.4152 3.09303 0 54.1644 0 0 0 1.92035 0 0.611294 
0 0 -2.12441 -0.564371 -0.755495 1.66367 0 0 0 0 0 0 2.7047 0 24.1399 2.70159 0 36.7895 0 0 0 -3.06639 0 -0.971755 -1.94613 0 31.1848 3.09303 0 54.0023 0 0 0 1.92035 0 0.611294 
0 0 -2.12441 -0.564371 -0.755495 1.66367 0 0 0 0 0 0 2.7047 0 24.1399 2.70159 0 36.7895 0 0 0 -3.06639 0 -0.971755 -1.94613 0 31.1848 3.09303 0 54.0023 0 0 0 1.92035 0 0.611294 
0 0 -2.12305 0.380568 -1.16882 18.7398 0 0 0 0 0 0 2.73831 0 22.8703 2.73277 0 35.0067 0 0 0 -3.45302 0 -1.09843 -1.56401 0 31.4008 3.4963 0 54.4341 0 0 0 1.52061 0 0.49116 
0 0 -2.11466 0.380568 -1.16882 18.7167 0 0 0 0 0 0 2.73831 0 22.8084 2.73277 0 34.8896 0 0 0 -3.45302 0 -1.09843 -1.56401 0 31.1872 3.4963 0 54.2837 0 0 0 1.52061 0 0.49116 
0 0 -2.11466 0.380568 -1.16882 18.7167 0 0 0 0 0 0 2.73831 0 22.8084 2.73277 0 34.8896 0 0 0 -3.45302 0 -1.09843 -1.56401 0 31.1872 3.4963 0 54.2837 0 0 0 1.52061 0 0.49116 
0 0 -1.94537 -1.0216 -1.57364 -0.251259 0 0 0 0 0 0 2.76493 0 21.596 2.75808 0 32.6941 0 0 0 -3.8467 0 -1.22737 -1.18452 0 29.8049 3.90686 0 54.1437 0 0 0 1.12341 0 0.371823 
0 0 -1.93717 -1.0216 -1.57364 -0.274579 0 0 0 0 0 0 2.76493 0 21.5341 2.75808 0 32.5771 0 0 0 -3.8467 0 -1.22737 -1.18452 0 29.5915 3.90686 0 53.9935 0 0 0 1.12341 0 0.371823 
0 0 -1.93717 -1.0216 -1.57364 -0.274579 0 0 0 0 0 0 2.76493 0 21.5341 2.75808 0 32.5771 0 0 0 -3.8467 0 -1.22737 -1.18452 0 29.5915 3.90686 0 53.9935 0 0 0 1.12341 0 0.371823 
0 0 -1.93717 -1.0216 -1.57364 -0.274579 0 0 0 0 0 0 2.76493 0 21.5341 2.75808 0 32.5771 0 0 0 -3.8467 0 -1.22737 -1.18452 0 29.5915 3.90686 0 53.9935 0 0 0 1.12341 0 0.371823 
0 0 -1.84501 1.19845 -2.06159 35.3505 0 0 0 0 0 0 2.78648 0 20.2529 2.77803 0 30.5935 0 0 0 -4.32046 0 -1.38242 -0.716559 0 30.8017 4.4007 0 55.5739 0 0 0 0.633955 0 0.22463 
0 0 -1.83838 1.19845 -2.06159 35.3308 0 0 0 0 0 0 2.78648 0 20.2011 2.77803 0 30.4957 0 0 0 -4.32046 0 -1.38242 -0.716559 0 30.6235 4.4007 0 55.4483 0 0 0 0.633955 0 0.22463 
0 0 -1.83838 1.19845 -2.06159 35.3308 0 0 0 0 0 0 2.78648 0 20.2011 2.77803 0 30.4957 0 0 0 -4.32046 0 -1.38242 -0.716559 0 30.6235 4.4007 0 55.4483 0 0 0 0.633955 0 0.22463 
0 0 -1.49041 -1.47522 -2.51465 -4.7766 0 0 0 0 0 0 2.80331 0 19.2176 2.79449 0 28.0427 0 0 0 -4.77454 0 -1.53097 -0.279975 0 28.8613 4.87394 0 55.5799 0 0 0 0.176967 0 0.0872632 
0 0 -1.48323 -1.47522 -2.51465 -4.79861 0 0 0 0 0 0 2.80331 0 19.1601 2.79449 0 27.9341 0 0 0 -4.77454 0 -1.53097 -0.279975 0 28.6635 4.87394 0 55.4406 0 0 0 0.176967 0 0.0872632 
0 0 -1.48323 -1.47522 -2.51465 -4.79861 0 0 0 0 0 0 2.80331 0 19.1601 2.79449 0 27.9341 0 0 0 -4.77454 0 -1.53097 -0.279975 0 28.6635 4.87394 0 55.4406 0 0 0 0.176967 0 0.0872632 
0 0 -1.26381 1.15879 -3.07511 42.7734 0 0 0 0 0 0 2.81684 0 18.3133 2.80765 0 26.137 0 0 0 -5.3265 0 -1.71144 0.267305 0 31.325 5.44904 0 58.6217 0 0 0 -0.39533 0 -0.0849841 
0 0 -1.25851 1.15879 -3.07511 42.7563 0 0 0 0 0 0 2.81684 0 18.2689 2.80765 0 26.0534 0 0 0 -5.3265 0 -1.71144 0.267305 0 31.1728 5.44904 0 58.5144 0 0 0 -0.39533 0 -0.0849841 
0 0 -1.25851 1.15879 -3.07511 42.7563 0 0 0 0 0 0 2.81684 0 18.2689 2.80765 0 26.0534 0 0 0 -5.3265 0 -1.71144 0.267305 0 31.1728 5.44904 0 58.5144 0 0 0 -0.39533 0 -0.0849841 
0 0 -1.25851 1.15879 -3.07511 42.7563 0 0 0 0 0 0 2.81684 0 18.2689 2.80765 0 26.0534 0 0 0 -5.3265 0 -1.71144 0.267305 0 31.1728 5.44904 0 58.5144 0 0 0 -0.39533 0 -0.0849841 
0 0 -0.803222 -2.72983 -3.54848 -13.5813 0 0 0 0 0 0 2.82736 0 17.5749 2.81848 0 23.4271 0 0 0 -5.8083 0 -1.86886 0.729842 0 28.5846 5.95086 0 58.5035 0 0 0 -0.879482 0 -0.230616 
0 0 -0.796498 -2.72983 -3.54848 -13.6036 0 0 0 0 0 0 2.82736 0 17.5175 2.81848 0 23.319 0 0 0 -5.8083 0 -1.86886 0.729842 0 28.3881 5.95086 0 58.365 0 0 0 -0.879482 0 -0.230616 
0 0 -0.796498 -2.72983 -3.54848 -13.6036 0 0 0 0 0 0 2.82736 0 17.5175 2.81848 0 23.319 0 0 0 -5.8083 0 -1.86886 0.729842 0 28.3881 5.95086 0 58.365 0 0 0 -0.879482 0 -0.230616 
0 0 -0.480266 -0.924325 -4.10105 30.6853 0 0 0 0 0 0 2.83578 0 17.0065 2.82721 0 21.3666 0 0 0 -6.35656 0 -2.04793 1.27368 0 30.4638 6.52189 0 61.5608 0 0 0 -1.44804 0 -0.401896 
0 0 -0.47536 -0.924325 -4.10105 30.6685 0 0 0 0 0 0 2.83578 0 16.9632 2.82721 0 21.2852 0 0 0 -6.35656 0 -2.04793 1.27368 0 30.316 6.52189 0 61.4566 0 0 0 -1.44804 0 -0.401896 
0 0 -0.47536 -0.924325 -4.10105 30.6685 0 0 0 0 0 0 2.83578 0 16.9632 2.82721 0 21.2852 0 0 0 -6.35656 0 -2.04793 1.27368 0 30.316 6.52189 0 61.4566 0 0 0 -1.44804 0 -0.401896 
0 0 -0.106261 -5.11368 -4.51551 -25.269 0 0 0 0 0 0 2.8423 0 16.2491 2.83442 0 18.6199 0 0 0 -6.77977 0 -2.18607 1.68095 0 26.4676 6.96253 0 60.266 0 0 0 -1.87421 0 -0.530217 
0 0 -0.0998888 -5.11368 -4.51551 -25.2912 0 0 0 0 0 0 2.8423 0 16.1923 2.83442 0 18.5131 0 0 0 -6.77977 0 -2.18607 1.68095 0 26.2736 6.96253 0 60.1293 0 0 0 -1.87421 0 -0.530217 
0 0 -0.0998888 -5.11368 -4.51551 -25.2912 0 0 0 0 0 0 2.8423 0 16.1923 2.83442 0 18.5131 0 0 0 -6.77977 0 -2.18607 1.68095 0 26.2736 6.96253 0 60.1293 0 0 0 -1.87421 0 -0.530217 
0 0 -0.0998888 -5.11368 -4.51551 -25.2912 0 0 0 0 0 0 2.8423 0 16.1923 2.83442 0 18.5131 0 0 0 -6.77977 0 -2.18607 1.68095 0 26.2736 6.96253 0 60.1293 0 0 0 -1.87421 0 -0.530217 
0 0 0.152694 -3.11945 -4.95757 21.9749 0 0 0 0 0 0 2.84747 0 15.7281 2.8403 0 16.547 0 0 0 -7.22129 0 -2.33017 2.11717 0 26.7364 7.42233 0 61.9979 0 0 0 -2.33008 0 -0.667691 
0 0 0.157286 -3.11945 -4.95757 21.9587 0 0 0 0 0 0 2.84747 0 15.6867 2.8403 0 16.4691 0 0 0 -7.22129 0 -2.33017 2.11717 0 26.595 7.42233 0 61.8983 0 0 0 -2.33008 0 -0.667691 
0 0 0.157286 -3.11945 -4.95757 21.9587 0 0 0 0 0 0 2.84747 0 15.6867 2.8403 0 16.4691 0 0 0 -7.22129 0 -2.33017 2.11717 0 26.595 7.42233 0 61.8983 0 0 0 -2.33008 0 -0.667691 
0 0 0.339912 -6.8888 -5.23422 -30.8525 0 0 0 0 0 0 2.8515 0 14.7816 2.84515 0 14.2054 0 0 0 -7.50245 0 -2.42189 2.38902 0 21.8742 7.71505 0 59.1015 0 0 0 -2.61441 0 -0.753393 
0 0 0.345496 -6.8888 -5.23422 -30.8722 0 0 0 0 0 0 2.8515 0 14.7313 2.84515 0 14.1109 0 0 0 -7.50245 0 -2.42189 2.38902 0 21.7026 7.71505 0 58.9805 0 0 0 -2.61441 0 -0.753393 
0 0 0.345496 -6.8888 -5.23422 -30.8722 0 0 0 0 0 0 2.8515 0 14.7313 2.84515 0 14.1109 0 0 0 -7.50245 0 -2.42189 2.38902 0 21.7026 7.71505 0 58.9805 0 0 0 -2.61441 0 -0.753393 
0 0 0.480181 -4.33964 -5.51668 19.6854 0 0 0 0 0 0 2.85466 0 14.2437 2.84909 0 12.5633 0 0 0 -7.78576 0 -2.51433 2.66758 0 21.2858 8.01015 0 59.6501 0 0 0 -2.90527 0 -0.84122 
0 0 0.483884 -4.33964 -5.51668 19.6724 0 0 0 0 0 0 2.85466 0 14.2106 2.84909 0 12.501 0 0 0 -7.78576 0 -2.51433 2.66758 0 21.1727 8.01015 0 59.5704 0 0 0 -2.90527 0 -0.84122 
0 0 0.483884 -4.33964 -5.51668 19.6724 0 0 0 0 0 0 2.85466 0 14.2106 2.84909 0 12.501 0 0 0 -7.78576 0 -2.51433 2.66758 0 21.1727 8.01015 0 59.5704 0 0 0 -2.90527 0 -0.84122 
0 0 0.483884 -4.33964 -5.51668 19.6724 0 0 0 0 0 0 2.85466 0 14.2106 2.84909 0 12.501 0 0 0 -7.78576 0 -2.51433 2.66758 0 21.1727 8.01015 0 59.5704 0 0 0 -2.90527 0 -0.84122 
0 0 0.533444 -7.64598 -5.63801 -31.3938 0 0 0 0 0 0 2.85714 0 13.2297 2.85236 0 10.9207 0 0 0 -7.90675 0 -2.5538 2.78571 0 16.3912 8.13618 0 55.7524 0 0 0 -3.02871 0 -0.878474 
0 0 0.537803 -7.64598 -5.63801 -31.4089 0 0 0 0 0 0 2.85714 0 13.1911 2.85236 0 10.8481 0 0 0 -7.90675 0 -2.5538 2.78571 0 16.2593 8.13618 0 55.6594 0 0 0 -3.02871 0 -0.878474 
0 0 0.537803 -7.64598 -5.63801 -31.4089 0 0 0 0 0 0 2.85714 0 13.1911 2.85236 0 10.8481 0 0 0 -7.90675 0 -2.5538 2.78571 0 16.2593 8.13618 0 55.6594 0 0 0 -3.02871 0 -0.878474 
0 0 0.586285 -4.71548 -5.76905 20.3696 0 0 0 0 0 0 2.8591 0 12.7381 2.85497 0 9.9096 0 0 0 -8.03848 0 -2.59681 2.91418 0 15.7272 8.27355 0 55.6639 0 0 0 -3.16251 0 -0.918986 
0 0 0.588782 -4.71548 -5.76905 20.3611 0 0 0 0 0 0 2.8591 0 12.7163 2.85497 0 9.86858 0 0 0 -8.03848 0 -2.59681 2.91418 0 15.6526 8.27355 0 55.6115 0 0 0 -3.16251 0 -0.918986 
0 0 0.588782 -4.71548 -5.76905 20.3611 0 0 0 0 0 0 2.8591 0 12.7163 2.85497 0 9.86858 0 0 0 -8.03848 0 -2.59681 2.91418 0 15.6526 8.27355 0 55.6115 0 0 0 -3.16251 0 -0.918986 
0 0 0.564305 -7.78454 -5.75393 -30.5433 0 0 0 0 0 0 2.86064 0 11.7675 2.85714 0 8.94006 0 0 0 -8.01915 0 -2.59054 2.89692 0 11.1006 8.25355 0 51.2403 0 0 0 -3.14432 0 -0.913546 
0 0 0.567419 -7.78454 -5.75393 -30.5538 0 0 0 0 0 0 2.86064 0 11.7406 2.85714 0 8.88934 0 0 0 -8.01915 0 -2.59054 2.89692 0 11.0084 8.25355 0 51.1753 0 0 0 -3.14432 0 -0.913546 
0 0 0.567419 -7.78454 -5.75393 -30.5538 0 0 0 0 0 0 2.86064 0 11.7406 2.85714 0 8.88934 0 0 0 -8.01915 0 -2.59054 2.89692 0 11.0084 8.25355 0 51.1753 0 0 0 -3.14432 0 -0.913546 
0 0 0.567419 -7.78454 -5.75393 -30.5538 0 0 0 0 0 0 2.86064 0 11.7406 2.85714 0 8.88934 0 0 0 -8.01915 0 -2.59054 2.89692 0 11.0084 8.25355 0 51.1753 0 0 0 -3.14432 0 -0.913546 
0 0 0.563467 -4.68545 -5.75919 21.315 0 0 0 0 0 0 2.86186 0 11.3666 2.85885 0 8.48365 0 0 0 -8.02436 0 -2.59232 2.90051 0 10.5566 8.25925 0 50.8013 0 0 0 -3.14745 0 -0.914668 
0 0 0.564839 -4.68545 -5.75919 21.3104 0 0 0 0 0 0 2.86186 0 11.355 2.85885 0 8.4616 0 0 0 -8.02436 0 -2.59232 2.90051 0 10.5165 8.25925 0 50.7731 0 0 0 -3.14745 0 -0.914668 
0 0 0.564839 -4.68545 -5.75919 21.3104 0 0 0 0 0 0 2.86186 0 11.355 2.85885 0 8.4616 0 0 0 -8.02436 0 -2.59232 2.90051 0 10.5165 8.25925 0 50.7731 0 0 0 -3.14745 0 -0.914668 
0 0 0.502398 -7.64792 -5.631 -29.7904 0 0 0 0 0 0 2.86282 0 10.5087 2.86029 0 7.97425 0 0 0 -7.88899 0 -2.5482 2.77092 0 6.05024 8.11843 0 46.0541 0 0 0 -3.01179 0 -0.873797 
0 0 0.504535 -7.64792 -5.631 -29.7974 0 0 0 0 0 0 2.86282 0 10.4905 2.86029 0 7.94 0 0 0 -7.88899 0 -2.5482 2.77092 0 5.98791 8.11843 0 46.0102 0 0 0 -3.01179 0 -0.873797 
0 0 0.504535 -7.64792 -5.631 -29.7974 0 0 0 0 0 0 2.86282 0 10.4905 2.86029 0 7.94 0 0 0 -7.88899 0 -2.5482 2.77092 0 5.98791 8.11843 0 46.0102 0 0 0 -3.01179 0 -0.873797 
0 0 0.479973 -4.44353 -5.53235 22.1361 0 0 0 0 0 0 2.86358 0 10.2549 2.86139 0 7.85234 0 0 0 -7.78936 0 -2.51579 2.67117 0 5.46477 8.01498 0 45.3994 0 0 0 -2.90688 0 -0.842332 
0 0 0.480519 -4.44353 -5.53235 22.1343 0 0 0 0 0 0 2.86358 0 10.2504 2.86139 0 7.84373 0 0 0 -7.78936 0 -2.51579 2.67117 0 5.44912 8.01498 0 45.3884 0 0 0 -2.90688 0 -0.842332 
0 0 0.480519 -4.44353 -5.53235 22.1343 0 0 0 0 0 0 2.86358 0 10.2504 2.86139 0 7.84373 0 0 0 -7.78936 0 -2.51579 2.67117 0 5.44912 8.01498 0 45.3884 0 0 0 -2.90688 0 -0.842332 
0 0 0.480519 -4.44353 -5.53235 22.1343 0 0 0 0 0 0 2.86358 0 10.2504 2.86139 0 7.84373 0 0 0 -7.78936 0 -2.51579 2.67117 0 5.44912 8.01498 0 45.3884 0 0 0 -2.90688 0 -0.842332 
0 0 0.405982 -7.30261 -5.31048 -28.8837 0 0 0 0 0 0 2.86418 0 9.57048 2.86234 0 7.5683 0 0 0 -7.55789 0 -2.4403 2.44837 0 0.871702 7.77404 0 40.4765 0 0 0 -2.67378 0 -0.77208 
0 0 0.40745 -7.30261 -5.31048 -28.8885 0 0 0 0 0 0 2.86418 0 9.55803 2.86234 0 7.54486 0 0 0 -7.55789 0 -2.4403 2.44837 0 0.829044 7.77404 0 40.4464 0 0 0 -2.67378 0 -0.77208 
0 0 0.40745 -7.30261 -5.31048 -28.8885 0 0 0 0 0 0 2.86418 0 9.55803 2.86234 0 7.54486 0 0 0 -7.55789 0 -2.4403 2.44837 0 0.829044 7.77404 0 40.4464 0 0 0 -2.67378 0 -0.77208 
0 0 0.389059 -3.97336 -5.12763 23.3643 0 0 0 0 0 0 2.86466 0 9.51835 2.86304 0 7.59391 0 0 0 -7.37314 0 -2.3801 2.26482 0 0.150271 7.58188 0 39.7719 0 0 0 -2.48131 0 -0.714205 
0 0 0.389033 -3.97336 -5.12763 23.3644 0 0 0 0 0 0 2.86466 0 9.51865 2.86304 0 7.59442 0 0 0 -7.37314 0 -2.3801 2.26482 0 0.151215 7.58188 0 39.7726 0 0 0 -2.48131 0 -0.714205 
0 0 0.389033 -3.97336 -5.12763 23.3644 0 0 0 0 0 0 2.86466 0 9.51865 2.86304 0 7.59442 0 0 0 -7.37314 0 -2.3801 2.26482 0 0.151215 7.58188 0 39.7726 0 0 0 -2.48131 0 -0.714205 
0 0 0.323666 -6.70298 -4.83334 -27.3234 0 0 0 0 0 0 2.86504 0 9.04874 2.86366 0 7.39382 0 0 0 -7.06745 0 -2.28034 1.9699 0 -4.53287 7.26356 0 34.8841 0 0 0 -2.17286 0 -0.621245 
0 0 0.324655 -6.70298 -4.83334 -27.3266 0 0 0 0 0 0 2.86504 0 9.04029 2.86366 0 7.37794 0 0 0 -7.06745 0 -2.28034 1.9699 0 -4.56177 7.26356 0 34.8637 0 0 0 -2.17286 0 -0.621245 
0 0 0.324655 -6.70298 -4.83334 -27.3266 0 0 0 0 0 0 2.86504 0 9.04029 2.86366 0 7.37794 0 0 0 -7.06745 0 -2.28034 1.9699 0 -4.56177 7.26356 0 34.8637 0 0 0 -2.17286 0 -0.621245 
0 0 0.324655 -6.70298 -4.83334 -27.3266 0 0 0 0 0 0 2.86504 0 9.04029 2.86366 0 7.37794 0 0 0 -7.06745 0 -2.28034 1.9699 0 -4.56177 7.26356 0 34.8637 0 0 0 -2.17286 0 -0.621245 
0 0 0.332892 -3.24365 -4.59141 25.2877 0 0 0 0 0 0 2.8653 0 9.22204 2.86405 0 7.48866 0 0 0 -6.82289 0 -2.20055 1.72757 0 -5.24598 7.00897 0 34.3671 0 0 0 -1.91903 0 -0.544868 
0 0 0.332414 -3.24365 -4.59141 25.2893 0 0 0 0 0 0 2.8653 0 9.22619 2.86405 0 7.49642 0 0 0 -6.82289 0 -2.20055 1.72757 0 -5.23185 7.00897 0 34.3771 0 0 0 -1.91903 0 -0.544868 
0 0 0.332414 -3.24365 -4.59141 25.2893 0 0 0 0 0 0 2.8653 0 9.22619 2.86405 0 7.49642 0 0 0 -6.82289 0 -2.20055 1.72757 0 -5.23185 7.00897 0 34.3771 0 0 0 -1.91903 0 -0.544868 
0 0 0.292707 -5.86086 -4.25339 -25.1218 0 0 0 0 0 0 2.86557 0 8.97151 2.86444 0 7.33555 0 0 0 -6.47264 0 -2.08617 1.38915 0 -9.8075 6.64411 0 29.7743 0 0 0 -1.56518 0 -0.438242 
0 0 0.293298 -5.86086 -4.25339 -25.1238 0 0 0 0 0 0 2.86557 0 8.96641 2.86444 0 7.326 0 0 0 -6.47264 0 -2.08617 1.38915 0 -9.82489 6.64411 0 29.762 0 0 0 -1.56518 0 -0.438242 
0 0 0.293298 -5.86086 -4.25339 -25.1238 0 0 0 0 0 0 2.86557 0 8.96641 2.86444 0 7.326 0 0 0 -6.47264 0 -2.08617 1.38915 0 -9.82489 6.64411 0 29.762 0 0 0 -1.56518 0 -0.438242 
0 0 0.337086 -2.32198 -3.98541 27.5959 0 0 0 0 0 0 2.8658 0 9.34691 2.86468 0 7.50712 0 0 0 -6.20156 0 -1.99764 1.12092 0 -10.2079 6.36174 0 29.6861 0 0 0 -1.28438 0 -0.35374 
0 0 0.336194 -2.32198 -3.98541 27.5988 0 0 0 0 0 0 2.8658 0 9.35457 2.86468 0 7.52149 0 0 0 -6.20156 0 -1.99764 1.12092 0 -10.1817 6.36174 0 29.7045 0 0 0 -1.28438 0 -0.35374 
0 0 0.336194 -2.32198 -3.98541 27.5988 0 0 0 0 0 0 2.8658 0 9.35457 2.86468 0 7.52149 0 0 0 -6.20156 0 -1.99764 1.12092 0 -10.1817 6.36174 0 29.7045 0 0 0 -1.28438 0 -0.35374 
0 0 0.336194 -2.32198 -3.98541 27.5988 0 0 0 0 0 0 2.8658 0 9.35457 2.86468 0 7.52149 0 0 0 -6.20156 0 -1.99764 1.12092 0 -10.1817 6.36174 0 29.7045 0 0 0 -1.28438 0 -0.35374 
0 0 0.327381 -5.72468 -3.79842 -31.0687 0 0 0 0 0 0 2.86588 0 9.61156 2.86498 0 7.86455 0 0 0 -5.98658 0 -1.92739 0.933621 0 -9.56267 6.13772 0 29.546 0 0 0 -1.08849 0 -0.294749 
0 0 0.326262 -5.72468 -3.79842 -31.065 0 0 0 0 0 0 2.86588 0 9.62101 2.86498 0 7.88239 0 0 0 -5.98658 0 -1.92739 0.933621 0 -9.53024 6.13772 0 29.5688 0 0 0 -1.08849 0 -0.294749 
0 0 0.326262 -5.72468 -3.79842 -31.065 0 0 0 0 0 0 2.86588 0 9.62101 2.86498 0 7.88239 0 0 0 -5.98658 0 -1.92739 0.933621 0 -9.53024 6.13772 0 29.5688 0 0 0 -1.08849 0 -0.294749 
0 0 0.379915 -2.3177 -3.62186 24.3642 0 0 0 0 0 0 2.86594 0 9.92069 2.86516 0 7.97443 0 0 0 -5.84191 0 -1.88012 0.756871 0 -10.4216 5.98699 0 30.0948 0 0 0 -0.903473 0 -0.239084 
0 0 0.379322 -2.3177 -3.62186 24.3662 0 0 0 0 0 0 2.86594 0 9.92578 2.86516 0 7.98399 0 0 0 -5.84191 0 -1.88012 0.756871 0 -10.4042 5.98699 0 30.1071 0 0 0 -0.903473 0 -0.239084 
0 0 0.379322 -2.3177 -3.62186 24.3662 0 0 0 0 0 0 2.86594 0 9.92578 2.86516 0 7.98399 0 0 0 -5.84191 0 -1.88012 0.756871 0 -10.4042 5.98699 0 30.1071 0 0 0 -0.903473 0 -0.239084 
0 0 0.324141 -4.94802 -3.33431 -25.1933 0 0 0 0 0 0 2.68786 0 7.62829 2.79639 0 7.05619 0 0 0 -5.65313 0 -1.8184 0.538042 0 -12.8912 5.79022 0 27.7396 0 0 0 -0.674626 0 -0.170179 
0 0 0.324385 -4.94802 -3.33431 -25.1941 0 0 0 0 0 0 2.68786 0 7.62619 2.79639 0 7.05224 0 0 0 -5.65313 0 -1.8184 0.538042 0 -12.8984 5.79022 0 27.7345 0 0 0 -0.674626 0 -0.170179 
0 0 0.324385 -4.94802 -3.33431 -25.1941 0 0 0 0 0 0 2.68786 0 7.62619 2.79639 0 7.05224 0 0 0 -5.65313 0 -1.8184 0.538042 0 -12.8984 5.79022 0 27.7345 0 0 0 -0.674626 0 -0.170179 
0 0 0.324385 -4.94802 -3.33431 -25.1941 0 0 0 0 0 0 2.68786 0 7.62619 2.79639 0 7.05224 0 0 0 -5.65313 0 -1.8184 0.538042 0 -12.8984 5.79022 0 27.7345 0 0 0 -0.674626 0 -0.170179 
0 0 0.393692 -1.23457 -3.15728 29.9081 0 0 0 0 0 0 2.72364 0 9.56545 2.81022 0 7.84747 0 0 0 -5.46754 0 -1.75772 0.347184 0 -13.6297 5.59678 0 26.977 0 0 0 -0.474958 0 -0.11009 
0 0 0.393109 -1.23457 -3.15728 29.9101 0 0 0 0 0 0 2.72364 0 9.57046 2.81022 0 7.85687 0 0 0 -5.46754 0 -1.75772 0.347184 0 -13.6126 5.59678 0 26.989 0 0 0 -0.474958 0 -0.11009 
0 0 0.393109 -1.23457 -3.15728 29.9101 0 0 0 0 0 0 2.72364 0 9.57046 2.81022 0 7.85687 0 0 0 -5.46754 0 -1.75772 0.347184 0 -13.6126 5.59678 0 26.989 0 0 0 -0.474958 0 -0.11009 
0 0 0.332177 -3.9029 -2.88673 -21.3511 0 0 0 0 0 0 2.4808 0 6.39695 2.73301 0 6.88341 0 0 0 -5.2986 0 -1.70246 0.153802 0 -14.8968 5.4206 0 25.9433 0 0 0 -0.272871 0 -0.0492171 
0 0 0.331897 -3.9029 -2.88673 -21.3502 0 0 0 0 0 0 2.4808 0 6.39926 2.73301 0 6.88779 0 0 0 -5.2986 0 -1.70246 0.153802 0 -14.8888 5.4206 0 25.9489 0 0 0 -0.272871 0 -0.0492171 
0 0 0.331897 -3.9029 -2.88673 -21.3502 0 0 0 0 0 0 2.4808 0 6.39926 2.73301 0 6.88779 0 0 0 -5.2986 0 -1.70246 0.153802 0 -14.8888 5.4206 0 25.9489 0 0 0 -0.272871 0 -0.0492171 
