alexis-jensen/Push-Recovery/PushRecovery/log/torques210.txt
q0 qdot0 tau0 q1 qdot1 tau1 q2 qdot2 tau2 q3 qdot3 tau3 q4 qdot4 tau4 q5 qdot5 tau5 q6 qdot6 tau6 q7 qdot7 tau7 q8 qdot8 tau8 q9 qdot9 tau9 q10 qdot10 tau10 q11 qdot11 tau11 
0 0 0 0 0 0 0 0 0 0 0 0 0 0 0 0 0 0 0 0 0 0 0 0 0 0 0 0 0 0 0 0 0 0 0 0 
0 0 0 0 0 0 0 0 0 0 0 0 0 0 0 0 0 0 0 0 0 0 0 0 0 0 0 0 0 0 0 0 0 0 0 0 
0 0 0 0 0 0 0 0 0 0 0 0 0 0 0 0 0 0 0 0 0 0 0 0 0 0 0 0 0 0 0 0 0 0 0 0 
0 0 0 0 0 0 0 0 0 0 0 0 0 0 0 0 0 0 0 0 0 0 0 0 0 0 0 0 0 0 0 0 0 0 0 0 
0 0 0 0 0 0 0 0 0 0 0 0 0 0 0 0 0 0 0 0 0 0 0 0 0 0 0 0 0 0 0 0 0 0 0 0 
0 0 0.961034 0.411179 1.39252 -4.3091 0 0 0 0 0 0 0.550478 0 10.843 0.507655 0 7.94363 0 0 0 0.847034 0 0.269064 -1.90056 0 -40.0971 -0.856252 0 -12.7782 0 0 0 1.91422 0 0.596959 
0 0 0.909597 0.411179 1.39252 -4.24455 0 0 0 0 0 0 0.550478 0 10.8492 0.507655 0 8.17624 0 0 0 0.847034 0 0.269064 -1.90056 0 -39.7331 -0.856252 0 -12.6468 0 0 0 1.91422 0 0.596959 
0 0 0.909597 0.411179 1.39252 -4.24455 0 0 0 0 0 0 0.550478 0 10.8492 0.507655 0 8.17624 0 0 0 0.847034 0 0.269064 -1.90056 0 -39.7331 -0.856252 0 -12.6468 0 0 0 1.91422 0 0.596959 
0 0 1.75156 5.70819 3.31191 41.9539 0 0 0 0 0 0 -0.684546 0 -6.00027 -0.697518 0 -10.8344 0 0 0 0.801829 0 0.25836 -2.6149 0 -24.5947 -0.822065 0 5.43367 0 0 0 2.64377 0 0.821328 
0 0 1.68851 5.70819 3.31191 42.0146 0 0 0 0 0 0 -0.684546 0 -6.04603 -0.697518 0 -10.6437 0 0 0 0.801829 0 0.25836 -2.6149 0 -24.3192 -0.822065 0 5.46124 0 0 0 2.64377 0 0.821328 
0 0 1.68851 5.70819 3.31191 42.0146 0 0 0 0 0 0 -0.684546 0 -6.04603 -0.697518 0 -10.6437 0 0 0 0.801829 0 0.25836 -2.6149 0 -24.3192 -0.822065 0 5.46124 0 0 0 2.64377 0 0.821328 
0 0 1.68851 5.70819 3.31191 42.0146 0 0 0 0 0 0 -0.684546 0 -6.04603 -0.697518 0 -10.6437 0 0 0 0.801829 0 0.25836 -2.6149 0 -24.3192 -0.822065 0 5.46124 0 0 0 2.64377 0 0.821328 
0 0 2.45365 3.64893 5.00487 -20.3979 0 0 0 0 0 0 -2.18575 0 -14.5674 -2.00958 0 -19.6947 0 0 0 0.557136 0 0.184189 -2.99582 0 -22.9221 -0.585892 0 11.4907 0 0 0 3.03523 0 0.940991 
0 0 2.38221 3.64893 5.00487 -20.3454 0 0 0 0 0 0 -2.18575 0 -14.6621 -2.00958 0 -19.558 0 0 0 0.557136 0 0.184189 -2.99582 0 -22.7563 -0.585892 0 11.4096 0 0 0 3.03523 0 0.940991 
0 0 2.38221 3.64893 5.00487 -20.3454 0 0 0 0 0 0 -2.18575 0 -14.6621 -2.00958 0 -19.558 0 0 0 0.557136 0 0.184189 -2.99582 0 -22.7563 -0.585892 0 11.4096 0 0 0 3.03523 0 0.940991 
0 0 -1.09054 8.90027 6.55193 44.1833 0 0 0 0 0 0 -2.85288 0 -17.5226 -3.37524 0 -22.114 0 0 0 0.396533 0 0.136387 -3.17725 0 -15.2727 -0.433616 0 5.30534 0 0 0 3.22207 0 0.998018 
0 0 -1.05508 8.90027 6.55193 44.1528 0 0 0 0 0 0 -2.85288 0 -17.499 -3.37524 0 -22.2142 0 0 0 0.396533 0 0.136387 -3.17725 0 -15.4148 -0.433616 0 5.29669 0 0 0 3.22207 0 0.998018 
0 0 -1.05508 8.90027 6.55193 44.1528 0 0 0 0 0 0 -2.85288 0 -17.499 -3.37524 0 -22.2142 0 0 0 0.396533 0 0.136387 -3.17725 0 -15.4148 -0.433616 0 5.29669 0 0 0 3.22207 0 0.998018 
0 0 -0.0183732 3.48941 6.90596 -50.5288 0 0 0 0 0 0 -4.23286 0 -28.1116 -3.27503 0 -12.4231 0 0 0 0.0502231 0 0.0282428 -3.63145 0 -25.9063 -0.0893927 0 11.7628 0 0 0 3.69043 0 1.14068 
0 0 -0.0168292 3.48941 6.90596 -50.532 0 0 0 0 0 0 -4.23286 0 -28.1182 -3.27503 0 -12.4382 0 0 0 0.0502231 0 0.0282428 -3.63145 0 -25.9331 -0.0893927 0 11.7454 0 0 0 3.69043 0 1.14068 
0 0 -0.0168292 3.48941 6.90596 -50.532 0 0 0 0 0 0 -4.23286 0 -28.1182 -3.27503 0 -12.4382 0 0 0 0.0502231 0 0.0282428 -3.63145 0 -25.9331 -0.0893927 0 11.7454 0 0 0 3.69043 0 1.14068 
0 0 -0.0168292 3.48941 6.90596 -50.532 0 0 0 0 0 0 -4.23286 0 -28.1182 -3.27503 0 -12.4382 0 0 0 0.0502231 0 0.0282428 -3.63145 0 -25.9331 -0.0893927 0 11.7454 0 0 0 3.69043 0 1.14068 
0 0 -0.115441 8.28769 7.76587 30.3783 0 0 0 0 0 0 -3.6115 0 -11.2094 -4.09606 0 -24.1182 0 0 0 0.219868 0 0.0863714 -3.67027 0 -19.4053 -0.274086 0 2.29927 0 0 0 3.73028 0 1.15291 
0 0 -0.114916 8.28769 7.76587 30.3765 0 0 0 0 0 0 -3.6115 0 -11.2147 -4.09606 0 -24.1279 0 0 0 0.219868 0 0.0863714 -3.67027 0 -19.423 -0.274086 0 2.28632 0 0 0 3.73028 0 1.15291 
0 0 -0.114916 8.28769 7.76587 30.3765 0 0 0 0 0 0 -3.6115 0 -11.2147 -4.09606 0 -24.1279 0 0 0 0.219868 0 0.0863714 -3.67027 0 -19.423 -0.274086 0 2.28632 0 0 0 3.73028 0 1.15291 
0 0 -0.0753926 4.47643 8.04116 -42.1035 0 0 0 0 0 0 -4.58049 0 -26.8602 -4.12832 0 -18.0887 0 0 0 -0.101195 0 -0.0146329 -3.91328 0 -24.5325 0.0473733 0 12.3448 0 0 0 3.98187 0 1.22924 
0 0 -0.0758147 4.47643 8.04116 -42.1022 0 0 0 0 0 0 -4.58049 0 -26.8567 -4.12832 0 -18.0822 0 0 0 -0.101195 0 -0.0146329 -3.91328 0 -24.5207 0.0473733 0 12.3532 0 0 0 3.98187 0 1.22924 
0 0 -0.0758147 4.47643 8.04116 -42.1022 0 0 0 0 0 0 -4.58049 0 -26.8567 -4.12832 0 -18.0822 0 0 0 -0.101195 0 -0.0146329 -3.91328 0 -24.5207 0.0473733 0 12.3532 0 0 0 3.98187 0 1.22924 
0 0 -0.245434 8.86216 8.3814 27.8705 0 0 0 0 0 0 -4.03575 0 -14.014 -4.36033 0 -20.8053 0 0 0 0.0275639 0 0.0300151 -4.02148 0 -23.0688 -0.0944233 0 4.10195 0 0 0 4.094 0 1.26324 
0 0 -0.244843 8.86216 8.3814 27.8687 0 0 0 0 0 0 -4.03575 0 -14.0187 -4.36033 0 -20.8143 0 0 0 0.0275639 0 0.0300151 -4.02148 0 -23.085 -0.0944233 0 4.09045 0 0 0 4.094 0 1.26324 
0 0 -0.244843 8.86216 8.3814 27.8687 0 0 0 0 0 0 -4.03575 0 -14.0187 -4.36033 0 -20.8143 0 0 0 0.0275639 0 0.0300151 -4.02148 0 -23.085 -0.0944233 0 4.09045 0 0 0 4.094 0 1.26324 
0 0 -0.244843 8.86216 8.3814 27.8687 0 0 0 0 0 0 -4.03575 0 -14.0187 -4.36033 0 -20.8143 0 0 0 0.0275639 0 0.0300151 -4.02148 0 -23.085 -0.0944233 0 4.09045 0 0 0 4.094 0 1.26324 
0 0 -0.198201 5.20342 8.40717 -39.1522 0 0 0 0 0 0 -4.75616 0 -25.9883 -4.18814 0 -16.5592 0 0 0 -0.19306 0 -0.0394119 -4.21942 0 -25.7686 0.126539 0 11.3931 0 0 0 4.29969 0 1.32541 
0 0 -0.199103 5.20342 8.40717 -39.1494 0 0 0 0 0 0 -4.75616 0 -25.981 -4.18814 0 -16.5453 0 0 0 -0.19306 0 -0.0394119 -4.21942 0 -25.7434 0.126539 0 11.4109 0 0 0 4.29969 0 1.32541 
0 0 -0.199103 5.20342 8.40717 -39.1494 0 0 0 0 0 0 -4.75616 0 -25.981 -4.18814 0 -16.5453 0 0 0 -0.19306 0 -0.0394119 -4.21942 0 -25.7434 0.126539 0 11.4109 0 0 0 4.29969 0 1.32541 
0 0 -0.362326 9.70186 8.56526 32.6976 0 0 0 0 0 0 -3.94468 0 -11.7363 -4.27221 0 -18.7968 0 0 0 0.0239432 0 0.0335824 -4.29341 0 -23.9882 -0.105397 0 2.90594 0 0 0 4.37664 0 1.34865 
0 0 -0.362216 9.70186 8.56526 32.6972 0 0 0 0 0 0 -3.94468 0 -11.7373 -4.27221 0 -18.7987 0 0 0 0.0239432 0 0.0335824 -4.29341 0 -23.9918 -0.105397 0 2.9034 0 0 0 4.37664 0 1.34865 
0 0 -0.362216 9.70186 8.56526 32.6972 0 0 0 0 0 0 -3.94468 0 -11.7373 -4.27221 0 -18.7987 0 0 0 0.0239432 0 0.0335824 -4.29341 0 -23.9918 -0.105397 0 2.9034 0 0 0 4.37664 0 1.34865 
0 0 -0.286158 5.84914 8.41261 -36.0667 0 0 0 0 0 0 -4.47811 0 -23.1203 -3.94725 0 -13.5976 0 0 0 -0.152209 0 -0.0221432 -4.4657 0 -26.4735 0.0719323 0 10.7428 0 0 0 4.55609 0 1.40275 
0 0 -0.287459 5.84914 8.41261 -36.0626 0 0 0 0 0 0 -4.47811 0 -23.1096 -3.94725 0 -13.5772 0 0 0 -0.152209 0 -0.0221432 -4.4657 0 -26.4364 0.0719323 0 10.7691 0 0 0 4.55609 0 1.40275 
0 0 -0.287459 5.84914 8.41261 -36.0626 0 0 0 0 0 0 -4.47811 0 -23.1096 -3.94725 0 -13.5772 0 0 0 -0.152209 0 -0.0221432 -4.4657 0 -26.4364 0.0719323 0 10.7691 0 0 0 4.55609 0 1.40275 
0 0 -0.287459 5.84914 8.41261 -36.0626 0 0 0 0 0 0 -4.47811 0 -23.1096 -3.94725 0 -13.5772 0 0 0 -0.152209 0 -0.0221432 -4.4657 0 -26.4364 0.0719323 0 10.7691 0 0 0 4.55609 0 1.40275 
0 0 -0.45864 10.1127 8.46689 34.8398 0 0 0 0 0 0 -3.58355 0 -9.21674 -3.97839 0 -16.234 0 0 0 0.0655352 0 0.0507161 -4.48882 0 -23.6833 -0.159572 0 3.04125 0 0 0 4.58019 0 1.41002 
0 0 -0.458806 10.1127 8.46689 34.8403 0 0 0 0 0 0 -3.58355 0 -9.21561 -3.97839 0 -16.2317 0 0 0 0.0655352 0 0.0507161 -4.48882 0 -23.6792 -0.159572 0 3.04403 0 0 0 4.58019 0 1.41002 
0 0 -0.458806 10.1127 8.46689 34.8403 0 0 0 0 0 0 -3.58355 0 -9.21561 -3.97839 0 -16.2317 0 0 0 0.0655352 0 0.0507161 -4.48882 0 -23.6792 -0.159572 0 3.04403 0 0 0 4.58019 0 1.41002 
0 0 -0.373392 5.99069 8.24411 -35.3207 0 0 0 0 0 0 -4.10239 0 -20.9095 -3.63723 0 -11.2296 0 0 0 -0.136497 0 -0.0141465 -4.60718 0 -25.6979 0.046744 0 11.4945 0 0 0 4.7036 0 1.44719 
0 0 -0.374692 5.99069 8.24411 -35.3165 0 0 0 0 0 0 -4.10239 0 -20.8985 -3.63723 0 -11.2088 0 0 0 -0.136497 0 -0.0141465 -4.60718 0 -25.66 0.046744 0 11.5212 0 0 0 4.7036 0 1.44719 
0 0 -0.374692 5.99069 8.24411 -35.3165 0 0 0 0 0 0 -4.10239 0 -20.8985 -3.63723 0 -11.2088 0 0 0 -0.136497 0 -0.0141465 -4.60718 0 -25.66 0.046744 0 11.5212 0 0 0 4.7036 0 1.44719 
0 0 -0.534375 9.99555 8.26194 34.1978 0 0 0 0 0 0 -3.26019 0 -7.79979 -3.68433 0 -14.2612 0 0 0 0.0413651 0 0.0452927 -4.57789 0 -22.6155 -0.142112 0 4.25777 0 0 0 4.67306 0 1.438 
0 0 -0.534404 9.99555 8.26194 34.1978 0 0 0 0 0 0 -3.26019 0 -7.7998 -3.68433 0 -14.2611 0 0 0 0.0413651 0 0.0452927 -4.57789 0 -22.6154 -0.142112 0 4.25779 0 0 0 4.67306 0 1.438 
0 0 -0.534404 9.99555 8.26194 34.1978 0 0 0 0 0 0 -3.26019 0 -7.7998 -3.68433 0 -14.2611 0 0 0 0.0413651 0 0.0452927 -4.57789 0 -22.6154 -0.142112 0 4.25779 0 0 0 4.67306 0 1.438 
0 0 -0.534404 9.99555 8.26194 34.1978 0 0 0 0 0 0 -3.26019 0 -7.7998 -3.68433 0 -14.2611 0 0 0 0.0413651 0 0.0452927 -4.57789 0 -22.6154 -0.142112 0 4.25779 0 0 0 4.67306 0 1.438 
0 0 -0.437026 5.77373 8.04421 -35.7678 0 0 0 0 0 0 -3.83537 0 -19.7904 -3.40035 0 -9.9806 0 0 0 -0.19277 0 -0.030616 -4.64413 0 -24.3959 0.0992707 0 12.7353 0 0 0 4.74216 0 1.45879 
0 0 -0.438078 5.77373 8.04421 -35.7642 0 0 0 0 0 0 -3.83537 0 -19.7812 -3.40035 0 -9.96337 0 0 0 -0.19277 0 -0.030616 -4.64413 0 -24.3645 0.0992707 0 12.7575 0 0 0 4.74216 0 1.45879 
0 0 -0.438078 5.77373 8.04421 -35.7642 0 0 0 0 0 0 -3.83537 0 -19.7812 -3.40035 0 -9.96337 0 0 0 -0.19277 0 -0.030616 -4.64413 0 -24.3645 0.0992707 0 12.7575 0 0 0 4.74216 0 1.45879 
0 0 -0.570419 9.6911 8.06364 33.154 0 0 0 0 0 0 -3.05989 0 -7.14854 -3.47912 0 -13.1119 0 0 0 -0.0376535 0 0.0210783 -4.58476 0 -21.6679 -0.0649872 0 5.43932 0 0 0 4.68022 0 1.44016 
0 0 -0.570187 9.6911 8.06364 33.1531 0 0 0 0 0 0 -3.05989 0 -7.15078 -3.47912 0 -13.116 0 0 0 -0.0376535 0 0.0210783 -4.58476 0 -21.6754 -0.0649872 0 5.43396 0 0 0 4.68022 0 1.44016 
0 0 -0.570187 9.6911 8.06364 33.1531 0 0 0 0 0 0 -3.05989 0 -7.15078 -3.47912 0 -13.116 0 0 0 -0.0376535 0 0.0210783 -4.58476 0 -21.6754 -0.0649872 0 5.43396 0 0 0 4.68022 0 1.44016 
0 0 -0.465168 5.51097 7.87032 -36.0324 0 0 0 0 0 0 -3.68418 0 -19.2754 -3.24538 0 -9.3324 0 0 0 -0.279308 0 -0.0576675 -4.62517 0 -23.4714 0.185383 0 13.6478 0 0 0 4.72238 0 1.45285 
0 0 -0.465994 5.51097 7.87032 -36.0296 0 0 0 0 0 0 -3.68418 0 -19.2681 -3.24538 0 -9.31859 0 0 0 -0.279308 0 -0.0576675 -4.62517 0 -23.4463 0.185383 0 13.6656 0 0 0 4.72238 0 1.45285 
0 0 -0.465994 5.51097 7.87032 -36.0296 0 0 0 0 0 0 -3.68418 0 -19.2681 -3.24538 0 -9.31859 0 0 0 -0.279308 0 -0.0576675 -4.62517 0 -23.4463 0.185383 0 13.6656 0 0 0 4.72238 0 1.45285 
0 0 -0.465994 5.51097 7.87032 -36.0296 0 0 0 0 0 0 -3.68418 0 -19.2681 -3.24538 0 -9.31859 0 0 0 -0.279308 0 -0.0576675 -4.62517 0 -23.4463 0.185383 0 13.6656 0 0 0 4.72238 0 1.45285 
0 0 -0.580435 9.48661 7.90497 33.1844 0 0 0 0 0 0 -2.9329 0 -6.63256 -3.34688 0 -12.461 0 0 0 -0.117436 0 -0.00395828 -4.5583 0 -21.1469 0.0147002 0 6.02885 0 0 0 4.6526 0 1.43186 
0 0 -0.580029 9.48661 7.90497 33.1829 0 0 0 0 0 0 -2.9329 0 -6.63633 -3.34688 0 -12.468 0 0 0 -0.117436 0 -0.00395828 -4.5583 0 -21.1596 0.0147002 0 6.0198 0 0 0 4.6526 0 1.43186 
0 0 -0.580029 9.48661 7.90497 33.1829 0 0 0 0 0 0 -2.9329 0 -6.63633 -3.34688 0 -12.468 0 0 0 -0.117436 0 -0.00395828 -4.5583 0 -21.1596 0.0147002 0 6.0198 0 0 0 4.6526 0 1.43186 
0 0 -0.475161 5.40711 7.73046 -35.2457 0 0 0 0 0 0 -3.56868 0 -18.7348 -3.1349 0 -8.82067 0 0 0 -0.347114 0 -0.0790211 -4.59577 0 -23.0624 0.253343 0 14.0242 0 0 0 4.69169 0 1.44362 
0 0 -0.475879 5.40711 7.73046 -35.2432 0 0 0 0 0 0 -3.56868 0 -18.7283 -3.1349 0 -8.80845 0 0 0 -0.347114 0 -0.0790211 -4.59577 0 -23.0402 0.253343 0 14.0399 0 0 0 4.69169 0 1.44362 
0 0 -0.475879 5.40711 7.73046 -35.2432 0 0 0 0 0 0 -3.56868 0 -18.7283 -3.1349 0 -8.80845 0 0 0 -0.347114 0 -0.0790211 -4.59577 0 -23.0402 0.253343 0 14.0399 0 0 0 4.69169 0 1.44362 
0 0 -0.583814 9.45659 7.77175 34.2163 0 0 0 0 0 0 -2.81178 0 -5.97335 -3.23647 0 -11.8128 0 0 0 -0.168815 0 -0.0200647 -4.53548 0 -21.0034 0.0659664 0 6.20198 0 0 0 4.62877 0 1.4247 
0 0 -0.583353 9.45659 7.77175 34.2147 0 0 0 0 0 0 -2.81178 0 -5.97766 -3.23647 0 -11.8208 0 0 0 -0.168815 0 -0.0200647 -4.53548 0 -21.0179 0.0659664 0 6.19163 0 0 0 4.62877 0 1.4247 
0 0 -0.583353 9.45659 7.77175 34.2147 0 0 0 0 0 0 -2.81178 0 -5.97766 -3.23647 0 -11.8208 0 0 0 -0.168815 0 -0.0200647 -4.53548 0 -21.0179 0.0659664 0 6.19163 0 0 0 4.62877 0 1.4247 
0 0 -0.583353 9.45659 7.77175 34.2147 0 0 0 0 0 0 -2.81178 0 -5.97766 -3.23647 0 -11.8208 0 0 0 -0.168815 0 -0.0200647 -4.53548 0 -21.0179 0.0659664 0 6.19163 0 0 0 4.62877 0 1.4247 
0 0 -0.479743 5.43338 7.59995 -33.944 0 0 0 0 0 0 -3.44239 0 -18.0429 -3.02128 0 -8.12489 0 0 0 -0.386252 0 -0.0912869 -4.57886 0 -22.9489 0.292386 0 14.1672 0 0 0 4.67404 0 1.43832 
0 0 -0.480436 5.43338 7.59995 -33.9415 0 0 0 0 0 0 -3.44239 0 -18.0365 -3.02128 0 -8.11289 0 0 0 -0.386252 0 -0.0912869 -4.57886 0 -22.9271 0.292386 0 14.1827 0 0 0 4.67404 0 1.43832 
0 0 -0.480436 5.43338 7.59995 -33.9415 0 0 0 0 0 0 -3.44239 0 -18.0365 -3.02128 0 -8.11289 0 0 0 -0.386252 0 -0.0912869 -4.57886 0 -22.9271 0.292386 0 14.1827 0 0 0 4.67404 0 1.43832 
0 0 -0.585819 9.49476 7.63514 35.3598 0 0 0 0 0 0 -2.67626 0 -5.21852 -3.10979 0 -10.9795 0 0 0 -0.197952 0 -0.029166 -4.52553 0 -20.9724 0.0949386 0 6.31007 0 0 0 4.61838 0 1.42157 
0 0 -0.585352 9.49476 7.63514 35.3581 0 0 0 0 0 0 -2.67626 0 -5.22293 -3.10979 0 -10.9877 0 0 0 -0.197952 0 -0.029166 -4.52553 0 -20.9873 0.0949386 0 6.29949 0 0 0 4.61838 0 1.42157 
0 0 -0.585352 9.49476 7.63514 35.3581 0 0 0 0 0 0 -2.67626 0 -5.22293 -3.10979 0 -10.9877 0 0 0 -0.197952 0 -0.029166 -4.52553 0 -20.9873 0.0949386 0 6.29949 0 0 0 4.61838 0 1.42157 
0 0 -0.481601 5.46852 7.45724 -32.8279 0 0 0 0 0 0 -3.30207 0 -17.2832 -2.88729 0 -7.2903 0 0 0 -0.41141 0 -0.0992241 -4.57013 0 -22.8184 0.317646 0 14.3427 0 0 0 4.66492 0 1.43558 
0 0 -0.482283 5.46852 7.45724 -32.8255 0 0 0 0 0 0 -3.30207 0 -17.2768 -2.88729 0 -7.27837 0 0 0 -0.41141 0 -0.0992241 -4.57013 0 -22.7967 0.317646 0 14.358 0 0 0 4.66492 0 1.43558 
0 0 -0.482283 5.46852 7.45724 -32.8255 0 0 0 0 0 0 -3.30207 0 -17.2768 -2.88729 0 -7.27837 0 0 0 -0.41141 0 -0.0992241 -4.57013 0 -22.7967 0.317646 0 14.358 0 0 0 4.66492 0 1.43558 
0 0 -0.482283 5.46852 7.45724 -32.8255 0 0 0 0 0 0 -3.30207 0 -17.2768 -2.88729 0 -7.27837 0 0 0 -0.41141 0 -0.0992241 -4.57013 0 -22.7967 0.317646 0 14.358 0 0 0 4.66492 0 1.43558 
0 0 -0.585184 9.49668 7.48139 36.1273 0 0 0 0 0 0 -2.53116 0 -4.44272 -2.96501 0 -10.075 0 0 0 -0.222153 0 -0.0369005 -4.51656 0 -20.8353 0.119543 0 6.52064 0 0 0 4.60899 0 1.41876 
0 0 -0.584696 9.49668 7.48139 36.1255 0 0 0 0 0 0 -2.53116 0 -4.44737 -2.96501 0 -10.0836 0 0 0 -0.222153 0 -0.0369005 -4.51656 0 -20.851 0.119543 0 6.50951 0 0 0 4.60899 0 1.41876 
0 0 -0.584696 9.49668 7.48139 36.1255 0 0 0 0 0 0 -2.53116 0 -4.44737 -2.96501 0 -10.0836 0 0 0 -0.222153 0 -0.0369005 -4.51656 0 -20.851 0.119543 0 6.50951 0 0 0 4.60899 0 1.41876 
0 0 -0.480794 5.44474 7.29627 -32.0888 0 0 0 0 0 0 -3.15566 0 -16.5247 -2.74173 0 -6.46343 0 0 0 -0.43914 0 -0.108235 -4.5547 0 -22.5342 0.346298 0 14.6381 0 0 0 4.64879 0 1.43074 
0 0 -0.481437 5.44474 7.29627 -32.0864 0 0 0 0 0 0 -3.15566 0 -16.5186 -2.74173 0 -6.45207 0 0 0 -0.43914 0 -0.108235 -4.5547 0 -22.5136 0.346298 0 14.6527 0 0 0 4.64879 0 1.43074 
0 0 -0.481437 5.44474 7.29627 -32.0864 0 0 0 0 0 0 -3.15566 0 -16.5186 -2.74173 0 -6.45207 0 0 0 -0.43914 0 -0.108235 -4.5547 0 -22.5136 0.346298 0 14.6527 0 0 0 4.64879 0 1.43074 
0 0 -0.580886 9.43303 7.30897 36.5493 0 0 0 0 0 0 -2.3821 0 -3.67155 -2.81411 0 -9.21165 0 0 0 -0.254748 0 -0.0476143 -4.49502 0 -20.5537 0.153599 0 6.8513 0 0 0 4.58647 0 1.412 
0 0 -0.580342 9.43303 7.30897 36.5473 0 0 0 0 0 0 -2.3821 0 -3.67675 -2.81411 0 -9.22131 0 0 0 -0.254748 0 -0.0476143 -4.49502 0 -20.5712 0.153599 0 6.83886 0 0 0 4.58647 0 1.412 
0 0 -0.580342 9.43303 7.30897 36.5473 0 0 0 0 0 0 -2.3821 0 -3.67675 -2.81411 0 -9.22131 0 0 0 -0.254748 0 -0.0476143 -4.49502 0 -20.5712 0.153599 0 6.83886 0 0 0 4.58647 0 1.412 
0 0 -0.580342 9.43303 7.30897 36.5473 0 0 0 0 0 0 -2.3821 0 -3.67675 -2.81411 0 -9.22131 0 0 0 -0.254748 0 -0.0476143 -4.49502 0 -20.5712 0.153599 0 6.83886 0 0 0 4.58647 0 1.412 
0 0 -0.477686 5.35728 7.11613 -31.6205 0 0 0 0 0 0 -3.00733 0 -15.7926 -2.59339 0 -5.68731 0 0 0 -0.479659 0 -0.121639 -4.5229 0 -22.1291 0.388905 0 15.0476 0 0 0 4.61554 0 1.42075 
0 0 -0.478261 5.35728 7.11613 -31.6184 0 0 0 0 0 0 -3.00733 0 -15.7871 -2.59339 0 -5.67707 0 0 0 -0.479659 0 -0.121639 -4.5229 0 -22.1104 0.388905 0 15.0608 0 0 0 4.61554 0 1.42075 
0 0 -0.478261 5.35728 7.11613 -31.6184 0 0 0 0 0 0 -3.00733 0 -15.7871 -2.59339 0 -5.67707 0 0 0 -0.479659 0 -0.121639 -4.5229 0 -22.1104 0.388905 0 15.0608 0 0 0 4.61554 0 1.42075 
0 0 -0.572907 9.31328 7.11656 36.7696 0 0 0 0 0 0 -2.23052 0 -2.90578 -2.66155 0 -8.39657 0 0 0 -0.302584 0 -0.0635144 -4.45516 0 -20.1841 0.204125 0 7.2738 0 0 0 4.54478 0 1.39949 
0 0 -0.572282 9.31328 7.11656 36.7673 0 0 0 0 0 0 -2.23052 0 -2.91173 -2.66155 0 -8.40763 0 0 0 -0.302584 0 -0.0635144 -4.45516 0 -20.2042 0.204125 0 7.25956 0 0 0 4.54478 0 1.39949 
0 0 -0.572282 9.31328 7.11656 36.7673 0 0 0 0 0 0 -2.23052 0 -2.91173 -2.66155 0 -8.40763 0 0 0 -0.302584 0 -0.0635144 -4.45516 0 -20.2042 0.204125 0 7.25956 0 0 0 4.54478 0 1.39949 
0 0 -0.47195 5.2176 6.91426 -31.3271 0 0 0 0 0 0 -2.85673 0 -15.0809 -2.44204 0 -4.93659 0 0 0 -0.537106 0 -0.14075 -4.47236 0 -21.668 0.449639 0 15.5413 0 0 0 4.56269 0 1.40489 
0 0 -0.472445 5.2176 6.91426 -31.3253 0 0 0 0 0 0 -2.85673 0 -15.0761 -2.44204 0 -4.92772 0 0 0 -0.537106 0 -0.14075 -4.47236 0 -21.6518 0.449639 0 15.5528 0 0 0 4.56269 0 1.40489 
0 0 -0.472445 5.2176 6.91426 -31.3253 0 0 0 0 0 0 -2.85673 0 -15.0761 -2.44204 0 -4.92772 0 0 0 -0.537106 0 -0.14075 -4.47236 0 -21.6518 0.449639 0 15.5528 0 0 0 4.56269 0 1.40489 
0 0 -0.472445 5.2176 6.91426 -31.3253 0 0 0 0 0 0 -2.85673 0 -15.0761 -2.44204 0 -4.92772 0 0 0 -0.537106 0 -0.14075 -4.47236 0 -21.6518 0.449639 0 15.5528 0 0 0 4.56269 0 1.40489 
0 0 -0.560436 9.14569 6.90131 36.8396 0 0 0 0 0 0 -2.07513 0 -2.13703 -2.50479 0 -7.60547 0 0 0 -0.3677 0 -0.0852133 -4.39665 0 -19.775 0.273076 0 7.76087 0 0 0 4.48359 0 1.38112 
0 0 -0.559723 9.14569 6.90131 36.837 0 0 0 0 0 0 -2.07513 0 -2.14379 -2.50479 0 -7.61805 0 0 0 -0.3677 0 -0.0852133 -4.39665 0 -19.7978 0.273076 0 7.74469 0 0 0 4.48359 0 1.38112 
0 0 -0.559723 9.14569 6.90131 36.837 0 0 0 0 0 0 -2.07513 0 -2.14379 -2.50479 0 -7.61805 0 0 0 -0.3677 0 -0.0852133 -4.39665 0 -19.7978 0.273076 0 7.74469 0 0 0 4.48359 0 1.38112 
0 0 -0.46161 5.03058 6.68885 -31.1863 0 0 0 0 0 0 -2.70193 0 -14.3743 -2.28522 0 -4.20409 0 0 0 -0.611869 0 -0.165633 -4.40377 0 -21.1834 0.528722 0 16.0945 0 0 0 4.49094 0 1.38336 
0 0 -0.462026 5.03058 6.68885 -31.1848 0 0 0 0 0 0 -2.70193 0 -14.3703 -2.28522 0 -4.1966 0 0 0 -0.611869 0 -0.165633 -4.40377 0 -21.1698 0.528722 0 16.1042 0 0 0 4.49094 0 1.38336 
0 0 -0.462026 5.03058 6.68885 -31.1848 0 0 0 0 0 0 -2.70193 0 -14.3703 -2.28522 0 -4.1966 0 0 0 -0.611869 0 -0.165633 -4.40377 0 -21.1698 0.528722 0 16.1042 0 0 0 4.49094 0 1.38336 
0 0 -0.541329 8.93149 6.66311 36.7475 0 0 0 0 0 0 -1.91516 0 -1.36652 -2.34251 0 -6.84371 0 0 0 -0.449583 0 -0.112476 -4.32073 0 -19.35 0.359714 0 8.29733 0 0 0 4.40413 0 1.35729 
0 0 -0.54053 8.93149 6.66311 36.7446 0 0 0 0 0 0 -1.91516 0 -1.37404 -2.34251 0 -6.85772 0 0 0 -0.449583 0 -0.112476 -4.32073 0 -19.3754 0.359714 0 8.27932 0 0 0 4.40413 0 1.35729 
0 0 -0.54053 8.93149 6.66311 36.7446 0 0 0 0 0 0 -1.91516 0 -1.37404 -2.34251 0 -6.85772 0 0 0 -0.449583 0 -0.112476 -4.32073 0 -19.3754 0.359714 0 8.27932 0 0 0 4.40413 0 1.35729 
0 0 -0.54053 8.93149 6.66311 36.7446 0 0 0 0 0 0 -1.91516 0 -1.37404 -2.34251 0 -6.85772 0 0 0 -0.449583 0 -0.112476 -4.32073 0 -19.3754 0.359714 0 8.27932 0 0 0 4.40413 0 1.35729 
0 0 -0.444073 4.79837 6.44252 -31.1968 0 0 0 0 0 0 -2.54322 0 -13.6762 -2.12414 0 -3.51893 0 0 0 -0.702639 0 -0.195795 -4.3185 0 -20.6912 0.62459 0 16.6909 0 0 0 4.40171 0 1.35659 
0 0 -0.444416 4.79837 6.44252 -31.1955 0 0 0 0 0 0 -2.54322 0 -13.6729 -2.12414 0 -3.51273 0 0 0 -0.702639 0 -0.195795 -4.3185 0 -20.68 0.62459 0 16.6989 0 0 0 4.40171 0 1.35659 
0 0 -0.444416 4.79837 6.44252 -31.1955 0 0 0 0 0 0 -2.54322 0 -13.6729 -2.12414 0 -3.51273 0 0 0 -0.702639 0 -0.195795 -4.3185 0 -20.68 0.62459 0 16.6989 0 0 0 4.40171 0 1.35659 
0 0 -0.513605 8.67401 6.40695 36.4913 0 0 0 0 0 0 -1.75309 0 -0.61659 -2.17785 0 -6.14415 0 0 0 -0.54647 0 -0.144661 -4.22921 0 -18.9304 0.462005 0 8.87028 0 0 0 4.30835 0 1.32856 
0 0 -0.512728 8.67401 6.40695 36.4882 0 0 0 0 0 0 -1.75309 0 -0.624797 -2.17785 0 -6.15944 0 0 0 -0.54647 0 -0.144661 -4.22921 0 -18.9582 0.462005 0 8.85062 0 0 0 4.30835 0 1.32856 
0 0 -0.512728 8.67401 6.40695 36.4882 0 0 0 0 0 0 -1.75309 0 -0.624797 -2.17785 0 -6.15944 0 0 0 -0.54647 0 -0.144661 -4.22921 0 -18.9582 0.462005 0 8.85062 0 0 0 4.30835 0 1.32856 
0 0 -0.417962 4.52837 6.18263 -31.3384 0 0 0 0 0 0 -2.38461 0 -13.0116 -1.96381 0 -2.92155 0 0 0 -0.806988 0 -0.230383 -4.21893 0 -20.2151 0.734539 0 17.3097 0 0 0 4.2975 0 1.32534 
0 0 -0.418242 4.52837 6.18263 -31.3373 0 0 0 0 0 0 -2.38461 0 -13.0089 -1.96381 0 -2.91647 0 0 0 -0.806988 0 -0.230383 -4.21893 0 -20.2058 0.734539 0 17.3163 0 0 0 4.2975 0 1.32534 
0 0 -0.418242 4.52837 6.18263 -31.3373 0 0 0 0 0 0 -2.38461 0 -13.0089 -1.96381 0 -2.91647 0 0 0 -0.806988 0 -0.230383 -4.21893 0 -20.2058 0.734539 0 17.3163 0 0 0 4.2975 0 1.32534 
0 0 -0.418242 4.52837 6.18263 -31.3373 0 0 0 0 0 0 -2.38461 0 -13.0089 -1.96381 0 -2.91647 0 0 0 -0.806988 0 -0.230383 -4.21893 0 -20.2058 0.734539 0 17.3163 0 0 0 4.2975 0 1.32534 
0 0 -0.477144 8.3844 6.14195 36.1073 0 0 0 0 0 0 -1.59435 0 0.07953 -2.01681 0 -5.54296 0 0 0 -0.65529 0 -0.180708 -4.12525 0 -18.5455 0.576585 0 9.45488 0 0 0 4.19952 0 1.29592 
0 0 -0.4762 8.3844 6.14195 36.1039 0 0 0 0 0 0 -1.59435 0 0.0707474 -2.01681 0 -5.55933 0 0 0 -0.65529 0 -0.180708 -4.12525 0 -18.5752 0.576585 0 9.43384 0 0 0 4.19952 0 1.29592 
0 0 -0.4762 8.3844 6.14195 36.1039 0 0 0 0 0 0 -1.59435 0 0.0707474 -2.01681 0 -5.55933 0 0 0 -0.65529 0 -0.180708 -4.12525 0 -18.5752 0.576585 0 9.43384 0 0 0 4.19952 0 1.29592 
0 0 -0.384096 4.23532 5.91939 -31.5651 0 0 0 0 0 0 -2.232 0 -12.4094 -1.81042 0 -2.44056 0 0 0 -0.921007 0 -0.268073 -4.10907 0 -19.7878 0.854364 0 17.9173 0 0 0 4.1825 0 1.29084 
0 0 -0.384326 4.23532 5.91939 -31.5642 0 0 0 0 0 0 -2.232 0 -12.4071 -1.81042 0 -2.43635 0 0 0 -0.921007 0 -0.268073 -4.10907 0 -19.7801 0.854364 0 17.9228 0 0 0 4.1825 0 1.29084 
0 0 -0.384326 4.23532 5.91939 -31.5642 0 0 0 0 0 0 -2.232 0 -12.4071 -1.81042 0 -2.43635 0 0 0 -0.921007 0 -0.268073 -4.10907 0 -19.7801 0.854364 0 17.9228 0 0 0 4.1825 0 1.29084 
0 0 -0.434097 8.0805 5.87893 35.6606 0 0 0 0 0 0 -1.44481 0 0.694661 -1.86547 0 -5.06213 0 0 0 -0.771378 0 -0.219053 -4.01355 0 -18.2261 0.698486 0 10.0141 0 0 0 4.08259 0 1.26085 
0 0 -0.433102 8.0805 5.87893 35.6571 0 0 0 0 0 0 -1.44481 0 0.685451 -1.86547 0 -5.0793 0 0 0 -0.771378 0 -0.219053 -4.01355 0 -18.2573 0.698486 0 9.99201 0 0 0 4.08259 0 1.26085 
0 0 -0.433102 8.0805 5.87893 35.6571 0 0 0 0 0 0 -1.44481 0 0.685451 -1.86547 0 -5.0793 0 0 0 -0.771378 0 -0.219053 -4.01355 0 -18.2573 0.698486 0 9.99201 0 0 0 4.08259 0 1.26085 
0 0 -0.433102 8.0805 5.87893 35.6571 0 0 0 0 0 0 -1.44481 0 0.685451 -1.86547 0 -5.0793 0 0 0 -0.771378 0 -0.219053 -4.01355 0 -18.2573 0.698486 0 9.99201 0 0 0 4.08259 0 1.26085 
0 0 -0.345192 3.93824 5.66341 -31.8185 0 0 0 0 0 0 -2.09061 0 -11.8884 -1.6692 0 -2.08403 0 0 0 -1.03935 0 -0.30709 -3.99431 0 -19.4403 0.978423 0 18.474 0 0 0 4.06239 0 1.25481 
0 0 -0.34539 3.93824 5.66341 -31.8177 0 0 0 0 0 0 -2.09061 0 -11.8864 -1.6692 0 -2.0804 0 0 0 -1.03935 0 -0.30709 -3.99431 0 -19.4337 0.978423 0 18.4788 0 0 0 4.06239 0 1.25481 
0 0 -0.34539 3.93824 5.66341 -31.8177 0 0 0 0 0 0 -2.09061 0 -11.8864 -1.6692 0 -2.0804 0 0 0 -1.03935 0 -0.30709 -3.99431 0 -19.4337 0.978423 0 18.4788 0 0 0 4.06239 0 1.25481 
0 0 -0.388053 7.782 5.62808 35.2202 0 0 0 0 0 0 -1.3088 0 1.21518 -1.72832 0 -4.70395 0 0 0 -0.888984 0 -0.257794 -3.89985 0 -17.9948 0.821661 0 10.5106 0 0 0 3.96361 0 1.22515 
0 0 -0.387027 7.782 5.62808 35.2165 0 0 0 0 0 0 -1.3088 0 1.20572 -1.72832 0 -4.72158 0 0 0 -0.888984 0 -0.257794 -3.89985 0 -18.0268 0.821661 0 10.4879 0 0 0 3.96361 0 1.22515 
0 0 -0.387027 7.782 5.62808 35.2165 0 0 0 0 0 0 -1.3088 0 1.20572 -1.72832 0 -4.72158 0 0 0 -0.888984 0 -0.257794 -3.89985 0 -18.0268 0.821661 0 10.4879 0 0 0 3.96361 0 1.22515 
0 0 -0.30479 3.65535 5.42381 -32.0472 0 0 0 0 0 0 -1.96372 0 -11.4547 -1.54333 0 -1.84153 0 0 0 -1.15613 0 -0.345495 -3.88056 0 -19.1916 1.10055 0 18.9473 0 0 0 3.94338 0 1.21909 
0 0 -0.304976 3.65535 5.42381 -32.0466 0 0 0 0 0 0 -1.96372 0 -11.4529 -1.54333 0 -1.83813 0 0 0 -1.15613 0 -0.345495 -3.88056 0 -19.1854 1.10055 0 18.9517 0 0 0 3.94338 0 1.21909 
0 0 -0.304976 3.65535 5.42381 -32.0466 0 0 0 0 0 0 -1.96372 0 -11.4529 -1.54333 0 -1.83813 0 0 0 -1.15613 0 -0.345495 -3.88056 0 -19.1854 1.10055 0 18.9517 0 0 0 3.94338 0 1.21909 
0 0 -0.304976 3.65535 5.42381 -32.0466 0 0 0 0 0 0 -1.96372 0 -11.4529 -1.54333 0 -1.83813 0 0 0 -1.15613 0 -0.345495 -3.88056 0 -19.1854 1.10055 0 18.9517 0 0 0 3.94338 0 1.21909 
0 0 -0.342751 7.5056 5.39738 34.8385 0 0 0 0 0 0 -1.18851 0 1.64017 -1.60761 0 -4.45454 0 0 0 -1.00237 0 -0.295051 -3.78985 0 -17.8598 0.940131 0 10.9183 0 0 0 3.84855 0 1.19061 
0 0 -0.341717 7.5056 5.39738 34.8349 0 0 0 0 0 0 -1.18851 0 1.63067 -1.60761 0 -4.47227 0 0 0 -1.00237 0 -0.295051 -3.78985 0 -17.892 0.940131 0 10.8955 0 0 0 3.84855 0 1.19061 
0 0 -0.341717 7.5056 5.39738 34.8349 0 0 0 0 0 0 -1.18851 0 1.63067 -1.60761 0 -4.47227 0 0 0 -1.00237 0 -0.295051 -3.78985 0 -17.892 0.940131 0 10.8955 0 0 0 3.84855 0 1.19061 
0 0 -0.266103 3.40034 5.20702 -32.2192 0 0 0 0 0 0 -1.85262 0 -11.1046 -1.4339 0 -1.69097 0 0 0 -1.26603 0 -0.381557 -3.77319 0 -19.0446 1.21524 0 19.3196 0 0 0 3.83111 0 1.18537 
0 0 -0.266297 3.40034 5.20702 -32.2185 0 0 0 0 0 0 -1.85262 0 -11.1027 -1.4339 0 -1.68745 0 0 0 -1.26603 0 -0.381557 -3.77319 0 -19.0382 1.21524 0 19.3241 0 0 0 3.83111 0 1.18537 
0 0 -0.266297 3.40034 5.20702 -32.2185 0 0 0 0 0 0 -1.85262 0 -11.1027 -1.4339 0 -1.68745 0 0 0 -1.26603 0 -0.381557 -3.77319 0 -19.0382 1.21524 0 19.3241 0 0 0 3.83111 0 1.18537 
0 0 -0.301073 7.26233 5.19181 34.5447 0 0 0 0 0 0 -1.0843 0 1.97858 -1.50363 0 -4.29101 0 0 0 -1.10683 0 -0.329296 -3.68826 0 -17.8151 1.04903 0 11.227 0 0 0 3.74236 0 1.1587 
0 0 -0.300051 7.26233 5.19181 34.5411 0 0 0 0 0 0 -1.0843 0 1.9692 -1.50363 0 -4.30851 0 0 0 -1.10683 0 -0.329296 -3.68826 0 -17.8468 1.04903 0 11.2045 0 0 0 3.74236 0 1.1587 
0 0 -0.300051 7.26233 5.19181 34.5411 0 0 0 0 0 0 -1.0843 0 1.9692 -1.50363 0 -4.30851 0 0 0 -1.10683 0 -0.329296 -3.68826 0 -17.8468 1.04903 0 11.2045 0 0 0 3.74236 0 1.1587 
0 0 -0.300051 7.26233 5.19181 34.5411 0 0 0 0 0 0 -1.0843 0 1.9692 -1.50363 0 -4.30851 0 0 0 -1.10683 0 -0.329296 -3.68826 0 -17.8468 1.04903 0 11.2045 0 0 0 3.74236 0 1.1587 
0 0 -0.231317 3.18084 5.01637 -32.3225 0 0 0 0 0 0 -1.75699 0 -10.8271 -1.34027 0 -1.6054 0 0 0 -1.36517 0 -0.414016 -3.67616 0 -18.9887 1.31848 0 19.5897 0 0 0 3.72972 0 1.1549 
0 0 -0.231537 3.18084 5.01637 -32.3217 0 0 0 0 0 0 -1.75699 0 -10.8249 -1.34027 0 -1.60147 0 0 0 -1.36517 0 -0.414016 -3.67616 0 -18.9815 1.31848 0 19.5948 0 0 0 3.72972 0 1.1549 
0 0 -0.231537 3.18084 5.01637 -32.3217 0 0 0 0 0 0 -1.75699 0 -10.8249 -1.34027 0 -1.60147 0 0 0 -1.36517 0 -0.414016 -3.67616 0 -18.9815 1.31848 0 19.5948 0 0 0 3.72972 0 1.1549 
0 0 -0.264643 7.05713 5.01321 34.3469 0 0 0 0 0 0 -0.995041 0 2.24639 -1.41512 0 -4.18752 0 0 0 -1.1993 0 -0.359543 -3.59815 0 -17.8438 1.14523 0 11.4407 0 0 0 3.64826 0 1.1304 
0 0 -0.263649 7.05713 5.01321 34.3434 0 0 0 0 0 0 -0.995041 0 2.23727 -1.41512 0 -4.20453 0 0 0 -1.1993 0 -0.359543 -3.59815 0 -17.8747 1.14523 0 11.4189 0 0 0 3.64826 0 1.1304 
0 0 -0.263649 7.05713 5.01321 34.3434 0 0 0 0 0 0 -0.995041 0 2.23727 -1.41512 0 -4.20453 0 0 0 -1.1993 0 -0.359543 -3.59815 0 -17.8747 1.14523 0 11.4189 0 0 0 3.64826 0 1.1304 
0 0 -0.201472 2.9987 4.85217 -32.3606 0 0 0 0 0 0 -1.67526 0 -10.6065 -1.26057 0 -1.55764 0 0 0 -1.4514 0 -0.442197 -3.59166 0 -19.0041 1.40812 0 19.7695 0 0 0 3.64152 0 1.12836 
0 0 -0.20173 2.9987 4.85217 -32.3597 0 0 0 0 0 0 -1.67526 0 -10.604 -1.26057 0 -1.55309 0 0 0 -1.4514 0 -0.442197 -3.59166 0 -18.9958 1.40812 0 19.7754 0 0 0 3.64152 0 1.12836 
0 0 -0.20173 2.9987 4.85217 -32.3597 0 0 0 0 0 0 -1.67526 0 -10.604 -1.26057 0 -1.55309 0 0 0 -1.4514 0 -0.442197 -3.59166 0 -18.9958 1.40812 0 19.7754 0 0 0 3.64152 0 1.12836 
0 0 -0.20173 2.9987 4.85217 -32.3597 0 0 0 0 0 0 -1.67526 0 -10.604 -1.26057 0 -1.55309 0 0 0 -1.4514 0 -0.442197 -3.59166 0 -18.9958 1.40812 0 19.7754 0 0 0 3.64152 0 1.12836 
0 0 -0.233969 6.88955 4.86056 34.2376 0 0 0 0 0 0 -0.918542 0 2.46345 -1.33977 0 -4.11889 0 0 0 -1.27851 0 -0.385399 -3.52084 0 -17.9234 1.22747 0 11.5744 0 0 0 3.5676 0 1.10612 
0 0 -0.233013 6.88955 4.86056 34.2342 0 0 0 0 0 0 -0.918542 0 2.45469 -1.33977 0 -4.13524 0 0 0 -1.27851 0 -0.385399 -3.52084 0 -17.9531 1.22747 0 11.5535 0 0 0 3.5676 0 1.10612 
0 0 -0.233013 6.88955 4.86056 34.2342 0 0 0 0 0 0 -0.918542 0 2.45469 -1.33977 0 -4.13524 0 0 0 -1.27851 0 -0.385399 -3.52084 0 -17.9531 1.22747 0 11.5535 0 0 0 3.5676 0 1.10612 
0 0 -0.176744 2.85113 4.71219 -32.3474 0 0 0 0 0 0 -1.60497 0 -10.425 -1.19208 0 -1.52308 0 0 0 -1.52437 0 -0.466 -3.52016 0 -19.0668 1.48383 0 19.8793 0 0 0 3.56695 0 1.1059 
0 0 -0.177045 2.85113 4.71219 -32.3463 0 0 0 0 0 0 -1.60497 0 -10.4221 -1.19208 0 -1.51779 0 0 0 -1.52437 0 -0.466 -3.52016 0 -19.0572 1.48383 0 19.8862 0 0 0 3.56695 0 1.1059 
0 0 -0.177045 2.85113 4.71219 -32.3463 0 0 0 0 0 0 -1.60497 0 -10.4221 -1.19208 0 -1.51779 0 0 0 -1.52437 0 -0.466 -3.52016 0 -19.0572 1.48383 0 19.8862 0 0 0 3.56695 0 1.1059 
0 0 -0.208842 6.75502 4.73057 34.1985 0 0 0 0 0 0 -0.851953 0 2.65011 -1.27463 0 -4.06265 0 0 0 -1.34482 0 -0.407012 -3.456 0 -18.0291 1.29622 0 11.6496 0 0 0 3.50001 0 1.08575 
0 0 -0.207928 6.75502 4.73057 34.1953 0 0 0 0 0 0 -0.851953 0 2.64173 -1.27463 0 -4.07829 0 0 0 -1.34482 0 -0.407012 -3.456 0 -18.0575 1.29622 0 11.6295 0 0 0 3.50001 0 1.08575 
0 0 -0.207928 6.75502 4.73057 34.1953 0 0 0 0 0 0 -0.851953 0 2.64173 -1.27463 0 -4.07829 0 0 0 -1.34482 0 -0.407012 -3.456 0 -18.0575 1.29622 0 11.6295 0 0 0 3.50001 0 1.08575 
0 0 -0.207928 6.75502 4.73057 34.1953 0 0 0 0 0 0 -0.851953 0 2.64173 -1.27463 0 -4.07829 0 0 0 -1.34482 0 -0.407012 -3.456 0 -18.0575 1.29622 0 11.6295 0 0 0 3.50001 0 1.08575 
0 0 -0.156842 2.73198 4.5923 -32.3021 0 0 0 0 0 0 -1.54316 0 -10.2652 -1.13173 0 -1.48155 0 0 0 -1.58516 0 -0.485807 -3.46062 0 -19.1517 1.54684 0 19.9432 0 0 0 3.50491 0 1.0872 
0 0 -0.157187 2.73198 4.5923 -32.3008 0 0 0 0 0 0 -1.54316 0 -10.262 -1.13173 0 -1.47553 0 0 0 -1.58516 0 -0.485807 -3.46062 0 -19.1407 1.54684 0 19.9509 0 0 0 3.50491 0 1.0872 
0 0 -0.157187 2.73198 4.5923 -32.3008 0 0 0 0 0 0 -1.54316 0 -10.262 -1.13173 0 -1.47553 0 0 0 -1.58516 0 -0.485807 -3.46062 0 -19.1407 1.54684 0 19.9509 0 0 0 3.50491 0 1.0872 
0 0 -0.188721 6.64616 4.61848 34.2052 0 0 0 0 0 0 -0.792212 0 2.8242 -1.21651 0 -4.00065 0 0 0 -1.39992 0 -0.424953 -3.40202 0 -18.1378 1.35329 0 11.6896 0 0 0 3.44378 0 1.0688 
0 0 -0.187846 6.64616 4.61848 34.2021 0 0 0 0 0 0 -0.792212 0 2.81619 -1.21651 0 -4.01561 0 0 0 -1.39992 0 -0.424953 -3.40202 0 -18.1649 1.35329 0 11.6704 0 0 0 3.44378 0 1.0688 
0 0 -0.187846 6.64616 4.61848 34.2021 0 0 0 0 0 0 -0.792212 0 2.81619 -1.21651 0 -4.01561 0 0 0 -1.39992 0 -0.424953 -3.40202 0 -18.1649 1.35329 0 11.6704 0 0 0 3.44378 0 1.0688 
0 0 -0.141302 2.63321 4.48736 -32.2451 0 0 0 0 0 0 -1.48685 0 -10.1127 -1.07645 0 -1.4188 0 0 0 -1.63595 0 -0.502348 -3.41096 0 -19.2362 1.59946 0 19.9844 0 0 0 3.45319 0 1.0716 
0 0 -0.141686 2.63321 4.48736 -32.2438 0 0 0 0 0 0 -1.48685 0 -10.1091 -1.07645 0 -1.41211 0 0 0 -1.63595 0 -0.502348 -3.41096 0 -19.2241 1.59946 0 19.993 0 0 0 3.45319 0 1.0716 
0 0 -0.141686 2.63321 4.48736 -32.2438 0 0 0 0 0 0 -1.48685 0 -10.1091 -1.07645 0 -1.41211 0 0 0 -1.63595 0 -0.502348 -3.41096 0 -19.2241 1.59946 0 19.993 0 0 0 3.45319 0 1.0716 
0 0 -0.141686 2.63321 4.48736 -32.2438 0 0 0 0 0 0 -1.48685 0 -10.1091 -1.07645 0 -1.41211 0 0 0 -1.63595 0 -0.502348 -3.41096 0 -19.2241 1.59946 0 19.993 0 0 0 3.45319 0 1.0716 
0 0 -0.172951 6.55433 4.51889 34.2314 0 0 0 0 0 0 -0.736458 0 2.99907 -1.16242 0 -3.92024 0 0 0 -1.44631 0 -0.440061 -3.35652 0 -18.2305 1.40135 0 11.7161 0 0 0 3.3964 0 1.0545 
0 0 -0.17211 6.55433 4.51889 34.2284 0 0 0 0 0 0 -0.736458 0 2.99137 -1.16242 0 -3.93463 0 0 0 -1.44631 0 -0.440061 -3.35652 0 -18.2566 1.40135 0 11.6976 0 0 0 3.3964 0 1.0545 
0 0 -0.17211 6.55433 4.51889 34.2284 0 0 0 0 0 0 -0.736458 0 2.99137 -1.16242 0 -3.93463 0 0 0 -1.44631 0 -0.440061 -3.35652 0 -18.2566 1.40135 0 11.6976 0 0 0 3.3964 0 1.0545 
0 0 -0.129592 2.54631 4.39208 -32.1955 0 0 0 0 0 0 -1.43338 0 -9.95701 -1.0236 0 -1.32712 0 0 0 -1.67945 0 -0.51653 -3.36853 0 -19.3027 1.64458 0 20.0229 0 0 0 3.40899 0 1.05828 
0 0 -0.130009 2.54631 4.39208 -32.194 0 0 0 0 0 0 -1.43338 0 -9.95314 -1.0236 0 -1.3199 0 0 0 -1.67945 0 -0.51653 -3.36853 0 -19.2896 1.64458 0 20.0322 0 0 0 3.40899 0 1.05828 
0 0 -0.130009 2.54631 4.39208 -32.194 0 0 0 0 0 0 -1.43338 0 -9.95314 -1.0236 0 -1.3199 0 0 0 -1.67945 0 -0.51653 -3.36853 0 -19.2896 1.64458 0 20.0322 0 0 0 3.40899 0 1.05828 
0 0 -0.160823 6.47101 4.42665 34.2532 0 0 0 0 0 0 -0.682363 0 3.18278 -1.10991 0 -3.81494 0 0 0 -1.48682 0 -0.453276 -3.31678 0 -18.2944 1.44338 0 11.7465 0 0 0 3.35499 0 1.04202 
0 0 -0.160005 6.47101 4.42665 34.2503 0 0 0 0 0 0 -0.682363 0 3.1753 -1.10991 0 -3.82889 0 0 0 -1.48682 0 -0.453276 -3.31678 0 -18.3197 1.44338 0 11.7286 0 0 0 3.35499 0 1.04202 
0 0 -0.160005 6.47101 4.42665 34.2503 0 0 0 0 0 0 -0.682363 0 3.1753 -1.10991 0 -3.82889 0 0 0 -1.48682 0 -0.453276 -3.31678 0 -18.3197 1.44338 0 11.7286 0 0 0 3.35499 0 1.04202 
0 0 -0.160005 6.47101 4.42665 34.2503 0 0 0 0 0 0 -0.682363 0 3.1753 -1.10991 0 -3.82889 0 0 0 -1.48682 0 -0.453276 -3.31678 0 -18.3197 1.44338 0 11.7286 0 0 0 3.35499 0 1.04202 
0 0 -0.121099 2.46359 4.30175 -32.1673 0 0 0 0 0 0 -1.38076 0 -9.79269 -0.971198 0 -1.20531 0 0 0 -1.71848 0 -0.529282 -3.3306 0 -19.3401 1.68514 0 20.0728 0 0 0 3.36944 0 1.04636 
0 0 -0.121539 2.46359 4.30175 -32.1657 0 0 0 0 0 0 -1.38076 0 -9.78862 -0.971198 0 -1.19772 0 0 0 -1.71848 0 -0.529282 -3.3306 0 -19.3263 1.68514 0 20.0826 0 0 0 3.36944 0 1.04636 
0 0 -0.121539 2.46359 4.30175 -32.1657 0 0 0 0 0 0 -1.38076 0 -9.78862 -0.971198 0 -1.19772 0 0 0 -1.71848 0 -0.529282 -3.3306 0 -19.3263 1.68514 0 20.0826 0 0 0 3.36944 0 1.04636 
0 0 -0.151547 6.38898 4.33749 34.2524 0 0 0 0 0 0 -0.628338 0 3.37822 -1.0573 0 -3.68421 0 0 0 -1.52414 0 -0.465487 -3.28023 0 -18.3237 1.48222 0 11.7924 0 0 0 3.31685 0 1.03054 
0 0 -0.150743 6.38898 4.33749 34.2496 0 0 0 0 0 0 -0.628338 0 3.37089 -1.0573 0 -3.69789 0 0 0 -1.52414 0 -0.465487 -3.28023 0 -18.3485 1.48222 0 11.7749 0 0 0 3.31685 0 1.03054 
0 0 -0.150743 6.38898 4.33749 34.2496 0 0 0 0 0 0 -0.628338 0 3.37089 -1.0573 0 -3.69789 0 0 0 -1.52414 0 -0.465487 -3.28023 0 -18.3485 1.48222 0 11.7749 0 0 0 3.31685 0 1.03054 
0 0 -0.115083 2.37912 4.21279 -32.1691 0 0 0 0 0 0 -1.32773 0 -9.61844 -0.918086 0 -1.05779 0 0 0 -1.75548 0 -0.541413 -3.29475 0 -19.3442 1.72373 0 20.1421 0 0 0 3.332 0 1.0351 
0 0 -0.115538 2.37912 4.21279 -32.1675 0 0 0 0 0 0 -1.32773 0 -9.61425 -0.918086 0 -1.04999 0 0 0 -1.75548 0 -0.541413 -3.29475 0 -19.33 1.72373 0 20.1521 0 0 0 3.332 0 1.0351 
0 0 -0.115538 2.37912 4.21279 -32.1675 0 0 0 0 0 0 -1.32773 0 -9.61425 -0.918086 0 -1.04999 0 0 0 -1.75548 0 -0.541413 -3.29475 0 -19.33 1.72373 0 20.1521 0 0 0 3.332 0 1.0351 
0 0 -0.115538 2.37912 4.21279 -32.1675 0 0 0 0 0 0 -1.32773 0 -9.61425 -0.918086 0 -1.04999 0 0 0 -1.75548 0 -0.541413 -3.29475 0 -19.33 1.72373 0 20.1521 0 0 0 3.332 0 1.0351 
0 0 -0.144251 6.30317 4.24844 34.2179 0 0 0 0 0 0 -0.57361 0 3.58399 -1.00373 0 -3.5326 0 0 0 -1.56045 0 -0.477413 -3.24475 0 -18.3192 1.52016 0 11.8593 0 0 0 3.27977 0 1.01939 
0 0 -0.143451 6.30317 4.24844 34.2151 0 0 0 0 0 0 -0.57361 0 3.57674 -1.00373 0 -3.54615 0 0 0 -1.56045 0 -0.477413 -3.24475 0 -18.3438 1.52016 0 11.8419 0 0 0 3.27977 0 1.01939 
0 0 -0.143451 6.30317 4.24844 34.2151 0 0 0 0 0 0 -0.57361 0 3.57674 -1.00373 0 -3.54615 0 0 0 -1.56045 0 -0.477413 -3.24475 0 -18.3438 1.52016 0 11.8419 0 0 0 3.27977 0 1.01939 
0 0 -0.110703 2.28929 4.12304 -32.2032 0 0 0 0 0 0 -1.27386 0 -9.43648 -0.863919 0 -0.89301 0 0 0 -1.79232 0 -0.553527 -3.25916 0 -19.3173 1.76227 0 20.2328 0 0 0 3.29477 0 1.02392 
0 0 -0.111165 2.28929 4.12304 -32.2016 0 0 0 0 0 0 -1.27386 0 -9.43225 -0.863919 0 -0.885127 0 0 0 -1.79232 0 -0.553527 -3.25916 0 -19.303 1.76227 0 20.2429 0 0 0 3.29477 0 1.02392 
0 0 -0.111165 2.28929 4.12304 -32.2016 0 0 0 0 0 0 -1.27386 0 -9.43225 -0.863919 0 -0.885127 0 0 0 -1.79232 0 -0.553527 -3.25916 0 -19.303 1.76227 0 20.2429 0 0 0 3.29477 0 1.02392 
0 0 -0.138054 6.21094 4.15802 34.1463 0 0 0 0 0 0 -0.518167 0 3.79555 -0.949159 0 -3.36818 0 0 0 -1.59724 0 -0.489537 -3.2089 0 -18.2869 1.55872 0 11.9473 0 0 0 3.24223 0 1.00813 
0 0 -0.137251 6.21094 4.15802 34.1435 0 0 0 0 0 0 -0.518167 0 3.78831 -0.949159 0 -3.38172 0 0 0 -1.59724 0 -0.489537 -3.2089 0 -18.3115 1.55872 0 11.9299 0 0 0 3.24223 0 1.00813 
0 0 -0.137251 6.21094 4.15802 34.1435 0 0 0 0 0 0 -0.518167 0 3.78831 -0.949159 0 -3.38172 0 0 0 -1.59724 0 -0.489537 -3.2089 0 -18.3115 1.55872 0 11.9299 0 0 0 3.24223 0 1.00813 
0 0 -0.137251 6.21094 4.15802 34.1435 0 0 0 0 0 0 -0.518167 0 3.78831 -0.949159 0 -3.38172 0 0 0 -1.59724 0 -0.489537 -3.2089 0 -18.3115 1.55872 0 11.9299 0 0 0 3.24223 0 1.00813 
0 0 -0.123584 2.21202 4.03212 -31.9939 0 0 0 0 0 0 -1.22152 0 -9.13063 -0.809513 0 -0.454724 0 0 0 -1.83045 0 -0.566097 -3.22264 0 -18.7692 1.80225 0 20.6995 0 0 0 3.25652 0 1.01245 
0 0 -0.124048 2.21202 4.03212 -31.9923 0 0 0 0 0 0 -1.22152 0 -9.1264 -0.809513 0 -0.44685 0 0 0 -1.83045 0 -0.566097 -3.22264 0 -18.7549 1.80225 0 20.7097 0 0 0 3.25652 0 1.01245 
0 0 -0.124048 2.21202 4.03212 -31.9923 0 0 0 0 0 0 -1.22152 0 -9.1264 -0.809513 0 -0.44685 0 0 0 -1.83045 0 -0.566097 -3.22264 0 -18.7549 1.80225 0 20.7097 0 0 0 3.25652 0 1.01245 
0 0 -0.212286 6.24208 4.06819 35.6975 0 0 0 0 0 0 -0.453155 0 4.8379 -0.892664 0 -1.84934 0 0 0 -1.62979 0 -0.500297 -3.17556 0 -15.9176 1.59294 0 13.6243 0 0 0 3.20727 0 0.997659 
0 0 -0.211381 6.24208 4.06819 35.6944 0 0 0 0 0 0 -0.453155 0 4.82979 -0.892664 0 -1.86451 0 0 0 -1.62979 0 -0.500297 -3.17556 0 -15.9451 1.59294 0 13.6048 0 0 0 3.20727 0 0.997659 
0 0 -0.211381 6.24208 4.06819 35.6944 0 0 0 0 0 0 -0.453155 0 4.82979 -0.892664 0 -1.86451 0 0 0 -1.62979 0 -0.500297 -3.17556 0 -15.9451 1.59294 0 13.6048 0 0 0 3.20727 0 0.997659 
0 0 -0.288586 2.35609 3.91016 -29.1889 0 0 0 0 0 0 -1.12278 0 -7.00031 -0.694876 0 3.30151 0 0 0 -1.84271 0 -0.570203 -3.21532 0 -14.3131 1.81531 0 23.8909 0 0 0 3.24872 0 1.01015 
0 0 -0.288615 2.35609 3.91016 -29.1888 0 0 0 0 0 0 -1.12278 0 -6.99996 -0.694876 0 3.30212 0 0 0 -1.84271 0 -0.570203 -3.21532 0 -14.312 1.81531 0 23.8917 0 0 0 3.24872 0 1.01015 
0 0 -0.288615 2.35609 3.91016 -29.1888 0 0 0 0 0 0 -1.12278 0 -6.99996 -0.694876 0 3.30212 0 0 0 -1.84271 0 -0.570203 -3.21532 0 -14.312 1.81531 0 23.8917 0 0 0 3.24872 0 1.01015 
0 0 -0.288615 2.35609 3.91016 -29.1888 0 0 0 0 0 0 -1.12278 0 -6.99996 -0.694876 0 3.30212 0 0 0 -1.84271 0 -0.570203 -3.21532 0 -14.312 1.81531 0 23.8917 0 0 0 3.24872 0 1.01015 
0 0 -0.471528 6.62103 3.91416 41.0851 0 0 0 0 0 0 -0.324896 0 7.96373 -0.706178 0 4.02036 0 0 0 -1.62565 0 -0.49904 -3.20801 0 -9.0627 1.58893 0 18.8417 0 0 0 3.241 0 1.00785 
0 0 -0.469878 6.62103 3.91416 41.0794 0 0 0 0 0 0 -0.324896 0 7.9491 -0.706178 0 3.99298 0 0 0 -1.62565 0 -0.49904 -3.20801 0 -9.11243 1.58893 0 18.8065 0 0 0 3.241 0 1.00785 
0 0 -0.469878 6.62103 3.91416 41.0794 0 0 0 0 0 0 -0.324896 0 7.9491 -0.706178 0 3.99298 0 0 0 -1.62565 0 -0.49904 -3.20801 0 -9.11243 1.58893 0 18.8065 0 0 0 3.241 0 1.00785 
0 0 -0.623335 2.91204 3.67587 -22.1626 0 0 0 0 0 0 -0.848357 0 -1.61324 -0.361357 0 11.9479 0 0 0 -1.77049 0 -0.546605 -3.31455 0 -5.91945 1.74023 0 29.639 0 0 0 3.35225 0 1.04132 
0 0 -0.622002 2.91204 3.67587 -22.1671 0 0 0 0 0 0 -0.848357 0 -1.62482 -0.361357 0 11.9262 0 0 0 -1.77049 0 -0.546605 -3.31455 0 -5.95899 1.74023 0 29.6111 0 0 0 3.35225 0 1.04132 
0 0 -0.622002 2.91204 3.67587 -22.1671 0 0 0 0 0 0 -0.848357 0 -1.62482 -0.361357 0 11.9262 0 0 0 -1.77049 0 -0.546605 -3.31455 0 -5.95899 1.74023 0 29.6111 0 0 0 3.35225 0 1.04132 
0 0 -0.859127 7.34009 3.60629 49.6139 0 0 0 0 0 0 -0.105282 0 12.3731 -0.233243 0 14.4641 0 0 0 -1.57554 0 -0.482713 -3.37309 0 0.865006 1.53699 0 27.5859 0 0 0 3.41332 0 1.05971 
0 0 -0.856181 7.34009 3.60629 49.604 0 0 0 0 0 0 -0.105282 0 12.3472 -0.233243 0 14.4156 0 0 0 -1.57554 0 -0.482713 -3.37309 0 0.777073 1.53699 0 27.5239 0 0 0 3.41332 0 1.05971 
0 0 -0.856181 7.34009 3.60629 49.604 0 0 0 0 0 0 -0.105282 0 12.3472 -0.233243 0 14.4156 0 0 0 -1.57554 0 -0.482713 -3.37309 0 0.777073 1.53699 0 27.5239 0 0 0 3.41332 0 1.05971 
0 0 -0.856181 7.34009 3.60629 49.604 0 0 0 0 0 0 -0.105282 0 12.3472 -0.233243 0 14.4156 0 0 0 -1.57554 0 -0.482713 -3.37309 0 0.777073 1.53699 0 27.5239 0 0 0 3.41332 0 1.05971 
0 0 -1.03887 3.79195 3.26963 -11.6938 0 0 0 0 0 0 -0.39105 0 6.5751 0.276871 0 24.535 0 0 0 -1.6254 0 -0.499099 -3.54655 0 5.38907 1.58911 0 37.4047 0 0 0 3.59455 0 1.11419 
0 0 -1.03536 3.79195 3.26963 -11.7055 0 0 0 0 0 0 -0.39105 0 6.54472 0.276871 0 24.4779 0 0 0 -1.6254 0 -0.499099 -3.54655 0 5.28545 1.58911 0 37.3316 0 0 0 3.59455 0 1.11419 
0 0 -1.03536 3.79195 3.26963 -11.7055 0 0 0 0 0 0 -0.39105 0 6.54472 0.276871 0 24.4779 0 0 0 -1.6254 0 -0.499099 -3.54655 0 5.28545 1.58911 0 37.3316 0 0 0 3.59455 0 1.11419 
0 0 -1.30099 7.90121 3.13405 56.0359 0 0 0 0 0 0 0.260767 0 18.6464 0.521266 0 28.4209 0 0 0 -1.4772 0 -0.450554 -3.65535 0 14.1737 1.43469 0 39.4621 0 0 0 3.70816 0 1.14836 
0 0 -1.29622 7.90121 3.13405 56.02 0 0 0 0 0 0 0.260767 0 18.6052 0.521266 0 28.3436 0 0 0 -1.4772 0 -0.450554 -3.65535 0 14.0332 1.43469 0 39.3629 0 0 0 3.70816 0 1.14836 
0 0 -1.29622 7.90121 3.13405 56.02 0 0 0 0 0 0 0.260767 0 18.6052 0.521266 0 28.3436 0 0 0 -1.4772 0 -0.450554 -3.65535 0 14.0332 1.43469 0 39.3629 0 0 0 3.70816 0 1.14836 
0.266072 -1.63327 -5.24304 0 0 0 0 0 0 -4.59578 -2.88816 24.235 0.255748 0 14.3525 0 0 0 0 0 0 -1.42241 0 -0.432589 0 0 0 1.37755 0 42.8053 -0.989337 -5.96354e-16 -1.48591 3.85066 0 1.44328 
0.266072 -1.63327 -5.23982 0 0 0 0 0 0 -4.59578 -14.0538 61.1068 0.255748 0 14.3253 0 0 0 0 0 0 -1.42241 0 -0.432589 0 0 0 1.37755 0 42.7398 -0.989337 20.142 -3.68604 3.85066 0.0964602 1.4137 
0.266072 -1.63327 -5.23982 0 0 0 0 0 0 -4.59578 -21.6583 86.2192 0.255748 0 14.3253 0 0 0 0 0 0 -1.42241 0 -0.432589 0 0 0 1.37755 0 42.7398 -0.989337 33.5333 -5.14878 3.85066 0.192921 1.38412 
0.266072 -1.63327 -5.23982 0 0 0 0 0 0 -4.59578 -28.1509 107.66 0.255748 0 14.3253 0 0 0 0 0 0 -1.42241 0 -0.432589 0 0 0 1.37755 0 42.7398 -0.989337 44.7158 -6.37025 3.85066 0.289382 1.35453 
3.39188 -2.00604 47.2203 0 0 0 0 0 0 -12.549 -37.3598 38.9638 0.77801 0 25.2529 0 0 0 0 0 0 -1.27729 0 -0.385597 0 0 0 1.22805 0 51.5869 5.43756 54.2927 16.1448 1.43627 0.385845 0.596452 
3.39188 -2.00604 47.2238 0 0 0 0 0 0 -12.549 -42.259 56.2023 0.77801 0 25.2243 0 0 0 0 0 0 -1.27729 0 -0.385597 0 0 0 1.22805 0 51.5179 5.43756 62.2773 15.2723 1.43627 0.473292 0.568416 
3.39188 -2.00604 47.2238 0 0 0 0 0 0 -12.549 -46.3251 70.5046 0.77801 0 25.2243 0 0 0 0 0 0 -1.27729 0 -0.385597 0 0 0 1.22805 0 51.5179 5.43756 68.6182 14.5795 1.43627 0.567953 0.538068 
5.74594 -1.11439 52.4079 0 0 0 0 0 0 -19.2032 -50.8932 65.8242 -0.127053 0 18.1867 0 0 0 0 0 0 -1.28872 0 -0.389819 0 0 0 1.24145 0 67.0058 14.1237 73.0703 21.929 -2.22897 0.662616 -0.60076 
5.74594 -1.11439 52.4134 0 0 0 0 0 0 -19.2032 -52.7607 72.3384 -0.127053 0 18.146 0 0 0 0 0 0 -1.28872 0 -0.389819 0 0 0 1.24145 0 66.9068 14.1237 75.2853 21.6871 -2.22897 0.739064 -0.626783 
5.74594 -1.11439 52.4134 0 0 0 0 0 0 -19.2032 -53.3866 74.5129 -0.127053 0 18.146 0 0 0 0 0 0 -1.28872 0 -0.389819 0 0 0 1.24145 0 66.9068 14.1237 75.4262 21.6717 -2.22897 0.831453 -0.658234 
8.77495 -1.12301 73.6162 0 0 0 0 0 0 -28.3617 -56.7799 37.1235 0.471985 0 37.5539 0 0 0 0 0 0 -0.720521 0 -0.204176 0 0 0 0.651036 0 66.4164 24.3918 75.1935 27.243 -6.44735 0.923844 -1.96961 
8.77495 -1.12301 73.6247 0 0 0 0 0 0 -28.3617 -57.3167 38.989 0.471985 0 37.4962 0 0 0 0 0 0 -0.720521 0 -0.204176 0 0 0 0.651036 0 66.2756 24.3918 74.6555 27.3017 -6.44735 1.00786 -1.99995 
8.77495 -1.12301 73.6247 0 0 0 0 0 0 -28.3617 -57.4789 39.5482 0.471985 0 37.4962 0 0 0 0 0 0 -0.720521 0 -0.204176 0 0 0 0.651036 0 66.2756 24.3918 74.0217 27.3708 -6.44735 1.0995 -2.03304 
8.77495 -1.12301 73.6247 0 0 0 0 0 0 -28.3617 -57.5287 39.7152 0.471985 0 37.4962 0 0 0 0 0 0 -0.720521 0 -0.204176 0 0 0 0.651036 0 66.2756 24.3918 73.2018 27.4602 -6.44735 1.19113 -2.06614 
9.84987 -0.917169 62.2601 0 0 0 0 0 0 -33.5656 -58.2219 46.6338 0.954106 0 44.6322 0 0 0 0 0 0 -0.056044 0 0.0122025 0 0 0 -0.0370278 0 72.2122 32.8179 72.2022 21.3455 -9.71425 1.28277 -3.09967 
9.84987 -0.917169 62.27 0 0 0 0 0 0 -33.5656 -58.6765 48.1551 0.954106 0 44.5714 0 0 0 0 0 0 -0.056044 0 0.0122025 0 0 0 -0.0370278 0 72.0627 32.8179 70.741 21.5044 -9.71425 1.40601 -3.14594 
9.84987 -0.917169 62.27 0 0 0 0 0 0 -33.5656 -58.3786 47.1851 0.954106 0 44.5714 0 0 0 0 0 0 -0.056044 0 0.0122025 0 0 0 -0.0370278 0 72.0627 32.8179 69.3885 21.6514 -9.71425 1.49976 -3.18114 
13.5393 -1.03947 96.8553 0 0 0 0 0 0 -42.0645 -61.7431 9.75547 1.33716 0 51.5964 0 0 0 0 0 0 0.194593 0 0.0942312 0 0 0 -0.297789 0 90.0374 40.7501 67.8705 20.178 -12.2606 1.59352 -4.01143 
13.5393 -1.03947 96.8655 0 0 0 0 0 0 -42.0645 -62.0843 10.9153 1.33716 0 51.5446 0 0 0 0 0 0 0.194593 0 0.0942312 0 0 0 -0.297789 0 89.9075 40.7501 65.6834 20.4148 -12.2606 1.78163 -4.08388 
13.5393 -1.03947 96.8655 0 0 0 0 0 0 -42.0645 -61.4477 8.88263 1.33716 0 51.5446 0 0 0 0 0 0 0.194593 0 0.0942312 0 0 0 -0.297789 0 89.9075 40.7501 63.8288 20.6156 -12.2606 1.88065 -4.12202 
16.5089 -1.28348 106.269 0 0 0 0 0 0 -48.4359 -63.9232 14.048 1.64525 0 56.7979 0 0 0 0 0 0 0.254449 0 0.114431 0 0 0 -0.361941 0 104.508 45.9535 61.8129 11.4375 -13.4046 1.97967 -4.54766 
16.5089 -1.28348 106.284 0 0 0 0 0 0 -48.4359 -64.0756 14.6578 1.64525 0 56.726 0 0 0 0 0 0 0.254449 0 0.114431 0 0 0 -0.361941 0 104.327 45.9535 58.8086 11.761 -13.4046 2.26378 -4.65787 
16.5089 -1.28348 106.284 0 0 0 0 0 0 -48.4359 -63.0966 11.6194 1.64525 0 56.726 0 0 0 0 0 0 0.254449 0 0.114431 0 0 0 -0.361941 0 104.327 45.9535 56.4456 12.0155 -13.4046 2.37164 -4.69972 
16.5089 -1.28348 106.284 0 0 0 0 0 0 -48.4359 -62.0178 8.26622 1.64525 0 56.726 0 0 0 0 0 0 0.254449 0 0.114431 0 0 0 -0.361941 0 104.327 45.9535 53.9084 12.2888 -13.4046 2.47951 -4.74156 
18.7389 -1.71767 113.971 0 0 0 0 0 0 -53.1156 -63.5551 15.7549 1.88922 0 61.5143 0 0 0 0 0 0 0.0695235 0 0.0545978 0 0 0 -0.171686 0 121.884 48.5686 51.1877 3.70684 -13.3055 2.58738 -4.79543 
18.7389 -1.71767 113.989 0 0 0 0 0 0 -53.1156 -63.0917 14.549 1.88922 0 61.4337 0 0 0 0 0 0 0.0695235 0 0.0545978 0 0 0 -0.171686 0 121.68 48.5686 47.0479 4.14978 -13.3055 2.95806 -4.93824 
18.7389 -1.71767 113.989 0 0 0 0 0 0 -53.1156 -61.6126 10.0532 1.88922 0 61.4337 0 0 0 0 0 0 0.0695235 0 0.0545978 0 0 0 -0.171686 0 121.68 48.5686 43.8664 4.49019 -13.3055 3.0765 -4.98386 
19.2331 -2.32975 108.502 0 0 0 0 0 0 -55.0142 -61.1862 28.2924 2.08366 0 66.0239 0 0 0 0 0 0 -0.334149 0 -0.0767729 0 0 0 0.246014 0 140.658 48.6824 40.4231 -3.56633 -12.2336 3.19494 -4.72725 
19.2331 -2.32975 108.523 0 0 0 0 0 0 -55.0142 -59.8763 24.6371 2.08366 0 65.9321 0 0 0 0 0 0 -0.334149 0 -0.0767729 0 0 0 0.246014 0 140.424 48.6824 34.9251 -2.98264 -12.2336 3.59361 -4.87809 
19.2331 -2.32975 108.523 0 0 0 0 0 0 -55.0142 -57.7547 18.3232 2.08366 0 65.9321 0 0 0 0 0 0 -0.334149 0 -0.0767729 0 0 0 0.246014 0 140.424 48.6824 30.6124 -2.52479 -12.2336 3.72213 -4.92672 
18.4647 -3.11499 101.191 0 0 0 0 0 0 -54.9135 -55.406 30.612 2.24003 0 70.9196 0 0 0 0 0 0 -0.938373 0 -0.274552 0 0 0 0.874886 0 161.284 46.6468 25.6531 -9.00035 -10.2986 3.85067 -4.36642 
18.4647 -3.11499 101.214 0 0 0 0 0 0 -54.9135 -51.7171 19.9478 2.24003 0 70.8194 0 0 0 0 0 0 -0.938373 0 -0.274552 0 0 0 0.874886 0 161.028 46.6468 16.1657 -7.99945 -10.2986 4.18356 -4.48905 
18.4647 -3.11499 101.214 0 0 0 0 0 0 -54.9135 -43.3044 -4.93378 2.24003 0 70.8194 0 0 0 0 0 0 -0.938373 0 -0.274552 0 0 0 0.874886 0 161.028 46.6468 3.18055e-15 -6.29401 -10.2986 4.31876 -4.53886 
18.4647 -3.11499 101.214 0 0 0 0 0 0 -54.9135 -43.44 -4.40891 2.24003 0 70.8194 0 0 0 0 0 0 -0.938373 0 -0.274552 0 0 0 0.874886 0 161.028 46.6468 -3.18055e-15 -6.29401 -10.2986 4.45399 -4.58868 
15.6724 -4.11515 81.6649 0 0 0 0 0 0 -51.4143 -41.8491 27.5821 2.36414 0 76.369 0 0 0 0 0 0 -1.77937 0 -0.549998 0 0 0 1.75098 0 185.284 41.5692 3.18055e-15 -16.019 -7.20959 4.58925 -3.61704 
15.6724 -4.11515 81.6911 0 0 0 0 0 0 -51.4143 -42.7207 30.2991 2.36414 0 76.2605 0 0 0 0 0 0 -1.77937 0 -0.549998 0 0 0 1.75098 0 185.005 41.5692 -6.36111e-15 -16.019 -7.20959 4.75757 -3.67664 
15.6724 -4.11515 81.6911 0 0 0 0 0 0 -51.4143 -42.7669 30.5743 2.36414 0 76.2605 0 0 0 0 0 0 -1.77937 0 -0.549998 0 0 0 1.75098 0 185.005 41.5692 6.36111e-15 -16.019 -7.20959 4.89383 -3.72488 
13.6896 -5.49884 87.0744 0 0 0 0 0 0 -48.6984 -42.2539 31.0037 2.46439 0 83.6029 0 0 0 0 0 0 -3.01058 0 -0.953346 0 0 0 3.03448 0 216.571 35.6847 3.18055e-15 -18.841 -3.94557 5.03012 -2.676 
13.6896 -5.49884 87.1025 0 0 0 0 0 0 -48.6984 -42.6418 32.1013 2.46439 0 83.489 0 0 0 0 0 0 -3.01058 0 -0.953346 0 0 0 3.03448 0 216.278 35.6847 -6.36111e-15 -18.841 -3.94557 4.98572 -2.66093 
13.6896 -5.49884 87.1025 0 0 0 0 0 0 -48.6984 -42.6281 32.1996 2.46439 0 83.489 0 0 0 0 0 0 -3.01058 0 -0.953346 0 0 0 3.03448 0 216.278 35.6847 0 -18.841 -3.94557 5.11727 -2.70558 
11.7389 -7.15836 88.8663 0 0 0 0 0 0 -45.4499 -42.3836 36.5879 2.54426 0 91.4686 0 0 0 0 0 0 -4.52549 0 -1.44942 0 0 0 4.61417 0 249.137 29.882 0 -18.9581 -1.1642 5.24885 -1.81663 
11.7389 -7.15836 88.8999 0 0 0 0 0 0 -45.4499 -42.3451 36.2132 2.54426 0 91.3363 0 0 0 0 0 0 -4.52549 0 -1.44942 0 0 0 4.61417 0 248.795 29.882 3.18055e-15 -18.9581 -1.1642 5.00436 -1.73655 
11.7389 -7.15836 88.8999 0 0 0 0 0 0 -45.4499 -42.2939 36.1916 2.54426 0 91.3363 0 0 0 0 0 0 -4.52549 0 -1.44942 0 0 0 4.61417 0 248.795 29.882 0 -18.9581 -1.1642 5.12674 -1.77663 
11.7389 -7.15836 88.8999 0 0 0 0 0 0 -45.4499 -42.2465 36.1814 2.54426 0 91.3363 0 0 0 0 0 0 -4.52549 0 -1.44942 0 0 0 4.61417 0 248.795 29.882 0 -18.9581 -1.1642 5.24914 -1.81672 
10.4221 -9.03965 97.8306 0 0 0 0 0 0 -42.7904 -42.9048 33.9729 2.60843 0 99.3247 0 0 0 0 0 0 -6.26816 0 -2.01953 0 0 0 6.43133 0 282.939 24.9407 -3.18055e-15 -16.5519 0.874692 5.37157 -1.1822 
10.4221 -9.03965 97.8698 0 0 0 0 0 0 -42.7904 -42.4997 32.3076 2.60843 0 99.1773 0 0 0 0 0 0 -6.26816 0 -2.01953 0 0 0 6.43133 0 282.555 24.9407 3.18055e-15 -16.5519 0.874692 4.93678 -1.04289 
10.4221 -9.03965 97.8698 0 0 0 0 0 0 -42.7904 -42.4385 32.2406 2.60843 0 99.1773 0 0 0 0 0 0 -6.26816 0 -2.01953 0 0 0 6.43133 0 282.555 24.9407 -3.18055e-15 -16.5519 0.874692 5.04677 -1.07813 
9.10076 -11.1304 104.326 0 0 0 0 0 0 -40.2826 -43.4342 34.9875 2.65985 0 106.861 0 0 0 0 0 0 -8.22699 0 -2.65863 0 0 0 8.47073 0 318.232 21.1099 -3.18055e-15 -13.1814 1.92765 5.15677 -0.773887 
9.10076 -11.1304 104.371 0 0 0 0 0 0 -40.2826 -42.8388 32.6539 2.65985 0 106.698 0 0 0 0 0 0 -8.22699 0 -2.65863 0 0 0 8.47073 0 317.803 21.1099 -3.18055e-15 -13.1814 1.92765 4.61894 -0.602391 
9.10076 -11.1304 104.371 0 0 0 0 0 0 -40.2826 -42.7797 32.5768 2.65985 0 106.698 0 0 0 0 0 0 -8.22699 0 -2.65863 0 0 0 8.47073 0 317.803 21.1099 0 -13.1814 1.92765 4.71538 -0.633143 
7.7029 -13.4192 110.272 0 0 0 0 0 0 -38.4541 -43.9656 35.9429 2.70111 0 113.845 0 0 0 0 0 0 -10.3931 0 -3.36203 0 0 0 10.7182 0 354.589 18.5788 0 -8.91235 1.98234 4.81184 -0.647984 
7.7029 -13.4192 110.322 0 0 0 0 0 0 -38.4541 -43.289 33.3316 2.70111 0 113.669 0 0 0 0 0 0 -10.3931 0 -3.36203 0 0 0 10.7182 0 354.126 18.5788 3.18055e-15 -8.91235 1.98234 4.22879 -0.459752 
7.7029 -13.4192 110.322 0 0 0 0 0 0 -38.4541 -43.245 33.2796 2.70111 0 113.669 0 0 0 0 0 0 -10.3931 0 -3.36203 0 0 0 10.7182 0 354.126 18.5788 0 -8.91235 1.98234 4.31186 -0.486571 
7.7029 -13.4192 110.322 0 0 0 0 0 0 -38.4541 -43.2153 33.2709 2.70111 0 113.669 0 0 0 0 0 0 -10.3931 0 -3.36203 0 0 0 10.7182 0 354.126 18.5788 -3.18055e-15 -8.91235 1.98234 4.39494 -0.513393 
7.75442 -15.8664 100.286 0 0 0 0 0 0 -44.8192 -44.1145 4.83963 2.736 0 105.606 0 0 0 0 0 0 -12.7407 0 -4.11631 0 0 0 13.1307 0 370.975 26.0687 3.18055e-15 26.7047 -3.53431 4.47803 -2.27246 
7.75442 -15.8664 100.333 0 0 0 0 0 0 -44.8192 -43.5248 2.51256 2.736 0 105.427 0 0 0 0 0 0 -12.7407 0 -4.11631 0 0 0 13.1307 0 370.506 26.0687 -3.18055e-15 26.7047 -3.53431 3.97044 -2.09274 
7.75442 -15.8664 100.333 0 0 0 0 0 0 -44.8192 -43.6066 2.83636 2.736 0 105.427 0 0 0 0 0 0 -12.7407 0 -4.11631 0 0 0 13.1307 0 370.506 26.0687 0 26.7047 -3.53431 4.04274 -2.11834 
0 0 -19.4596 42.8652 31.8452 95.3208 0 0 0 0 0 0 2.7606 0 115.029 -29.31 0 -3.34368 0 0 0 -14.7119 0 -4.75224 6.25604 -8.78738 538.751 15.1687 0 389.774 0 0 0 -7.33088 0 -1.98297 
0 0 0 42.8652 23.0578 131.217 -1.83431 -4.99809 36.2912 0 0 0 0 0 0 -29.31 0 10.4055 -2.76058 -6.36111e-15 -3.35383 -14.7119 0 -4.50013 6.25604 0 497.555 0 0 0 0 0 0 -7.33088 0 -1.98297 
0 0 0 42.8652 23.0578 131.217 -1.83431 -8.86636 48.317 0 0 0 0 0 0 -29.31 0 10.4055 -2.76058 6.55813 -4.01842 -14.7119 0.00404517 -4.50165 6.25604 0 497.555 0 0 0 0 0 0 -7.33088 0 -1.98297 
0 0 0 31.4802 16.7045 75.4945 4.24118 -9.8402 84.9294 0 0 0 0 0 0 -22.8716 0 137 -2.1124 16.0896 -3.60762 -17.9928 0.00809095 -5.57517 6.17326 0 447.637 0 0 0 0 0 0 -7.1694 0 -1.95722 
0 0 0 31.4802 16.7045 75.365 4.24118 -14.0939 98.2262 0 0 0 0 0 0 -22.8716 0 136.494 -2.1124 22.9641 -4.30438 -17.9928 0.0121467 -5.57675 6.17326 0 446.404 0 0 0 0 0 0 -7.1694 0 -1.95722 
0 0 0 31.4802 16.7045 75.365 4.24118 -17.2649 108.14 0 0 0 0 0 0 -22.8716 0 136.494 -2.1124 28.2338 -4.83847 -17.9928 0.0161961 -5.57832 6.17326 0 446.404 0 0 0 0 0 0 -7.1694 0 -1.95722 
0 0 0 31.4802 16.7045 75.365 4.24118 -20.1764 117.242 0 0 0 0 0 0 -22.8716 0 136.494 -2.1124 33.0133 -5.32288 -17.9928 0.0202448 -5.57989 6.17326 0 446.404 0 0 0 0 0 0 -7.1694 0 -1.95722 
0 0 0 24.8844 12.2449 106.756 3.58642 -21.8174 106.1 0 0 0 0 0 0 -19.1186 0 151.248 2.93307 37.4501 6.83806 -23.5714 0.0242941 -7.37813 6.88364 0 484.889 0 0 0 0 0 0 -7.86392 0 -2.18307 
0 0 0 24.8844 12.2449 106.703 3.58642 -24.5602 115.63 0 0 0 0 0 0 -19.1186 0 150.727 2.93307 41.79 6.39558 -23.5714 0.0176355 -7.37542 6.88364 0 484.074 0 0 0 0 0 0 -7.86392 0 -2.18307 
0 0 0 24.8844 12.2449 106.703 3.58642 -27.0285 124.212 0 0 0 0 0 0 -19.1186 0 150.727 2.93307 45.7081 5.9961 -23.5714 0.0201546 -7.37645 6.88364 0 484.074 0 0 0 0 0 0 -7.86392 0 -2.18307 
0 0 0 17.1458 6.82675 74.6629 3.29202 -26.2664 49.5272 0 0 0 0 0 0 -14.708 0 191.782 15.0539 49.422 27.3759 -31.3447 0.0226743 -9.81712 7.8937 0 515.594 0 0 0 0 0 0 -8.86888 0 -2.50346 
0 0 0 17.1458 6.82675 74.5933 3.29202 -28.8399 57.7376 0 0 0 0 0 0 -14.708 0 191.334 15.0539 53.248 26.9804 -31.3447 -0.0150782 -9.80095 7.8937 0 514.763 0 0 0 0 0 0 -8.86888 0 -2.50346 
0 0 0 17.1458 6.82675 74.5933 3.29202 -31.0172 64.7111 0 0 0 0 0 0 -14.708 0 191.334 15.0539 56.5581 26.6383 -31.3447 -0.0165857 -9.80031 7.8937 0 514.763 0 0 0 0 0 0 -8.86888 0 -2.50346 
0 0 0 15.4976 2.44841 119.307 -2.14137 -35.7122 44.1534 0 0 0 0 0 0 -11.1876 0 212.024 24.7469 59.6881 19.2153 -37.6301 -0.0180938 -11.7127 8.7515 0 532.382 0 0 0 0 0 0 -9.75454 0 -2.77749 
0 0 0 15.4976 2.44841 119.22 -2.14137 -39.2013 55.3627 0 0 0 0 0 0 -11.1876 0 211.499 24.7469 63.3154 18.8364 -37.6301 -0.0814434 -11.6849 8.7515 0 531.416 0 0 0 0 0 0 -9.75454 0 -2.77749 
0 0 0 15.4976 2.44841 119.22 -2.14137 -41.112 61.5258 0 0 0 0 0 0 -11.1876 0 211.499 24.7469 66.019 18.554 -37.6301 -0.0877086 -11.6821 8.7515 0 531.416 0 0 0 0 0 0 -9.75454 0 -2.77749 
0 0 0 15.4976 2.44841 119.22 -2.14137 -42.9433 67.4326 0 0 0 0 0 0 -11.1876 0 211.499 24.7469 68.5386 18.2909 -37.6301 -0.0939737 -11.6794 8.7515 0 531.416 0 0 0 0 0 0 -9.75454 0 -2.77749 
0 0 0 15.0437 -1.34901 145.594 -9.82823 -48.0345 46.9085 0 0 0 0 0 0 -8.37515 0 227.781 36.1999 70.8672 23.9821 -44.358 -0.100238 -13.6955 9.73567 0 552.44 0 0 0 0 0 0 -10.8094 0 -3.09378 
0 0 0 15.0437 -1.34901 145.496 -9.82823 -51.8035 59.2396 0 0 0 0 0 0 -8.37515 0 227.225 36.1999 73.4944 23.7059 -44.358 -0.188387 -13.6563 9.73567 0 551.424 0 0 0 0 0 0 -10.8094 0 -3.09378 
0 0 0 15.0437 -1.34901 145.496 -9.82823 -53.3465 64.3082 0 0 0 0 0 0 -8.37515 0 227.225 36.1999 75.3533 23.5104 -44.358 -0.199469 -13.6514 9.73567 0 551.424 0 0 0 0 0 0 -10.8094 0 -3.09378 
0 0 0 13.9403 -4.72082 155.084 -17.9162 -57.0547 56.002 0 0 0 0 0 0 -6.12711 0 239.523 48.6613 76.9963 26.9372 -51.092 -0.210551 -15.656 10.8581 0 570.796 0 0 0 0 0 0 -12.045 0 -3.45676 
0 0 0 13.9403 -4.72082 154.973 -17.9162 -61.2422 70.07 0 0 0 0 0 0 -6.12711 0 238.923 48.6613 78.5174 26.7771 -51.092 -0.311508 -15.6115 10.8581 0 569.704 0 0 0 0 0 0 -12.045 0 -3.45676 
0 0 0 13.9403 -4.72082 154.973 -17.9162 -62.4189 74.0326 0 0 0 0 0 0 -6.12711 0 238.923 48.6613 79.6185 26.6611 -51.092 -0.327084 -15.6046 10.8581 0 569.704 0 0 0 0 0 0 -12.045 0 -3.45676 
0 0 0 11.0409 -7.89169 149.968 -25.3104 -63.7918 62.1025 0 0 0 0 0 0 -4.33016 0 248.038 61.8558 80.4665 29.4023 -57.5113 -0.342659 -17.5285 12.2303 0 589.728 0 0 0 0 0 0 -13.5547 0 -3.90148 
0 0 0 11.0409 -7.89169 149.843 -25.3104 -68.1538 76.9432 0 0 0 0 0 0 -4.33016 0 247.399 61.8558 80.2848 29.4214 -57.5113 -0.449376 -17.4824 12.2303 0 588.571 0 0 0 0 0 0 -13.5547 0 -3.90148 
0 0 0 11.0409 -7.89169 149.843 -25.3104 -68.8177 79.1995 0 0 0 0 0 0 -4.33016 0 247.399 61.8558 80.4908 29.3997 -57.5113 -0.468914 -17.4739 12.2303 0 588.571 0 0 0 0 0 0 -13.5547 0 -3.90148 
0 0 0 11.0409 -7.89169 149.843 -25.3104 -69.2994 80.8332 0 0 0 0 0 0 -4.33016 0 247.399 61.8558 80.3929 29.41 -57.5113 -0.488453 -17.4655 12.2303 0 588.571 0 0 0 0 0 0 -13.5547 0 -3.90148 
0 0 0 6.92439 -10.8999 136.926 -32.5383 -68.5196 64.6858 0 0 0 0 0 0 -2.89032 0 253.101 74.9605 80.2255 29.6419 -62.727 -0.507991 -19.0171 13.7982 0 604.59 0 0 0 0 0 0 -15.2652 0 -4.41046 
0 0 0 6.92439 -10.8999 136.786 -32.5383 -72.3736 77.9478 0 0 0 0 0 0 -2.89032 0 252.426 74.9605 77.6405 29.9109 -62.727 -0.628842 -18.9665 13.7982 0 603.373 0 0 0 0 0 0 -15.2652 0 -4.41046 
0 0 0 6.92439 -10.8999 136.786 -32.5383 -72.6583 78.9185 0 0 0 0 0 0 -2.89032 0 252.426 74.9605 77.3077 29.9455 -62.727 -0.652134 -18.9567 13.7982 0 603.373 0 0 0 0 0 0 -15.2652 0 -4.41046 
0 0 0 4.07024 -13.6603 129.028 -41.1606 -71.8156 58.6714 0 0 0 0 0 0 -1.73935 0 255.262 87.1445 76.9416 27.6869 -66.4295 -0.675426 -20.0485 15.4069 0 612.707 0 0 0 0 0 0 -16.9907 0 -4.93238 
0 0 0 4.07024 -13.6603 128.875 -41.1606 -74.7922 69.3863 0 0 0 0 0 0 -1.73935 0 254.566 87.1445 71.9192 28.2029 -66.4295 -0.803006 -19.9968 15.4069 0 611.459 0 0 0 0 0 0 -16.9907 0 -4.93238 
0 0 0 4.07024 -13.6603 128.875 -41.1606 -74.8817 69.6981 0 0 0 0 0 0 -1.73935 0 254.566 87.1445 71.3881 28.2575 -66.4295 -0.829774 -19.9859 15.4069 0 611.459 0 0 0 0 0 0 -16.9907 0 -4.93238 
0 0 0 -0.979871 -16.4729 108.782 -47.3505 -72.0443 41.9755 0 0 0 0 0 0 -0.821384 0 256.02 98.2599 70.8245 26.5305 -69.2281 -0.856543 -20.8502 17.2994 0 625.543 0 0 0 0 0 0 -19.0121 0 -5.54753 
0 0 0 -0.979871 -16.4729 108.627 -47.3505 -73.3322 46.6529 0 0 0 0 0 0 -0.821384 0 255.357 98.2599 62.4817 27.397 -69.2281 -0.942915 -20.8158 17.2994 0 624.362 0 0 0 0 0 0 -19.0121 0 -5.54753 
0 0 0 -0.979871 -16.4729 108.627 -47.3505 -73.2131 46.2078 0 0 0 0 0 0 -0.821384 0 255.357 98.2599 61.7403 27.474 -69.2281 -0.971491 -20.8044 17.2994 0 624.362 0 0 0 0 0 0 -19.0121 0 -5.54753 
0 0 0 -0.979871 -16.4729 108.627 -47.3505 -73.0695 45.6733 0 0 0 0 0 0 -0.821384 0 255.357 98.2599 60.9637 27.5547 -69.2281 -1.00007 -20.7931 17.2994 0 624.362 0 0 0 0 0 0 -19.0121 0 -5.54753 
0 0 0 -5.11978 -19.149 94.9951 -54.6635 -70.3046 9.32002 0 0 0 0 0 0 -0.0843299 0 254.441 107.374 60.1513 23.339 -69.0198 -1.02864 -20.6784 19.238 0 630.927 0 0 0 0 0 0 -21.0711 0 -6.17926 
0 0 0 -5.11978 -19.149 94.8283 -54.6635 -68.5365 2.71996 0 0 0 0 0 0 -0.0843299 0 253.773 107.374 46.9614 24.7192 -69.0198 -1.11017 -20.6458 19.238 0 629.746 0 0 0 0 0 0 -21.0711 0 -6.17926 
0 0 0 -5.11978 -19.149 94.8283 -54.6635 -68.1354 1.22076 0 0 0 0 0 0 -0.0843299 0 253.773 107.374 45.8708 24.8333 -69.0198 -1.14018 -20.6338 19.238 0 629.746 0 0 0 0 0 0 -21.0711 0 -6.17926 
0 0 0 -6.34668 -21.6457 94.6665 -62.7788 -67.0869 -30.002 0 0 0 0 0 0 0.504963 0 251.738 113.613 44.7268 17.5153 -66.6579 -1.17019 -19.8834 21.1451 0 633.031 0 0 0 0 0 0 -23.0913 0 -6.8027 
0 0 0 -6.34668 -21.6457 94.4985 -62.7788 -58.757 -62.3749 0 0 0 0 0 0 0.504963 0 251.106 113.613 20.2632 20.1161 -66.6579 -1.19275 -19.8742 21.1451 0 631.923 0 0 0 0 0 0 -23.0913 0 -6.8027 
0 0 0 -6.34668 -21.6457 94.4985 -62.7788 -57.4675 -67.3831 0 0 0 0 0 0 0.504963 0 251.106 113.613 17.6338 20.3956 -66.6579 -1.22258 -19.8619 21.1451 0 631.923 0 0 0 0 0 0 -23.0913 0 -6.8027 
0 0 0 -7.85269 -24.2694 107.082 -67.5152 -56.5088 -75.617 0 0 0 0 0 0 0.974024 0 249.673 116.197 14.4716 9.48806 -63.6888 -1.2524 -19.1457 23.2989 0 643.13 0 0 0 0 0 0 -25.39 0 -7.51123 
0 0 0 -7.85269 -24.2694 106.918 -67.5152 -52.8963 -89.8835 0 0 0 0 0 0 0.974024 0 249.098 116.197 0 11.0805 -63.6888 -1.1016 -19.2097 23.2989 0 642.131 0 0 0 0 0 0 -25.39 0 -7.51123 
0 0 0 -7.85269 -24.2694 106.918 -67.5152 -52.9389 -89.7049 0 0 0 0 0 0 0.974024 0 249.098 116.197 -1.27222e-14 11.0805 -63.6888 -1.12722 -19.1988 23.2989 0 642.131 0 0 0 0 0 0 -25.39 0 -7.51123 
0 0 0 -7.85269 -24.2694 106.918 -67.5152 -52.978 -89.5401 0 0 0 0 0 0 0.974024 0 249.098 116.197 -6.36111e-15 11.0805 -63.6888 -1.15284 -19.188 23.2989 0 642.131 0 0 0 0 0 0 -25.39 0 -7.51123 
0 0 0 -11.4448 -26.9057 114.733 -68.0714 -53.1722 -60.827 0 0 0 0 0 0 1.34898 0 245.985 115.874 -6.36111e-15 1.04977 -60.3005 -1.17846 -18.6053 25.5598 0 650.819 0 0 0 0 0 0 -27.8384 0 -8.26313 
0 0 0 -11.4448 -26.9057 114.522 -68.0714 -56.7297 -47.5322 0 0 0 0 0 0 1.34898 0 245.298 115.874 1.27222e-14 1.04977 -60.3005 -0.82331 -18.7609 25.5598 0 649.639 0 0 0 0 0 0 -27.8384 0 -8.26313 
0 0 0 -11.4448 -26.9057 114.522 -68.0714 -56.7275 -47.5294 0 0 0 0 0 0 1.34898 0 245.298 115.874 1.27222e-14 1.04977 -60.3005 -0.840828 -18.7532 25.5598 0 649.639 0 0 0 0 0 0 -27.8384 0 -8.26313 
0 0 0 -14.4347 -29.2314 127.317 -68.9919 -57.5842 -40.8674 0 0 0 0 0 0 1.64793 0 238.777 113.479 6.36111e-15 -5.05638 -55.1785 -0.858347 -17.6281 27.5866 0 647.135 0 0 0 0 0 0 -30.0361 0 -8.94178 
0 0 0 -14.4347 -29.2314 127.054 -68.9919 -60.765 -29.6542 0 0 0 0 0 0 1.64793 0 237.93 113.479 6.36111e-15 -5.05638 -55.1785 -0.431659 -17.8176 27.5866 0 645.674 0 0 0 0 0 0 -30.0361 0 -8.94178 
0 0 0 -14.4347 -29.2314 127.054 -68.9919 -60.732 -29.7675 0 0 0 0 0 0 1.64793 0 237.93 113.479 -1.27222e-14 -5.05638 -55.1785 -0.440293 -17.8138 27.5866 0 645.674 0 0 0 0 0 0 -30.0361 0 -8.94178 
0 0 0 -18.692 -31.6111 120.688 -69.1539 -60.1026 -17.8025 0 0 0 0 0 0 1.88661 0 229.709 109.139 6.36111e-15 -8.70944 -48.0665 -0.448926 -15.8551 29.7276 0 647.541 0 0 0 0 0 0 -32.353 0 -9.66177 
0 0 0 -18.692 -31.6111 120.411 -69.1539 -62.8979 -8.59369 0 0 0 0 0 0 1.88661 0 228.959 109.139 6.36111e-15 -8.70944 -48.0665 -0.0268054 -16.0407 29.7276 0 646.312 0 0 0 0 0 0 -32.353 0 -9.66177 
0 0 0 -18.692 -31.6111 120.411 -69.1539 -62.8413 -8.78487 0 0 0 0 0 0 1.88661 0 228.959 109.139 -6.36111e-15 -8.70944 -48.0665 -0.027311 -16.0405 29.7276 0 646.312 0 0 0 0 0 0 -32.353 0 -9.66177 
0 0 0 -18.692 -31.6111 120.411 -69.1539 -62.7828 -8.98244 0 0 0 0 0 0 1.88661 0 228.959 109.139 -6.36111e-15 -8.70944 -48.0665 -0.0278169 -16.0403 29.7276 0 646.312 0 0 0 0 0 0 -32.353 0 -9.66177 
0 0 0 -20.027 -33.5173 128.624 -72.658 -63.667 -40.0641 0 0 0 0 0 0 2.07677 0 217.906 102.722 2.54444e-14 -10.0994 -38.3754 -0.0283228 -12.8726 31.4436 0 632.293 0 0 0 0 0 0 -34.171 0 -10.2362 
0 0 0 -20.027 -33.5173 128.317 -72.658 -65.9688 -32.6339 0 0 0 0 0 0 2.07677 0 217.038 102.722 1.90833e-14 -10.0994 -38.3754 0.268866 -12.9983 31.4436 0 630.841 0 0 0 0 0 0 -34.171 0 -10.2362 
0 0 0 -20.027 -33.5173 128.317 -72.658 -65.8905 -32.8929 0 0 0 0 0 0 2.07677 0 217.038 102.722 1.27222e-14 -10.0994 -38.3754 0.273583 -13.0002 31.4436 0 630.841 0 0 0 0 0 0 -34.171 0 -10.2362 
0 0 0 -19.8255 -35.0402 140.924 -77.2314 -67.6445 -48.3234 0 0 0 0 0 0 2.22873 0 204.534 94.4467 0 -11.9207 -27.8091 0.2783 -9.34735 32.8142 0 614.518 0 0 0 0 0 0 -35.5895 0 -10.6914 
0 0 0 -19.8255 -35.0402 140.631 -77.2314 -69.6008 -41.9884 0 0 0 0 0 0 2.22873 0 203.657 94.4467 -6.36111e-15 -11.9207 -27.8091 0.51457 -9.44031 32.8142 0 613.021 0 0 0 0 0 0 -35.5895 0 -10.6914 
0 0 0 -19.8255 -35.0402 140.631 -77.2314 -69.5063 -42.3003 0 0 0 0 0 0 2.22873 0 203.657 94.4467 6.36111e-15 -11.9207 -27.8091 0.523147 -9.44368 32.8142 0 613.021 0 0 0 0 0 0 -35.5895 0 -10.6914 
0 0 0 -21.8664 -36.6585 118.778 -78.3172 -68.1266 -18.7662 0 0 0 0 0 0 2.35008 0 190.958 85.0406 -6.36111e-15 -13.3389 -17.2521 0.531723 -5.69678 34.3104 0 605.807 0 0 0 0 0 0 -37.17 0 -11.1939 
0 0 0 -21.8664 -36.6585 118.503 -78.3172 -69.8412 -13.2459 0 0 0 0 0 0 2.35008 0 190.296 85.0406 6.36111e-15 -13.3389 -17.2521 0.767006 -5.77964 34.3104 0 604.759 0 0 0 0 0 0 -37.17 0 -11.1939 
0 0 0 -21.8664 -36.6585 118.503 -78.3172 -69.7339 -13.5932 0 0 0 0 0 0 2.35008 0 190.296 85.0406 -6.36111e-15 -13.3389 -17.2521 0.779182 -5.78392 34.3104 0 604.759 0 0 0 0 0 0 -37.17 0 -11.1939 
0 0 0 -21.8664 -36.6585 118.503 -78.3172 -69.6256 -13.9438 0 0 0 0 0 0 2.35008 0 190.296 85.0406 0 -13.3389 -17.2521 0.791358 -5.78821 34.3104 0 604.759 0 0 0 0 0 0 -37.17 0 -11.1939 
0 0 0 -21.8354 -37.9158 109.236 -80.1903 -68.993 -30.2964 0 0 0 0 0 0 2.44545 0 177.081 73.9039 -1.90833e-14 -14.0888 -5.75726 0.803533 -1.69919 35.4714 0 586.561 0 0 0 0 0 0 -38.36 0 -11.5788 
0 0 0 -21.8354 -37.9158 108.977 -80.1903 -70.3759 -25.7037 0 0 0 0 0 0 2.44545 0 176.377 73.9039 -6.36111e-15 -14.0888 -5.75726 0.932761 -1.73813 35.4714 0 585.393 0 0 0 0 0 0 -38.36 0 -11.5788 
0 0 0 -21.8354 -37.9158 108.977 -80.1903 -70.2562 -26.1009 0 0 0 0 0 0 2.44545 0 176.377 73.9039 -6.36111e-15 -14.0888 -5.75726 0.946684 -1.74232 35.4714 0 585.393 0 0 0 0 0 0 -38.36 0 -11.5788 
0 0 0 -21.4813 -38.9906 120.387 -81.5679 -71.4107 -21.7789 0 0 0 0 0 0 2.52187 0 164.362 61.2395 -1.27222e-14 -18.6959 5.11025 0.960607 2.10877 36.469 0 571.053 0 0 0 0 0 0 -39.37 0 -11.9077 
0 0 0 -21.4813 -38.9906 120.173 -81.5679 -72.5658 -17.819 0 0 0 0 0 0 2.52187 0 163.636 61.2395 0 -18.6959 5.11025 1.05359 2.08622 36.469 0 569.768 0 0 0 0 0 0 -39.37 0 -11.9077 
0 0 0 -21.4813 -38.9906 120.173 -81.5679 -72.4365 -18.2621 0 0 0 0 0 0 2.52187 0 163.636 61.2395 -1.27222e-14 -18.6959 5.11025 1.06864 2.08257 36.469 0 569.768 0 0 0 0 0 0 -39.37 0 -11.9077 
0 0 0 -26.0931 -40.4717 66.6776 -75.886 -67.5325 40.0938 0 0 0 0 0 0 2.58153 0 150.939 49.3746 1.27222e-14 -19.3532 14.9001 1.08369 5.56227 37.8882 0 567.978 0 0 0 0 0 0 -40.931 0 -12.3969 
0 0 0 -26.0931 -40.4717 66.4772 -75.886 -68.454 43.2157 0 0 0 0 0 0 2.58153 0 150.563 49.3746 1.27222e-14 -19.3532 14.9001 1.15234 5.54992 37.8882 0 567.447 0 0 0 0 0 0 -40.931 0 -12.3969 
0 0 0 -26.0931 -40.4717 66.4772 -75.886 -68.3167 42.7537 0 0 0 0 0 0 2.58153 0 150.563 49.3746 0 -19.3532 14.9001 1.16813 5.54707 37.8882 0 567.447 0 0 0 0 0 0 -40.931 0 -12.3969 
0 0 0 -26.0931 -40.4717 66.4772 -75.886 -68.1789 42.2897 0 0 0 0 0 0 2.58153 0 150.563 49.3746 0 -19.3532 14.9001 1.18392 5.54423 37.8882 0 567.447 0 0 0 0 0 0 -40.931 0 -12.3969 
0 0 0 -27.6639 -41.5003 35.1361 -70.898 -64.6065 39.8875 0 0 0 0 0 0 2.63 0 138.249 38.7123 1.27222e-14 -16.0102 23.6088 1.19971 8.57988 38.8685 0 548.771 0 0 0 0 0 0 -42.0489 0 -12.7443 
0 0 0 -27.6639 -41.5003 34.9481 -70.898 -65.2039 41.9372 0 0 0 0 0 0 2.63 0 137.739 38.7123 0 -16.0102 23.6088 1.17271 8.58321 38.8685 0 547.924 0 0 0 0 0 0 -42.0489 0 -12.7443 
0 0 0 -27.6639 -41.5003 34.9481 -70.898 -65.059 41.4404 0 0 0 0 0 0 2.63 0 137.739 38.7123 1.27222e-14 -16.0102 23.6088 1.18794 8.58133 38.8685 0 547.924 0 0 0 0 0 0 -42.0489 0 -12.7443 
0 0 0 -29.4402 -42.5323 12.9223 -65.8296 -61.955 49.4656 0 0 0 0 0 0 2.66702 0 126.671 30.3277 0 -12.0474 30.4658 1.20317 10.8828 39.8625 0 539.055 0 0 0 0 0 0 -43.2613 0 -13.1124 
0 0 0 -29.4402 -42.5323 12.779 -65.8296 -62.2014 50.3371 0 0 0 0 0 0 2.66702 0 126.28 30.3277 0 -12.0474 30.4658 1.03017 10.8961 39.8625 0 538.406 0 0 0 0 0 0 -43.2613 0 -13.1124 
0 0 0 -29.4402 -42.5323 12.779 -65.8296 -62.0493 49.8074 0 0 0 0 0 0 2.66702 0 126.28 30.3277 0 -12.0474 30.4658 1.04305 10.8951 39.8625 0 538.406 0 0 0 0 0 0 -43.2613 0 -13.1124 
0 0 0 -29.4402 -42.5323 12.779 -65.8296 -62.0493 49.8074 0 0 0 0 0 0 2.66702 0 126.28 30.3277 0 -12.0474 30.4658 1.04305 10.8951 39.8625 0 538.406 0 0 0 0 0 0 -43.2613 0 -13.1124 
0 0 0 -29.4402 -42.5323 12.779 -65.8296 -62.0493 49.8074 0 0 0 0 0 0 2.66702 0 126.28 30.3277 0 -12.0474 30.4658 1.04305 10.8951 39.8625 0 538.406 0 0 0 0 0 0 -43.2613 0 -13.1124 
0 0 0 -29.4402 -42.5323 12.779 -65.8296 -62.0493 49.8074 0 0 0 0 0 0 2.66702 0 126.28 30.3277 0 -12.0474 30.4658 1.04305 10.8951 39.8625 0 538.406 0 0 0 0 0 0 -43.2613 0 -13.1124 
0 0 0 -29.4402 -42.5323 12.779 -65.8296 -62.0493 49.8074 0 0 0 0 0 0 2.66702 0 126.28 30.3277 0 -12.0474 30.4658 1.04305 10.8951 39.8625 0 538.406 0 0 0 0 0 0 -43.2613 0 -13.1124 
0 0 0 -29.4402 -42.5323 12.779 -65.8296 -62.0493 49.8074 0 0 0 0 0 0 2.66702 0 126.28 30.3277 0 -12.0474 30.4658 1.04305 10.8951 39.8625 0 538.406 0 0 0 0 0 0 -43.2613 0 -13.1124 
0 0 0 -29.4402 -42.5323 12.779 -65.8296 -62.0493 49.8074 0 0 0 0 0 0 2.66702 0 126.28 30.3277 0 -12.0474 30.4658 1.04305 10.8951 39.8625 0 538.406 0 0 0 0 0 0 -43.2613 0 -13.1124 
0 0 0 -29.4402 -42.5323 12.779 -65.8296 -62.0493 49.8074 0 0 0 0 0 0 2.66702 0 126.28 30.3277 0 -12.0474 30.4658 1.04305 10.8951 39.8625 0 538.406 0 0 0 0 0 0 -43.2613 0 -13.1124 
0 0 0 -29.4402 -42.5323 12.779 -65.8296 -62.0493 49.8074 0 0 0 0 0 0 2.66702 0 126.28 30.3277 0 -12.0474 30.4658 1.04305 10.8951 39.8625 0 538.406 0 0 0 0 0 0 -43.2613 0 -13.1124 
0 0 0 -29.4402 -42.5323 12.779 -65.8296 -62.0493 49.8074 0 0 0 0 0 0 2.66702 0 126.28 30.3277 0 -12.0474 30.4658 1.04305 10.8951 39.8625 0 538.406 0 0 0 0 0 0 -43.2613 0 -13.1124 
0 0 0 -29.4402 -42.5323 12.779 -65.8296 -62.0493 49.8074 0 0 0 0 0 0 2.66702 0 126.28 30.3277 0 -12.0474 30.4658 1.04305 10.8951 39.8625 0 538.406 0 0 0 0 0 0 -43.2613 0 -13.1124 
0 0 0 -29.4402 -42.5323 12.779 -65.8296 -62.0493 49.8074 0 0 0 0 0 0 2.66702 0 126.28 30.3277 0 -12.0474 30.4658 1.04305 10.8951 39.8625 0 538.406 0 0 0 0 0 0 -43.2613 0 -13.1124 
0 0 0 -29.4402 -42.5323 12.779 -65.8296 -62.0493 49.8074 0 0 0 0 0 0 2.66702 0 126.28 30.3277 0 -12.0474 30.4658 1.04305 10.8951 39.8625 0 538.406 0 0 0 0 0 0 -43.2613 0 -13.1124 
0 0 0 -29.4402 -42.5323 12.779 -65.8296 -62.0493 49.8074 0 0 0 0 0 0 2.66702 0 126.28 30.3277 0 -12.0474 30.4658 1.04305 10.8951 39.8625 0 538.406 0 0 0 0 0 0 -43.2613 0 -13.1124 
0 0 0 -29.4402 -42.5323 12.779 -65.8296 -62.0493 49.8074 0 0 0 0 0 0 2.66702 0 126.28 30.3277 0 -12.0474 30.4658 1.04305 10.8951 39.8625 0 538.406 0 0 0 0 0 0 -43.2613 0 -13.1124 
0 0 0 -29.4402 -42.5323 12.779 -65.8296 -62.0493 49.8074 0 0 0 0 0 0 2.66702 0 126.28 30.3277 0 -12.0474 30.4658 1.04305 10.8951 39.8625 0 538.406 0 0 0 0 0 0 -43.2613 0 -13.1124 
0 0 0 -29.4402 -42.5323 12.779 -65.8296 -62.0493 49.8074 0 0 0 0 0 0 2.66702 0 126.28 30.3277 0 -12.0474 30.4658 1.04305 10.8951 39.8625 0 538.406 0 0 0 0 0 0 -43.2613 0 -13.1124 
