alexis-jensen/Push-Recovery/PushRecovery/log/torques203.txt
q0 qdot0 tau0 q1 qdot1 tau1 q2 qdot2 tau2 q3 qdot3 tau3 q4 qdot4 tau4 q5 qdot5 tau5 q6 qdot6 tau6 q7 qdot7 tau7 q8 qdot8 tau8 q9 qdot9 tau9 q10 qdot10 tau10 q11 qdot11 tau11 
0 0 0 0 0 0 0 0 0 0 0 0 0 0 0 0 0 0 0 0 0 0 0 0 0 0 0 0 0 0 0 0 0 0 0 0 
0 0 0 0 0 0 0 0 0 0 0 0 0 0 0 0 0 0 0 0 0 0 0 0 0 0 0 0 0 0 0 0 0 0 0 0 
0 0 0 0 0 0 0 0 0 0 0 0 0 0 0 0 0 0 0 0 0 0 0 0 0 0 0 0 0 0 0 0 0 0 0 0 
0 0 0 0 0 0 0 0 0 0 0 0 0 0 0 0 0 0 0 0 0 0 0 0 0 0 0 0 0 0 0 0 0 0 0 0 
0 0 0 0 0 0 0 0 0 0 0 0 0 0 0 0 0 0 0 0 0 0 0 0 0 0 0 0 0 0 0 0 0 0 0 0 
0 0 0.962841 0.415361 1.39358 -4.26573 0 0 0 0 0 0 0.536233 0 10.6892 0.499484 0 7.85564 0 0 0 0.837629 0 0.266157 -1.89346 0 -39.8953 -0.846986 0 -12.5252 0 0 0 1.90692 0 0.594718 
0 0 0.911516 0.415361 1.39358 -4.2011 0 0 0 0 0 0 0.536233 0 10.6962 0.499484 0 8.08899 0 0 0 0.837629 0 0.266157 -1.89346 0 -39.5298 -0.846986 0 -12.3922 0 0 0 1.90692 0 0.594718 
0 0 0.911516 0.415361 1.39358 -4.2011 0 0 0 0 0 0 0.536233 0 10.6962 0.499484 0 8.08899 0 0 0 0.837629 0 0.266157 -1.89346 0 -39.5298 -0.846986 0 -12.3922 0 0 0 1.90692 0 0.594718 
0 0 1.75289 5.70112 3.31473 41.8131 0 0 0 0 0 0 -0.699816 0 -6.08931 -0.705488 0 -10.8794 0 0 0 0.794487 0 0.256091 -2.60976 0 -24.5943 -0.814833 0 5.45357 0 0 0 2.63845 0 0.819705 
0 0 1.68979 5.70112 3.31473 41.8737 0 0 0 0 0 0 -0.699816 0 -6.13585 -0.705488 0 -10.6896 0 0 0 0.794487 0 0.256091 -2.60976 0 -24.3207 -0.814833 0 5.47943 0 0 0 2.63845 0 0.819705 
0 0 1.68979 5.70112 3.31473 41.8737 0 0 0 0 0 0 -0.699816 0 -6.13585 -0.705488 0 -10.6896 0 0 0 0.794487 0 0.256091 -2.60976 0 -24.3207 -0.814833 0 5.47943 0 0 0 2.63845 0 0.819705 
0 0 1.68979 5.70112 3.31473 41.8737 0 0 0 0 0 0 -0.699816 0 -6.13585 -0.705488 0 -10.6896 0 0 0 0.794487 0 0.256091 -2.60976 0 -24.3207 -0.814833 0 5.47943 0 0 0 2.63845 0 0.819705 
0 0 2.45471 3.67553 5.0155 -20.0977 0 0 0 0 0 0 -2.19037 0 -14.5177 -2.02639 0 -19.8569 0 0 0 0.553042 0 0.182952 -2.98964 0 -22.8658 -0.581947 0 11.4697 0 0 0 3.02884 0 0.939042 
0 0 2.38331 3.67553 5.0155 -20.0452 0 0 0 0 0 0 -2.19037 0 -14.6123 -2.02639 0 -19.7201 0 0 0 0.553042 0 0.182952 -2.98964 0 -22.6999 -0.581947 0 11.3887 0 0 0 3.02884 0 0.939042 
0 0 2.38331 3.67553 5.0155 -20.0452 0 0 0 0 0 0 -2.19037 0 -14.6123 -2.02639 0 -19.7201 0 0 0 0.553042 0 0.182952 -2.98964 0 -22.6999 -0.581947 0 11.3887 0 0 0 3.02884 0 0.939042 
0 0 -1.08613 8.83036 6.53902 43.2014 0 0 0 0 0 0 -2.88602 0 -17.8828 -3.36159 0 -21.8076 0 0 0 0.38618 0 0.133149 -3.17799 0 -15.3982 -0.423307 0 5.48866 0 0 0 3.22281 0 0.998244 
0 0 -1.05071 8.83036 6.53902 43.1709 0 0 0 0 0 0 -2.88602 0 -17.8594 -3.36159 0 -21.9077 0 0 0 0.38618 0 0.133149 -3.17799 0 -15.54 -0.423307 0 5.48 0 0 0 3.22281 0 0.998244 
0 0 -1.05071 8.83036 6.53902 43.1709 0 0 0 0 0 0 -2.88602 0 -17.8594 -3.36159 0 -21.9077 0 0 0 0.38618 0 0.133149 -3.17799 0 -15.54 -0.423307 0 5.48 0 0 0 3.22281 0 0.998244 
0 0 -0.013618 3.40902 6.89924 -51.0607 0 0 0 0 0 0 -4.25165 0 -28.1001 -3.27486 0 -12.5301 0 0 0 0.0477965 0 0.0275619 -3.6249 0 -25.7379 -0.0872207 0 11.6686 0 0 0 3.68364 0 1.13861 
0 0 -0.0120783 3.40902 6.89924 -51.0638 0 0 0 0 0 0 -4.25165 0 -28.1067 -3.27486 0 -12.5452 0 0 0 0.0477965 0 0.0275619 -3.6249 0 -25.7646 -0.0872207 0 11.6513 0 0 0 3.68364 0 1.13861 
0 0 -0.0120783 3.40902 6.89924 -51.0638 0 0 0 0 0 0 -4.25165 0 -28.1067 -3.27486 0 -12.5452 0 0 0 0.0477965 0 0.0275619 -3.6249 0 -25.7646 -0.0872207 0 11.6513 0 0 0 3.68364 0 1.13861 
0 0 -0.0120783 3.40902 6.89924 -51.0638 0 0 0 0 0 0 -4.25165 0 -28.1067 -3.27486 0 -12.5452 0 0 0 0.0477965 0 0.0275619 -3.6249 0 -25.7646 -0.0872207 0 11.6513 0 0 0 3.68364 0 1.13861 
0 0 -0.112671 8.29824 7.78132 30.8839 0 0 0 0 0 0 -3.59901 0 -10.925 -4.12511 0 -24.5034 0 0 0 0.225458 0 0.0883043 -3.65667 0 -19.1879 -0.280224 0 2.1423 0 0 0 3.7162 0 1.14863 
0 0 -0.11215 8.29824 7.78132 30.8821 0 0 0 0 0 0 -3.59901 0 -10.9303 -4.12511 0 -24.513 0 0 0 0.225458 0 0.0883043 -3.65667 0 -19.2055 -0.280224 0 2.12941 0 0 0 3.7162 0 1.14863 
0 0 -0.11215 8.29824 7.78132 30.8821 0 0 0 0 0 0 -3.59901 0 -10.9303 -4.12511 0 -24.513 0 0 0 0.225458 0 0.0883043 -3.65667 0 -19.2055 -0.280224 0 2.12941 0 0 0 3.7162 0 1.14863 
0 0 -0.0690787 4.11442 7.9821 -46.3006 0 0 0 0 0 0 -4.66364 0 -27.9272 -4.06142 0 -16.9746 0 0 0 -0.117011 0 -0.0196306 -3.92112 0 -24.9586 0.0632773 0 12.7941 0 0 0 3.99002 0 1.2317 
0 0 -0.0695057 4.11442 7.9821 -46.2993 0 0 0 0 0 0 -4.66364 0 -27.9237 -4.06142 0 -16.9679 0 0 0 -0.117011 0 -0.0196306 -3.92112 0 -24.9466 0.0632773 0 12.8026 0 0 0 3.99002 0 1.2317 
0 0 -0.0695057 4.11442 7.9821 -46.2993 0 0 0 0 0 0 -4.66364 0 -27.9237 -4.06142 0 -16.9679 0 0 0 -0.117011 0 -0.0196306 -3.92112 0 -24.9466 0.0632773 0 12.8026 0 0 0 3.99002 0 1.2317 
0 0 -0.241706 9.5205 8.54416 37.4189 0 0 0 0 0 0 -3.8395 0 -11.114 -4.58513 0 -24.3246 0 0 0 0.0785096 0 0.04675 -3.95943 0 -21.427 -0.147629 0 2.72548 0 0 0 4.02953 0 1.24376 
0 0 -0.241124 9.5205 8.54416 37.4171 0 0 0 0 0 0 -3.8395 0 -11.1187 -4.58513 0 -24.3334 0 0 0 0.0785096 0 0.04675 -3.95943 0 -21.4431 -0.147629 0 2.71413 0 0 0 4.02953 0 1.24376 
0 0 -0.241124 9.5205 8.54416 37.4171 0 0 0 0 0 0 -3.8395 0 -11.1187 -4.58513 0 -24.3334 0 0 0 0.0785096 0 0.04675 -3.95943 0 -21.4431 -0.147629 0 2.71413 0 0 0 4.02953 0 1.24376 
0 0 -0.241124 9.5205 8.54416 37.4171 0 0 0 0 0 0 -3.8395 0 -11.1187 -4.58513 0 -24.3334 0 0 0 0.0785096 0 0.04675 -3.95943 0 -21.4431 -0.147629 0 2.71413 0 0 0 4.02953 0 1.24376 
0 0 -0.199332 4.57857 8.26252 -49.8769 0 0 0 0 0 0 -4.95459 0 -29.673 -3.98081 0 -12.0186 0 0 0 -0.253902 0 -0.0591552 -4.28211 0 -28.366 0.18933 0 13.5086 0 0 0 4.36495 0 1.34508 
0 0 -0.200214 4.57857 8.26252 -49.8742 0 0 0 0 0 0 -4.95459 0 -29.6658 -3.98081 0 -12.0049 0 0 0 -0.253902 0 -0.0591552 -4.28211 0 -28.3413 0.18933 0 13.5262 0 0 0 4.36495 0 1.34508 
0 0 -0.200214 4.57857 8.26252 -49.8742 0 0 0 0 0 0 -4.95459 0 -29.6658 -3.98081 0 -12.0049 0 0 0 -0.253902 0 -0.0591552 -4.28211 0 -28.3413 0.18933 0 13.5262 0 0 0 4.36495 0 1.34508 
0 0 -0.356297 10.2289 8.70537 42.2091 0 0 0 0 0 0 -3.7841 0 -8.50178 -4.47242 0 -23.1118 0 0 0 0.0720604 0 0.0494131 -4.2333 0 -21.4663 -0.155721 0 0.915584 0 0 0 4.31408 0 1.32978 
0 0 -0.356236 10.2289 8.70537 42.2089 0 0 0 0 0 0 -3.7841 0 -8.50245 -4.47242 0 -23.1129 0 0 0 0.0720604 0 0.0494131 -4.2333 0 -21.4685 -0.155721 0 0.913993 0 0 0 4.31408 0 1.32978 
0 0 -0.356236 10.2289 8.70537 42.2089 0 0 0 0 0 0 -3.7841 0 -8.50245 -4.47242 0 -23.1129 0 0 0 0.0720604 0 0.0494131 -4.2333 0 -21.4685 -0.155721 0 0.913993 0 0 0 4.31408 0 1.32978 
0 0 -0.2793 5.08056 8.24943 -47.7019 0 0 0 0 0 0 -4.68845 0 -26.6817 -3.72333 0 -9.04964 0 0 0 -0.204686 0 -0.0392459 -4.52646 0 -29.0401 0.126315 0 12.6099 0 0 0 4.61941 0 1.42182 
0 0 -0.280546 5.08056 8.24943 -47.6979 0 0 0 0 0 0 -4.68845 0 -26.6713 -3.72333 0 -9.02992 0 0 0 -0.204686 0 -0.0392459 -4.52646 0 -29.0043 0.126315 0 12.6352 0 0 0 4.61941 0 1.42182 
0 0 -0.280546 5.08056 8.24943 -47.6979 0 0 0 0 0 0 -4.68845 0 -26.6713 -3.72333 0 -9.02992 0 0 0 -0.204686 0 -0.0392459 -4.52646 0 -29.0043 0.126315 0 12.6352 0 0 0 4.61941 0 1.42182 
0 0 -0.280546 5.08056 8.24943 -47.6979 0 0 0 0 0 0 -4.68845 0 -26.6713 -3.72333 0 -9.02992 0 0 0 -0.204686 0 -0.0392459 -4.52646 0 -29.0043 0.126315 0 12.6352 0 0 0 4.61941 0 1.42182 
0 0 -0.444449 10.5588 8.60819 44.1192 0 0 0 0 0 0 -3.40387 0 -5.69789 -4.19075 0 -20.8777 0 0 0 0.132916 0 0.0728369 -4.41776 0 -20.9632 -0.229889 0 0.739679 0 0 0 4.50613 0 1.38771 
0 0 -0.444686 10.5588 8.60819 44.1199 0 0 0 0 0 0 -3.40387 0 -5.6962 -4.19075 0 -20.8743 0 0 0 0.132916 0 0.0728369 -4.41776 0 -20.9572 -0.229889 0 0.743835 0 0 0 4.50613 0 1.38771 
0 0 -0.444686 10.5588 8.60819 44.1199 0 0 0 0 0 0 -3.40387 0 -5.6962 -4.19075 0 -20.8743 0 0 0 0.132916 0 0.0728369 -4.41776 0 -20.9572 -0.229889 0 0.743835 0 0 0 4.50613 0 1.38771 
0 0 -0.357921 5.29789 8.10991 -45.693 0 0 0 0 0 0 -4.26114 0 -23.974 -3.45593 0 -7.17524 0 0 0 -0.16665 0 -0.0240224 -4.65429 0 -28.1521 0.0781412 0 13.1498 0 0 0 4.75272 0 1.46197 
0 0 -0.359173 5.29789 8.10991 -45.6889 0 0 0 0 0 0 -4.26114 0 -23.9633 -3.45593 0 -7.15502 0 0 0 -0.16665 0 -0.0240224 -4.65429 0 -28.1153 0.0781412 0 13.1757 0 0 0 4.75272 0 1.46197 
0 0 -0.359173 5.29789 8.10991 -45.6889 0 0 0 0 0 0 -4.26114 0 -23.9633 -3.45593 0 -7.15502 0 0 0 -0.16665 0 -0.0240224 -4.65429 0 -28.1153 0.0781412 0 13.1757 0 0 0 4.75272 0 1.46197 
0 0 -0.506058 10.4355 8.40663 42.9449 0 0 0 0 0 0 -3.07004 0 -4.50124 -3.89602 0 -18.5948 0 0 0 0.113889 0 0.0690739 -4.51088 0 -20.2643 -0.217706 0 2.19366 0 0 0 4.60318 0 1.41696 
0 0 -0.506162 10.4355 8.40663 42.9452 0 0 0 0 0 0 -3.07004 0 -4.50063 -3.89602 0 -18.5935 0 0 0 0.113889 0 0.0690739 -4.51088 0 -20.262 -0.217706 0 2.19518 0 0 0 4.60318 0 1.41696 
0 0 -0.506162 10.4355 8.40663 42.9452 0 0 0 0 0 0 -3.07004 0 -4.50063 -3.89602 0 -18.5935 0 0 0 0.113889 0 0.0690739 -4.51088 0 -20.262 -0.217706 0 2.19518 0 0 0 4.60318 0 1.41696 
0 0 -0.506162 10.4355 8.40663 42.9452 0 0 0 0 0 0 -3.07004 0 -4.50063 -3.89602 0 -18.5935 0 0 0 0.113889 0 0.0690739 -4.51088 0 -20.262 -0.217706 0 2.19518 0 0 0 4.60318 0 1.41696 
0 0 -0.410546 5.14286 7.926 -45.4268 0 0 0 0 0 0 -3.98158 0 -22.7554 -3.23403 0 -6.15254 0 0 0 -0.219361 0 -0.0393973 -4.69224 0 -26.8345 0.127181 0 14.4034 0 0 0 4.79235 0 1.47389 
0 0 -0.411559 5.14286 7.926 -45.4234 0 0 0 0 0 0 -3.98158 0 -22.7465 -3.23403 0 -6.13589 0 0 0 -0.219361 0 -0.0393973 -4.69224 0 -26.8042 0.127181 0 14.4248 0 0 0 4.79235 0 1.47389 
0 0 -0.411559 5.14286 7.926 -45.4234 0 0 0 0 0 0 -3.98158 0 -22.7465 -3.23403 0 -6.13589 0 0 0 -0.219361 0 -0.0393973 -4.69224 0 -26.8042 0.127181 0 14.4248 0 0 0 4.79235 0 1.47389 
0 0 -0.530631 10.108 8.20413 41.2548 0 0 0 0 0 0 -2.88965 0 -4.15853 -3.67599 0 -17.1581 0 0 0 0.0287929 0 0.0428324 -4.52838 0 -19.592 -0.134141 0 3.58072 0 0 0 4.62142 0 1.42246 
0 0 -0.530458 10.108 8.20413 41.2542 0 0 0 0 0 0 -2.88965 0 -4.16025 -3.67599 0 -17.1612 0 0 0 0.0287929 0 0.0428324 -4.52838 0 -19.5978 -0.134141 0 3.5766 0 0 0 4.62142 0 1.42246 
0 0 -0.530458 10.108 8.20413 41.2542 0 0 0 0 0 0 -2.88965 0 -4.16025 -3.67599 0 -17.1612 0 0 0 0.0287929 0 0.0428324 -4.52838 0 -19.5978 -0.134141 0 3.5766 0 0 0 4.62142 0 1.42246 
0 0 -0.428502 4.89205 7.7587 -45.4519 0 0 0 0 0 0 -3.83939 0 -22.1949 -3.08179 0 -5.68167 0 0 0 -0.306693 0 -0.0667629 -4.67715 0 -25.8546 0.214288 0 15.2546 0 0 0 4.77662 0 1.46916 
0 0 -0.429291 4.89205 7.7587 -45.4492 0 0 0 0 0 0 -3.83939 0 -22.1878 -3.08179 0 -5.66847 0 0 0 -0.306693 0 -0.0667629 -4.67715 0 -25.8306 0.214288 0 15.2716 0 0 0 4.77662 0 1.46916 
0 0 -0.429291 4.89205 7.7587 -45.4492 0 0 0 0 0 0 -3.83939 0 -22.1878 -3.08179 0 -5.66847 0 0 0 -0.306693 0 -0.0667629 -4.67715 0 -25.8306 0.214288 0 15.2716 0 0 0 4.77662 0 1.46916 
0 0 -0.429291 4.89205 7.7587 -45.4492 0 0 0 0 0 0 -3.83939 0 -22.1878 -3.08179 0 -5.66847 0 0 0 -0.306693 0 -0.0667629 -4.67715 0 -25.8306 0.214288 0 15.2716 0 0 0 4.77662 0 1.46916 
0 0 -0.534474 9.89446 8.04828 41.0525 0 0 0 0 0 0 -2.77569 0 -3.73161 -3.54136 0 -16.4733 0 0 0 -0.051786 0 0.0175047 -4.50713 0 -19.1556 -0.0535314 0 4.18323 0 0 0 4.59922 0 1.41579 
0 0 -0.534118 9.89446 8.04828 41.0512 0 0 0 0 0 0 -2.77569 0 -3.73493 -3.54136 0 -16.4794 0 0 0 -0.051786 0 0.0175047 -4.50713 0 -19.1668 -0.0535314 0 4.17525 0 0 0 4.59922 0 1.41579 
0 0 -0.534118 9.89446 8.04828 41.0512 0 0 0 0 0 0 -2.77569 0 -3.73493 -3.54136 0 -16.4794 0 0 0 -0.051786 0 0.0175047 -4.50713 0 -19.1668 -0.0535314 0 4.17525 0 0 0 4.59922 0 1.41579 
0 0 -0.43208 4.78847 7.62485 -44.6415 0 0 0 0 0 0 -3.72916 0 -21.6178 -2.97464 0 -5.25003 0 0 0 -0.37181 0 -0.0872737 -4.65042 0 -25.4443 0.279566 0 15.5662 0 0 0 4.74874 0 1.46077 
0 0 -0.432765 4.78847 7.62485 -44.6391 0 0 0 0 0 0 -3.72916 0 -21.6116 -2.97464 0 -5.23839 0 0 0 -0.37181 0 -0.0872737 -4.65042 0 -25.4231 0.279566 0 15.5812 0 0 0 4.74874 0 1.46077 
0 0 -0.432765 4.78847 7.62485 -44.6391 0 0 0 0 0 0 -3.72916 0 -21.6116 -2.97464 0 -5.23839 0 0 0 -0.37181 0 -0.0872737 -4.65042 0 -25.4231 0.279566 0 15.5812 0 0 0 4.74874 0 1.46077 
0 0 -0.534219 9.87043 7.92249 42.0871 0 0 0 0 0 0 -2.6559 0 -3.05029 -3.4362 0 -15.8799 0 0 0 -0.0992146 0 0.00266897 -4.48649 0 -19.0322 -0.00630729 0 4.31551 0 0 0 4.57768 0 1.40932 
0 0 -0.533807 9.87043 7.92249 42.0856 0 0 0 0 0 0 -2.6559 0 -3.05414 -3.4362 0 -15.8871 0 0 0 -0.0992146 0 0.00266897 -4.48649 0 -19.0452 -0.00630729 0 4.30628 0 0 0 4.57768 0 1.40932 
0 0 -0.533807 9.87043 7.92249 42.0856 0 0 0 0 0 0 -2.6559 0 -3.05414 -3.4362 0 -15.8871 0 0 0 -0.0992146 0 0.00266897 -4.48649 0 -19.0452 -0.00630729 0 4.30628 0 0 0 4.57768 0 1.40932 
0 0 -0.533807 9.87043 7.92249 42.0856 0 0 0 0 0 0 -2.6559 0 -3.05414 -3.4362 0 -15.8871 0 0 0 -0.0992146 0 0.00266897 -4.48649 0 -19.0452 -0.00630729 0 4.30628 0 0 0 4.57768 0 1.40932 
0 0 -0.433283 4.81916 7.50058 -43.3477 0 0 0 0 0 0 -3.60358 0 -20.9175 -2.86454 0 -4.56786 0 0 0 -0.407006 0 -0.0982822 -4.63625 0 -25.3699 0.314609 0 15.6876 0 0 0 4.73395 0 1.45633 
0 0 -0.433949 4.81916 7.50058 -43.3453 0 0 0 0 0 0 -3.60358 0 -20.9114 -2.86454 0 -4.55642 0 0 0 -0.407006 0 -0.0982822 -4.63625 0 -25.3491 0.314609 0 15.7024 0 0 0 4.73395 0 1.45633 
0 0 -0.433949 4.81916 7.50058 -43.3453 0 0 0 0 0 0 -3.60358 0 -20.9114 -2.86454 0 -4.55642 0 0 0 -0.407006 0 -0.0982822 -4.63625 0 -25.3491 0.314609 0 15.7024 0 0 0 4.73395 0 1.45633 
0 0 -0.534039 9.91577 7.79257 43.2336 0 0 0 0 0 0 -2.52024 0 -2.28529 -3.31348 0 -15.0772 0 0 0 -0.124577 0 -0.00522425 -4.47927 0 -19.0247 0.0188219 0 4.40707 0 0 0 4.57012 0 1.40705 
0 0 -0.53362 9.91577 7.79257 43.2321 0 0 0 0 0 0 -2.52024 0 -2.28922 -3.31348 0 -15.0845 0 0 0 -0.124577 0 -0.00522425 -4.47927 0 -19.038 0.0188219 0 4.39764 0 0 0 4.57012 0 1.40705 
0 0 -0.53362 9.91577 7.79257 43.2321 0 0 0 0 0 0 -2.52024 0 -2.28922 -3.31348 0 -15.0845 0 0 0 -0.124577 0 -0.00522425 -4.47927 0 -19.038 0.0188219 0 4.39764 0 0 0 4.57012 0 1.40705 
0 0 -0.433878 4.85968 7.36331 -42.2263 0 0 0 0 0 0 -3.46446 0 -20.1677 -2.73263 0 -3.73229 0 0 0 -0.429077 0 -0.105247 -4.63087 0 -25.277 0.336773 0 15.8577 0 0 0 4.72833 0 1.45464 
0 0 -0.434535 4.85968 7.36331 -42.224 0 0 0 0 0 0 -3.46446 0 -20.1616 -2.73263 0 -3.72093 0 0 0 -0.429077 0 -0.105247 -4.63087 0 -25.2564 0.336773 0 15.8723 0 0 0 4.72833 0 1.45464 
0 0 -0.434535 4.85968 7.36331 -42.224 0 0 0 0 0 0 -3.46446 0 -20.1616 -2.73263 0 -3.72093 0 0 0 -0.429077 0 -0.105247 -4.63087 0 -25.2564 0.336773 0 15.8723 0 0 0 4.72833 0 1.45464 
0 0 -0.434535 4.85968 7.36331 -42.224 0 0 0 0 0 0 -3.46446 0 -20.1616 -2.73263 0 -3.72093 0 0 0 -0.429077 0 -0.105247 -4.63087 0 -25.2564 0.336773 0 15.8723 0 0 0 4.72833 0 1.45464 
0 0 -0.533368 9.92061 7.6438 43.9533 0 0 0 0 0 0 -2.37758 0 -1.52729 -3.17014 0 -14.1761 0 0 0 -0.146236 0 -0.0121671 -4.47384 0 -18.9142 0.040906 0 4.61371 0 0 0 4.56442 0 1.40535 
0 0 -0.532925 9.92061 7.6438 43.9517 0 0 0 0 0 0 -2.37758 0 -1.53147 -3.17014 0 -14.1838 0 0 0 -0.146236 0 -0.0121671 -4.47384 0 -18.9283 0.040906 0 4.60369 0 0 0 4.56442 0 1.40535 
0 0 -0.532925 9.92061 7.6438 43.9517 0 0 0 0 0 0 -2.37758 0 -1.53147 -3.17014 0 -14.1838 0 0 0 -0.146236 0 -0.0121671 -4.47384 0 -18.9283 0.040906 0 4.60369 0 0 0 4.56442 0 1.40535 
0 0 -0.433997 4.83952 7.20703 -41.4717 0 0 0 0 0 0 -3.32043 0 -19.4191 -2.58822 0 -2.90772 0 0 0 -0.45417 0 -0.11344 -4.61899 0 -25.0163 0.362825 0 16.1369 0 0 0 4.71591 0 1.45091 
0 0 -0.434614 4.83952 7.20703 -41.4695 0 0 0 0 0 0 -3.32043 0 -19.4133 -2.58822 0 -2.89699 0 0 0 -0.45417 0 -0.11344 -4.61899 0 -24.9968 0.362825 0 16.1508 0 0 0 4.71591 0 1.45091 
0 0 -0.434614 4.83952 7.20703 -41.4695 0 0 0 0 0 0 -3.32043 0 -19.4133 -2.58822 0 -2.89699 0 0 0 -0.45417 0 -0.11344 -4.61899 0 -24.9968 0.362825 0 16.1508 0 0 0 4.71591 0 1.45091 
0 0 -0.531807 9.85928 7.47596 44.328 0 0 0 0 0 0 -2.23158 0 -0.775663 -3.02022 0 -13.3134 0 0 0 -0.176368 0 -0.022131 -4.4559 0 -18.6511 0.0725717 0 4.93152 0 0 0 4.54564 0 1.39972 
0 0 -0.531301 9.85928 7.47596 44.3262 0 0 0 0 0 0 -2.23158 0 -0.780407 -3.02022 0 -13.3222 0 0 0 -0.176368 0 -0.022131 -4.4559 0 -18.6671 0.0725717 0 4.92015 0 0 0 4.54564 0 1.39972 
0 0 -0.531301 9.85928 7.47596 44.3262 0 0 0 0 0 0 -2.23158 0 -0.780407 -3.02022 0 -13.3222 0 0 0 -0.176368 0 -0.022131 -4.4559 0 -18.6671 0.0725717 0 4.92015 0 0 0 4.54564 0 1.39972 
0 0 -0.531301 9.85928 7.47596 44.3262 0 0 0 0 0 0 -2.23158 0 -0.780407 -3.02022 0 -13.3222 0 0 0 -0.176368 0 -0.022131 -4.4559 0 -18.6671 0.0725717 0 4.92015 0 0 0 4.54564 0 1.39972 
0 0 -0.434433 4.755 7.03111 -40.9856 0 0 0 0 0 0 -3.17439 0 -18.6963 -2.44051 0 -2.12602 0 0 0 -0.491841 0 -0.125969 -4.59077 0 -24.6294 0.40264 0 16.5214 0 0 0 4.68641 0 1.44206 
0 0 -0.434981 4.755 7.03111 -40.9836 0 0 0 0 0 0 -3.17439 0 -18.6912 -2.44051 0 -2.11645 0 0 0 -0.491841 0 -0.125969 -4.59077 0 -24.612 0.40264 0 16.5337 0 0 0 4.68641 0 1.44206 
0 0 -0.434981 4.755 7.03111 -40.9836 0 0 0 0 0 0 -3.17439 0 -18.6912 -2.44051 0 -2.11645 0 0 0 -0.491841 0 -0.125969 -4.59077 0 -24.612 0.40264 0 16.5337 0 0 0 4.68641 0 1.44206 
0 0 -0.529287 9.74449 7.28826 44.534 0 0 0 0 0 0 -2.08189 0 -0.0189441 -2.86892 0 -12.5023 0 0 0 -0.22126 0 -0.0371384 -4.41949 0 -18.2897 0.120252 0 5.33014 0 0 0 4.50755 0 1.38829 
0 0 -0.528694 9.74449 7.28826 44.5319 0 0 0 0 0 0 -2.08189 0 -0.0244526 -2.86892 0 -12.5125 0 0 0 -0.22126 0 -0.0371384 -4.41949 0 -18.3083 0.120252 0 5.31693 0 0 0 4.50755 0 1.38829 
0 0 -0.528694 9.74449 7.28826 44.5319 0 0 0 0 0 0 -2.08189 0 -0.0244526 -2.86892 0 -12.5125 0 0 0 -0.22126 0 -0.0371384 -4.41949 0 -18.3083 0.120252 0 5.31693 0 0 0 4.50755 0 1.38829 
0 0 -0.434839 4.61859 6.8328 -40.6759 0 0 0 0 0 0 -3.02551 0 -17.9989 -2.289 0 -1.35184 0 0 0 -0.546268 0 -0.144155 -4.54396 0 -24.1868 0.460431 0 16.9909 0 0 0 4.63746 0 1.42737 
0 0 -0.435304 4.61859 6.8328 -40.6742 0 0 0 0 0 0 -3.02551 0 -17.9945 -2.289 0 -1.34369 0 0 0 -0.546268 0 -0.144155 -4.54396 0 -24.172 0.460431 0 17.0014 0 0 0 4.63746 0 1.42737 
0 0 -0.435304 4.61859 6.8328 -40.6742 0 0 0 0 0 0 -3.02551 0 -17.9945 -2.289 0 -1.34369 0 0 0 -0.546268 0 -0.144155 -4.54396 0 -24.172 0.460431 0 17.0014 0 0 0 4.63746 0 1.42737 
0 0 -0.435304 4.61859 6.8328 -40.6742 0 0 0 0 0 0 -3.02551 0 -17.9945 -2.289 0 -1.34369 0 0 0 -0.546268 0 -0.144155 -4.54396 0 -24.172 0.460431 0 17.0014 0 0 0 4.63746 0 1.42737 
0 0 -0.524536 9.58381 7.07734 44.6113 0 0 0 0 0 0 -1.92731 0 0.747579 -2.71304 0 -11.7123 0 0 0 -0.283214 0 -0.0578835 -4.36444 0 -17.8801 0.186162 0 5.78833 0 0 0 4.44992 0 1.37101 
0 0 -0.523849 9.58381 7.07734 44.6088 0 0 0 0 0 0 -1.92731 0 0.741257 -2.71304 0 -11.7241 0 0 0 -0.283214 0 -0.0578835 -4.36444 0 -17.9015 0.186162 0 5.77317 0 0 0 4.44992 0 1.37101 
0 0 -0.523849 9.58381 7.07734 44.6088 0 0 0 0 0 0 -1.92731 0 0.741257 -2.71304 0 -11.7241 0 0 0 -0.283214 0 -0.0578835 -4.36444 0 -17.9015 0.186162 0 5.77317 0 0 0 4.44992 0 1.37101 
0 0 -0.432739 4.43528 6.61007 -40.5128 0 0 0 0 0 0 -2.87182 0 -17.3099 -2.13107 0 -0.581992 0 0 0 -0.618094 0 -0.168145 -4.47915 0 -23.7173 0.53667 0 17.5228 0 0 0 4.56966 0 1.40703 
0 0 -0.433121 4.43528 6.61007 -40.5115 0 0 0 0 0 0 -2.87182 0 -17.3063 -2.13107 0 -0.575278 0 0 0 -0.618094 0 -0.168145 -4.47915 0 -23.7051 0.53667 0 17.5315 0 0 0 4.56966 0 1.40703 
0 0 -0.433121 4.43528 6.61007 -40.5115 0 0 0 0 0 0 -2.87182 0 -17.3063 -2.13107 0 -0.575278 0 0 0 -0.618094 0 -0.168145 -4.47915 0 -23.7051 0.53667 0 17.5315 0 0 0 4.56966 0 1.40703 
0 0 -0.514782 9.37644 6.84241 44.5266 0 0 0 0 0 0 -1.76755 0 1.51714 -2.55062 0 -10.9422 0 0 0 -0.362081 0 -0.0842453 -4.29193 0 -17.4485 0.269924 0 6.29572 0 0 0 4.37399 0 1.34825 
0 0 -0.514004 9.37644 6.84241 44.5239 0 0 0 0 0 0 -1.76755 0 1.51005 -2.55062 0 -10.9554 0 0 0 -0.362081 0 -0.0842453 -4.29193 0 -17.4725 0.269924 0 6.2787 0 0 0 4.37399 0 1.34825 
0 0 -0.514004 9.37644 6.84241 44.5239 0 0 0 0 0 0 -1.76755 0 1.51005 -2.55062 0 -10.9554 0 0 0 -0.362081 0 -0.0842453 -4.29193 0 -17.4725 0.269924 0 6.2787 0 0 0 4.37399 0 1.34825 
0 0 -0.514004 9.37644 6.84241 44.5239 0 0 0 0 0 0 -1.76755 0 1.51005 -2.55062 0 -10.9554 0 0 0 -0.362081 0 -0.0842453 -4.29193 0 -17.4725 0.269924 0 6.2787 0 0 0 4.37399 0 1.34825 
0 0 -0.424885 4.20749 6.36549 -40.4804 0 0 0 0 0 0 -2.71335 0 -16.6256 -1.96822 0 0.144412 0 0 0 -0.70614 0 -0.197482 -4.39741 0 -23.2304 0.629912 0 18.0984 0 0 0 4.4841 0 1.38137 
0 0 -0.425189 4.20749 6.36549 -40.4793 0 0 0 0 0 0 -2.71335 0 -16.6227 -1.96822 0 0.149797 0 0 0 -0.70614 0 -0.197482 -4.39741 0 -23.2206 0.629912 0 18.1054 0 0 0 4.4841 0 1.38137 
0 0 -0.425189 4.20749 6.36549 -40.4793 0 0 0 0 0 0 -2.71335 0 -16.6227 -1.96822 0 0.149797 0 0 0 -0.70614 0 -0.197482 -4.39741 0 -23.2206 0.629912 0 18.1054 0 0 0 4.4841 0 1.38137 
0 0 -0.497179 9.12469 6.58809 44.2671 0 0 0 0 0 0 -1.60509 0 2.26616 -2.38459 0 -10.221 0 0 0 -0.456321 0 -0.115647 -4.20362 0 -17.0193 0.369715 0 6.84284 0 0 0 4.28149 0 1.32053 
0 0 -0.496318 9.12469 6.58809 44.2641 0 0 0 0 0 0 -1.60509 0 2.25837 -2.38459 0 -10.2355 0 0 0 -0.456321 0 -0.115647 -4.20362 0 -17.0457 0.369715 0 6.82415 0 0 0 4.28149 0 1.32053 
0 0 -0.496318 9.12469 6.58809 44.2641 0 0 0 0 0 0 -1.60509 0 2.25837 -2.38459 0 -10.2355 0 0 0 -0.456321 0 -0.115647 -4.20362 0 -17.0457 0.369715 0 6.82415 0 0 0 4.28149 0 1.32053 
0 0 -0.409317 3.943 6.10641 -40.5492 0 0 0 0 0 0 -2.5538 0 -15.9667 -1.80573 0 0.78057 0 0 0 -0.808107 0 -0.231351 -4.3008 0 -22.7465 0.737573 0 18.6963 0 0 0 4.38294 0 1.35104 
0 0 -0.409551 3.943 6.10641 -40.5484 0 0 0 0 0 0 -2.5538 0 -15.9644 -1.80573 0 0.784795 0 0 0 -0.808107 0 -0.231351 -4.3008 0 -22.7388 0.737573 0 18.7018 0 0 0 4.38294 0 1.35104 
0 0 -0.409551 3.943 6.10641 -40.5484 0 0 0 0 0 0 -2.5538 0 -15.9644 -1.80573 0 0.784795 0 0 0 -0.808107 0 -0.231351 -4.3008 0 -22.7388 0.737573 0 18.7018 0 0 0 4.38294 0 1.35104 
0 0 -0.409551 3.943 6.10641 -40.5484 0 0 0 0 0 0 -2.5538 0 -15.9644 -1.80573 0 0.784795 0 0 0 -0.808107 0 -0.231351 -4.3008 0 -22.7388 0.737573 0 18.7018 0 0 0 4.38294 0 1.35104 
0 0 -0.470896 8.83956 6.32478 43.8583 0 0 0 0 0 0 -1.46979 0 2.68486 -2.22273 0 -9.59672 0 0 0 -0.574479 0 -0.154831 -4.10216 0 -16.5957 0.494256 0 7.67994 0 0 0 4.1752 0 1.28867 
0 0 -0.469996 8.83956 6.32478 43.8552 0 0 0 0 0 0 -1.46979 0 2.67679 -2.22273 0 -9.61176 0 0 0 -0.574479 0 -0.154831 -4.10216 0 -16.623 0.494256 0 7.66056 0 0 0 4.1752 0 1.28867 
0 0 -0.469996 8.83956 6.32478 43.8552 0 0 0 0 0 0 -1.46979 0 2.67679 -2.22273 0 -9.61176 0 0 0 -0.574479 0 -0.154831 -4.10216 0 -16.623 0.494256 0 7.66056 0 0 0 4.1752 0 1.28867 
0 0 -0.385811 3.65673 5.84344 -40.6718 0 0 0 0 0 0 -2.41637 0 -15.401 -1.64993 0 1.30709 0 0 0 -0.928733 0 -0.271257 -4.19363 0 -22.3196 0.864439 0 19.2996 0 0 0 4.2707 0 1.3174 
0 0 -0.385951 3.65673 5.84344 -40.6712 0 0 0 0 0 0 -2.41637 0 -15.3995 -1.64993 0 1.30975 0 0 0 -0.928733 0 -0.271257 -4.19363 0 -22.3147 0.864439 0 19.3031 0 0 0 4.2707 0 1.3174 
0 0 -0.385951 3.65673 5.84344 -40.6712 0 0 0 0 0 0 -2.41637 0 -15.3995 -1.64993 0 1.30975 0 0 0 -0.928733 0 -0.271257 -4.19363 0 -22.3147 0.864439 0 19.3031 0 0 0 4.2707 0 1.3174 
0 0 -0.439126 8.53945 6.06208 43.385 0 0 0 0 0 0 -1.35984 0 2.9365 -2.06931 0 -9.07512 0 0 0 -0.70838 0 -0.199078 -3.99287 0 -16.2388 0.634915 0 8.54053 0 0 0 4.0607 0 1.25436 
0 0 -0.438209 8.53945 6.06208 43.3819 0 0 0 0 0 0 -1.35984 0 2.92834 -2.06931 0 -9.09033 0 0 0 -0.70838 0 -0.199078 -3.99287 0 -16.2665 0.634915 0 8.52093 0 0 0 4.0607 0 1.25436 
0 0 -0.438209 8.53945 6.06208 43.3819 0 0 0 0 0 0 -1.35984 0 2.92834 -2.06931 0 -9.09033 0 0 0 -0.70838 0 -0.199078 -3.99287 0 -16.2665 0.634915 0 8.52093 0 0 0 4.0607 0 1.25436 
0 0 -0.438209 8.53945 6.06208 43.3819 0 0 0 0 0 0 -1.35984 0 2.92834 -2.06931 0 -9.09033 0 0 0 -0.70838 0 -0.199078 -3.99287 0 -16.2665 0.634915 0 8.52093 0 0 0 4.0607 0 1.25436 
0 0 -0.356898 3.36565 5.58598 -40.8142 0 0 0 0 0 0 -2.29933 0 -14.9176 -1.50475 0 1.71734 0 0 0 -1.05944 0 -0.314365 -4.08133 0 -21.973 1.00151 0 19.8482 0 0 0 4.15309 0 1.28214 
0 0 -0.35696 3.36565 5.58598 -40.814 0 0 0 0 0 0 -2.29933 0 -14.9168 -1.50475 0 1.71868 0 0 0 -1.05944 0 -0.314365 -4.08133 0 -21.9706 1.00151 0 19.85 0 0 0 4.15309 0 1.28214 
0 0 -0.35696 3.36565 5.58598 -40.814 0 0 0 0 0 0 -2.29933 0 -14.9168 -1.50475 0 1.71868 0 0 0 -1.05944 0 -0.314365 -4.08133 0 -21.9706 1.00151 0 19.85 0 0 0 4.15309 0 1.28214 
0 0 -0.404361 8.24158 5.80899 42.9041 0 0 0 0 0 0 -1.2662 0 3.11832 -1.92787 0 -8.6602 0 0 0 -0.846712 0 -0.244662 -3.8812 0 -15.9695 0.779844 0 9.31119 0 0 0 3.94375 0 1.2193 
0 0 -0.403449 8.24158 5.80899 42.901 0 0 0 0 0 0 -1.2662 0 3.11025 -1.92787 0 -8.67526 0 0 0 -0.846712 0 -0.244662 -3.8812 0 -15.9969 0.779844 0 9.29179 0 0 0 3.94375 0 1.2193 
0 0 -0.403449 8.24158 5.80899 42.901 0 0 0 0 0 0 -1.2662 0 3.11025 -1.92787 0 -8.67526 0 0 0 -0.846712 0 -0.244662 -3.8812 0 -15.9969 0.779844 0 9.29179 0 0 0 3.94375 0 1.2193 
0 0 -0.325824 3.08479 5.34253 -40.95 0 0 0 0 0 0 -2.19755 0 -14.5118 -1.37342 0 2.01463 0 0 0 -1.19031 0 -0.357423 -3.96921 0 -21.7129 1.13843 0 20.3061 0 0 0 4.03569 0 1.24694 
0 0 -0.325834 3.08479 5.34253 -40.9499 0 0 0 0 0 0 -2.19755 0 -14.5115 -1.37342 0 2.01509 0 0 0 -1.19031 0 -0.357423 -3.96921 0 -21.712 1.13843 0 20.3067 0 0 0 4.03569 0 1.24694 
0 0 -0.325834 3.08479 5.34253 -40.9499 0 0 0 0 0 0 -2.19755 0 -14.5115 -1.37342 0 2.01509 0 0 0 -1.19031 0 -0.357423 -3.96921 0 -21.712 1.13843 0 20.3067 0 0 0 4.03569 0 1.24694 
0 0 -0.325834 3.08479 5.34253 -40.9499 0 0 0 0 0 0 -2.19755 0 -14.5115 -1.37342 0 2.01509 0 0 0 -1.19031 0 -0.357423 -3.96921 0 -21.712 1.13843 0 20.3067 0 0 0 4.03569 0 1.24694 
0 0 -0.369607 7.96232 5.5739 42.4777 0 0 0 0 0 0 -1.18475 0 3.24893 -1.80188 0 -8.35445 0 0 0 -0.980456 0 -0.288631 -3.7721 0 -15.7877 0.919654 0 9.95563 0 0 0 3.82953 0 1.18504 
0 0 -0.36872 7.96232 5.5739 42.4747 0 0 0 0 0 0 -1.18475 0 3.24111 -1.80188 0 -8.36905 0 0 0 -0.980456 0 -0.288631 -3.7721 0 -15.8142 0.919654 0 9.93683 0 0 0 3.82953 0 1.18504 
0 0 -0.36872 7.96232 5.5739 42.4747 0 0 0 0 0 0 -1.18475 0 3.24111 -1.80188 0 -8.36905 0 0 0 -0.980456 0 -0.288631 -3.7721 0 -15.8142 0.919654 0 9.93683 0 0 0 3.82953 0 1.18504 
0 0 -0.295561 2.8292 5.12024 -41.0341 0 0 0 0 0 0 -2.10813 0 -14.1722 -1.25818 0 2.21499 0 0 0 -1.3138 0 -0.397963 -3.86215 0 -21.5435 1.26736 0 20.6565 0 0 0 3.92365 0 1.21332 
0 0 -0.295545 2.8292 5.12024 -41.0341 0 0 0 0 0 0 -2.10813 0 -14.1721 -1.25818 0 2.21501 0 0 0 -1.3138 0 -0.397963 -3.86215 0 -21.5435 1.26736 0 20.6566 0 0 0 3.92365 0 1.21332 
0 0 -0.295545 2.8292 5.12024 -41.0341 0 0 0 0 0 0 -2.10813 0 -14.1721 -1.25818 0 2.21501 0 0 0 -1.3138 0 -0.397963 -3.86215 0 -21.5435 1.26736 0 20.6566 0 0 0 3.92365 0 1.21332 
0 0 -0.337394 7.71558 5.36268 42.1567 0 0 0 0 0 0 -1.11321 0 3.34149 -1.69263 0 -8.13997 0 0 0 -1.10353 0 -0.329009 -3.67013 0 -15.6918 1.04806 0 10.4681 0 0 0 3.72283 0 1.15301 
0 0 -0.336551 7.71558 5.36268 42.1539 0 0 0 0 0 0 -1.11321 0 3.33406 -1.69263 0 -8.15383 0 0 0 -1.10353 0 -0.329009 -3.67013 0 -15.717 1.04806 0 10.4503 0 0 0 3.72283 0 1.15301 
0 0 -0.336551 7.71558 5.36268 42.1539 0 0 0 0 0 0 -1.11321 0 3.33406 -1.69263 0 -8.15383 0 0 0 -1.10353 0 -0.329009 -3.67013 0 -15.717 1.04806 0 10.4503 0 0 0 3.72283 0 1.15301 
0 0 -0.336551 7.71558 5.36268 42.1539 0 0 0 0 0 0 -1.11321 0 3.33406 -1.69263 0 -8.15383 0 0 0 -1.10353 0 -0.329009 -3.67013 0 -15.717 1.04806 0 10.4503 0 0 0 3.72283 0 1.15301 
0 0 -0.268212 2.60909 4.92306 -41.044 0 0 0 0 0 0 -2.02966 0 -13.8922 -1.15877 0 2.34847 0 0 0 -1.42542 0 -0.434539 -3.76437 0 -21.4629 1.3837 0 20.907 0 0 0 3.82138 0 1.18261 
0 0 -0.268192 2.60909 4.92306 -41.0441 0 0 0 0 0 0 -2.02966 0 -13.8922 -1.15877 0 2.34841 0 0 0 -1.42542 0 -0.434539 -3.76437 0 -21.463 1.3837 0 20.907 0 0 0 3.82138 0 1.18261 
0 0 -0.268192 2.60909 4.92306 -41.0441 0 0 0 0 0 0 -2.02966 0 -13.8922 -1.15877 0 2.34841 0 0 0 -1.42542 0 -0.434539 -3.76437 0 -21.463 1.3837 0 20.907 0 0 0 3.82138 0 1.18261 
0 0 -0.309167 7.50765 5.1775 41.9502 0 0 0 0 0 0 -1.05043 0 3.40559 -1.59873 0 -7.98676 0 0 0 -1.21276 0 -0.36478 -3.57883 0 -15.673 1.16182 0 10.8602 0 0 0 3.62739 0 1.12434 
0 0 -0.308382 7.50765 5.1775 41.9476 0 0 0 0 0 0 -1.05043 0 3.39866 -1.59873 0 -7.99969 0 0 0 -1.21276 0 -0.36478 -3.57883 0 -15.6965 1.16182 0 10.8435 0 0 0 3.62739 0 1.12434 
0 0 -0.308382 7.50765 5.1775 41.9476 0 0 0 0 0 0 -1.05043 0 3.39866 -1.59873 0 -7.99969 0 0 0 -1.21276 0 -0.36478 -3.57883 0 -15.6965 1.16182 0 10.8435 0 0 0 3.62739 0 1.12434 
0 0 -0.244728 2.42634 4.75147 -40.9924 0 0 0 0 0 0 -1.96135 0 -13.6653 -1.07296 0 2.44527 0 0 0 -1.52319 0 -0.466523 -3.67858 0 -21.4561 1.48543 0 21.0747 0 0 0 3.73171 0 1.15566 
0 0 -0.24472 2.42634 4.75147 -40.9923 0 0 0 0 0 0 -1.96135 0 -13.6652 -1.07296 0 2.44539 0 0 0 -1.52319 0 -0.466523 -3.67858 0 -21.4559 1.48543 0 21.0749 0 0 0 3.73171 0 1.15566 
0 0 -0.24472 2.42634 4.75147 -40.9923 0 0 0 0 0 0 -1.96135 0 -13.6652 -1.07296 0 2.44539 0 0 0 -1.52319 0 -0.466523 -3.67858 0 -21.4559 1.48543 0 21.0749 0 0 0 3.73171 0 1.15566 
0 0 -0.24472 2.42634 4.75147 -40.9923 0 0 0 0 0 0 -1.96135 0 -13.6652 -1.07296 0 2.44539 0 0 0 -1.52319 0 -0.466523 -3.67858 0 -21.4559 1.48543 0 21.0749 0 0 0 3.73171 0 1.15566 
0 0 -0.285349 7.33755 5.01759 41.842 0 0 0 0 0 0 -0.995774 0 3.44873 -1.51773 0 -7.87075 0 0 0 -1.30724 0 -0.395673 -3.49992 0 -15.7098 1.26008 0 11.1535 0 0 0 3.54496 0 1.09955 
0 0 -0.284628 7.33755 5.01759 41.8395 0 0 0 0 0 0 -0.995774 0 3.44234 -1.51773 0 -7.88266 0 0 0 -1.30724 0 -0.395673 -3.49992 0 -15.7314 1.26008 0 11.1382 0 0 0 3.54496 0 1.09955 
0 0 -0.284628 7.33755 5.01759 41.8395 0 0 0 0 0 0 -0.995774 0 3.44234 -1.51773 0 -7.88266 0 0 0 -1.30724 0 -0.395673 -3.49992 0 -15.7314 1.26008 0 11.1382 0 0 0 3.54496 0 1.09955 
0 0 -0.225171 2.27741 4.60354 -40.9008 0 0 0 0 0 0 -1.90202 0 -13.4781 -0.998077 0 2.528 0 0 0 -1.60687 0 -0.493866 -3.60553 0 -21.5007 1.57242 0 21.178 0 0 0 3.65543 0 1.13272 
0 0 -0.225185 2.27741 4.60354 -40.9007 0 0 0 0 0 0 -1.90202 0 -13.4778 -0.998077 0 2.52847 0 0 0 -1.60687 0 -0.493866 -3.60553 0 -21.4998 1.57242 0 21.1786 0 0 0 3.65543 0 1.13272 
0 0 -0.225185 2.27741 4.60354 -40.9007 0 0 0 0 0 0 -1.90202 0 -13.4778 -0.998077 0 2.52847 0 0 0 -1.60687 0 -0.493866 -3.60553 0 -21.4998 1.57242 0 21.1786 0 0 0 3.65543 0 1.13272 
0 0 -0.265704 7.2007 4.88024 41.8129 0 0 0 0 0 0 -0.948312 0 3.47815 -1.44704 0 -7.77477 0 0 0 -1.38774 0 -0.421967 -3.43325 0 -15.7766 1.34372 0 11.3769 0 0 0 3.47537 0 1.07861 
0 0 -0.265049 7.2007 4.88024 41.8107 0 0 0 0 0 0 -0.948312 0 3.47233 -1.44704 0 -7.78561 0 0 0 -1.38774 0 -0.421967 -3.43325 0 -15.7963 1.34372 0 11.3629 0 0 0 3.47537 0 1.07861 
0 0 -0.265049 7.2007 4.88024 41.8107 0 0 0 0 0 0 -0.948312 0 3.47233 -1.44704 0 -7.78561 0 0 0 -1.38774 0 -0.421967 -3.43325 0 -15.7963 1.34372 0 11.3629 0 0 0 3.47537 0 1.07861 
0 0 -0.265049 7.2007 4.88024 41.8107 0 0 0 0 0 0 -0.948312 0 3.47233 -1.44704 0 -7.78561 0 0 0 -1.38774 0 -0.421967 -3.43325 0 -15.7963 1.34372 0 11.3629 0 0 0 3.47537 0 1.07861 
0 0 -0.209166 2.15663 4.47575 -40.7863 0 0 0 0 0 0 -1.84994 0 -13.3145 -0.931406 0 2.61458 0 0 0 -1.67771 0 -0.516994 -3.54441 0 -21.5741 1.64599 0 21.2379 0 0 0 3.59163 0 1.11352 
0 0 -0.209204 2.15663 4.47575 -40.7861 0 0 0 0 0 0 -1.84994 0 -13.314 -0.931406 0 2.61543 0 0 0 -1.67771 0 -0.516994 -3.54441 0 -21.5725 1.64599 0 21.239 0 0 0 3.59163 0 1.11352 
0 0 -0.209204 2.15663 4.47575 -40.7861 0 0 0 0 0 0 -1.84994 0 -13.314 -0.931406 0 2.61543 0 0 0 -1.67771 0 -0.516994 -3.54441 0 -21.5725 1.64599 0 21.239 0 0 0 3.59163 0 1.11352 
0 0 -0.249705 7.09064 4.76131 41.8419 0 0 0 0 0 0 -0.906646 0 3.50081 -1.38391 0 -7.68286 0 0 0 -1.45632 0 -0.444358 -3.37745 0 -15.851 1.41494 0 11.561 0 0 0 3.41715 0 1.06108 
0 0 -0.249114 7.09064 4.76131 41.8399 0 0 0 0 0 0 -0.906646 0 3.49554 -1.38391 0 -7.69269 0 0 0 -1.45632 0 -0.444358 -3.37745 0 -15.8689 1.41494 0 11.5484 0 0 0 3.41715 0 1.06108 
0 0 -0.249114 7.09064 4.76131 41.8399 0 0 0 0 0 0 -0.906646 0 3.49554 -1.38391 0 -7.69269 0 0 0 -1.45632 0 -0.444358 -3.37745 0 -15.8689 1.41494 0 11.5484 0 0 0 3.41715 0 1.06108 
0 0 -0.196203 2.05698 4.36348 -40.6647 0 0 0 0 0 0 -1.80314 0 -13.1608 -0.870137 0 2.7195 0 0 0 -1.73802 0 -0.536688 -3.4934 0 -21.6564 1.70864 0 21.2766 0 0 0 3.5384 0 1.0975 
0 0 -0.196261 2.05698 4.36348 -40.6645 0 0 0 0 0 0 -1.80314 0 -13.1601 -0.870137 0 2.72066 0 0 0 -1.73802 0 -0.536688 -3.4934 0 -21.6543 1.70864 0 21.2782 0 0 0 3.5384 0 1.0975 
0 0 -0.196261 2.05698 4.36348 -40.6645 0 0 0 0 0 0 -1.80314 0 -13.1601 -0.870137 0 2.72066 0 0 0 -1.73802 0 -0.536688 -3.4934 0 -21.6543 1.70864 0 21.2782 0 0 0 3.5384 0 1.0975 
0 0 -0.196261 2.05698 4.36348 -40.6645 0 0 0 0 0 0 -1.80314 0 -13.1601 -0.870137 0 2.72066 0 0 0 -1.73802 0 -0.536688 -3.4934 0 -21.6543 1.70864 0 21.2782 0 0 0 3.5384 0 1.0975 
0 0 -0.236739 6.99947 4.65579 41.9029 0 0 0 0 0 0 -0.869217 0 3.52229 -1.32543 0 -7.58103 0 0 0 -1.5158 0 -0.463791 -3.3304 0 -15.9152 1.47676 0 11.7335 0 0 0 3.36806 0 1.0463 
0 0 -0.236206 6.99947 4.65579 41.901 0 0 0 0 0 0 -0.869217 0 3.51751 -1.32543 0 -7.58993 0 0 0 -1.5158 0 -0.463791 -3.3304 0 -15.9314 1.47676 0 11.722 0 0 0 3.36806 0 1.0463 
0 0 -0.236206 6.99947 4.65579 41.901 0 0 0 0 0 0 -0.869217 0 3.51751 -1.32543 0 -7.58993 0 0 0 -1.5158 0 -0.463791 -3.3304 0 -15.9314 1.47676 0 11.722 0 0 0 3.36806 0 1.0463 
0 0 -0.185749 1.97062 4.26167 -40.552 0 0 0 0 0 0 -1.75977 0 -13.0068 -0.811636 0 2.85139 0 0 0 -1.79071 0 -0.553912 -3.45008 0 -21.7304 1.76344 0 21.3133 0 0 0 3.49319 0 1.0839 
0 0 -0.185819 1.97062 4.26167 -40.5517 0 0 0 0 0 0 -1.75977 0 -13.0061 -0.811636 0 2.85274 0 0 0 -1.79071 0 -0.553912 -3.45008 0 -21.7279 1.76344 0 21.3151 0 0 0 3.49319 0 1.0839 
0 0 -0.185819 1.97062 4.26167 -40.5517 0 0 0 0 0 0 -1.75977 0 -13.0061 -0.811636 0 2.85274 0 0 0 -1.79071 0 -0.553912 -3.45008 0 -21.7279 1.76344 0 21.3151 0 0 0 3.49319 0 1.0839 
0 0 -0.226176 6.91879 4.5586 41.9688 0 0 0 0 0 0 -0.834525 0 3.54642 -1.26906 0 -7.46059 0 0 0 -1.56924 0 -0.481282 -3.28959 0 -15.956 1.5324 0 11.9149 0 0 0 3.32544 0 1.03348 
0 0 -0.225693 6.91879 4.5586 41.9672 0 0 0 0 0 0 -0.834525 0 3.54207 -1.26906 0 -7.46868 0 0 0 -1.56924 0 -0.481282 -3.28959 0 -15.9707 1.5324 0 11.9044 0 0 0 3.32544 0 1.03348 
0 0 -0.225693 6.91879 4.5586 41.9672 0 0 0 0 0 0 -0.834525 0 3.54207 -1.26906 0 -7.46868 0 0 0 -1.56924 0 -0.481282 -3.28959 0 -15.9707 1.5324 0 11.9044 0 0 0 3.32544 0 1.03348 
0 0 -0.225693 6.91879 4.5586 41.9672 0 0 0 0 0 0 -0.834525 0 3.54207 -1.26906 0 -7.46868 0 0 0 -1.56924 0 -0.481282 -3.28959 0 -15.9707 1.5324 0 11.9044 0 0 0 3.32544 0 1.03348 
0 0 -0.177237 1.89003 4.16569 -40.4607 0 0 0 0 0 0 -1.71818 0 -12.8458 -0.753894 0 3.01171 0 0 0 -1.83869 0 -0.569628 -3.41184 0 -21.7831 1.81343 0 21.3617 0 0 0 3.45322 0 1.07188 
0 0 -0.177308 1.89003 4.16569 -40.4604 0 0 0 0 0 0 -1.71818 0 -12.8451 -0.753894 0 3.01308 0 0 0 -1.83869 0 -0.569628 -3.41184 0 -21.7806 1.81343 0 21.3635 0 0 0 3.45322 0 1.07188 
0 0 -0.177308 1.89003 4.16569 -40.4604 0 0 0 0 0 0 -1.71818 0 -12.8451 -0.753894 0 3.01308 0 0 0 -1.83869 0 -0.569628 -3.41184 0 -21.7806 1.81343 0 21.3635 0 0 0 3.45322 0 1.07188 
0 0 -0.217339 6.84116 4.46543 42.0177 0 0 0 0 0 0 -0.801263 0 3.57548 -1.21297 0 -7.31903 0 0 0 -1.61946 0 -0.497754 -3.2525 0 -15.9661 1.58479 0 12.1181 0 0 0 3.28665 0 1.02183 
0 0 -0.216896 6.84116 4.46543 42.0161 0 0 0 0 0 0 -0.801263 0 3.57149 -1.21297 0 -7.32645 0 0 0 -1.61946 0 -0.497754 -3.2525 0 -15.9796 1.58479 0 12.1085 0 0 0 3.28665 0 1.02183 
0 0 -0.216896 6.84116 4.46543 42.0161 0 0 0 0 0 0 -0.801263 0 3.57149 -1.21297 0 -7.32645 0 0 0 -1.61946 0 -0.497754 -3.2525 0 -15.9796 1.58479 0 12.1085 0 0 0 3.28665 0 1.02183 
0 0 -0.170029 1.80917 4.07191 -40.398 0 0 0 0 0 0 -1.67715 0 -12.6748 -0.695728 0 3.19596 0 0 0 -1.88449 0 -0.584668 -3.37623 0 -21.8078 1.86128 0 21.43 0 0 0 3.41593 0 1.0607 
0 0 -0.170092 1.80917 4.07191 -40.3978 0 0 0 0 0 0 -1.67715 0 -12.6741 -0.695728 0 3.19718 0 0 0 -1.88449 0 -0.584668 -3.37623 0 -21.8055 1.86128 0 21.4316 0 0 0 3.41593 0 1.0607 
0 0 -0.170092 1.80917 4.07191 -40.3978 0 0 0 0 0 0 -1.67715 0 -12.6741 -0.695728 0 3.19718 0 0 0 -1.88449 0 -0.584668 -3.37623 0 -21.8055 1.86128 0 21.4316 0 0 0 3.41593 0 1.0607 
0 0 -0.170092 1.80917 4.07191 -40.3978 0 0 0 0 0 0 -1.67715 0 -12.6741 -0.695728 0 3.19718 0 0 0 -1.88449 0 -0.584668 -3.37623 0 -21.8055 1.86128 0 21.4316 0 0 0 3.41593 0 1.0607 
0 0 -0.209495 6.76105 4.37313 42.0345 0 0 0 0 0 0 -0.768453 0 3.61039 -1.15619 0 -7.15891 0 0 0 -1.66865 0 -0.513931 -3.21698 0 -15.9451 1.63625 0 12.3478 0 0 0 3.24941 0 1.01067 
0 0 -0.209085 6.76105 4.37313 42.0331 0 0 0 0 0 0 -0.768453 0 3.60669 -1.15619 0 -7.1658 0 0 0 -1.66865 0 -0.513931 -3.21698 0 -15.9576 1.63625 0 12.3389 0 0 0 3.24941 0 1.01067 
0 0 -0.209085 6.76105 4.37313 42.0331 0 0 0 0 0 0 -0.768453 0 3.60669 -1.15619 0 -7.1658 0 0 0 -1.66865 0 -0.513931 -3.21698 0 -15.9576 1.63625 0 12.3389 0 0 0 3.24941 0 1.01067 
0 0 -0.163434 1.72415 3.978 -40.3657 0 0 0 0 0 0 -1.63599 0 -12.4944 -0.636759 0 3.39562 0 0 0 -1.93 0 -0.599647 -3.34128 0 -21.8038 1.90894 0 21.5207 0 0 0 3.37928 0 1.04972 
0 0 -0.163479 1.72415 3.978 -40.3655 0 0 0 0 0 0 -1.63599 0 -12.4939 -0.636759 0 3.39655 0 0 0 -1.93 0 -0.599647 -3.34128 0 -21.8021 1.90894 0 21.5219 0 0 0 3.37928 0 1.04972 
0 0 -0.163479 1.72415 3.978 -40.3655 0 0 0 0 0 0 -1.63599 0 -12.4939 -0.636759 0 3.39655 0 0 0 -1.93 0 -0.599647 -3.34128 0 -21.8021 1.90894 0 21.5219 0 0 0 3.37928 0 1.04972 
0 0 -0.201913 6.67525 4.27994 42.0122 0 0 0 0 0 0 -0.735533 0 3.65086 -1.09854 0 -6.98649 0 0 0 -1.71824 0 -0.530274 -3.18143 0 -15.8977 1.68823 0 12.6017 0 0 0 3.21209 0 0.999506 
0 0 -0.201528 6.67525 4.27994 42.0109 0 0 0 0 0 0 -0.735533 0 3.64738 -1.09854 0 -6.99295 0 0 0 -1.71824 0 -0.530274 -3.18143 0 -15.9094 1.68823 0 12.5934 0 0 0 3.21209 0 0.999506 
0 0 -0.201528 6.67525 4.27994 42.0109 0 0 0 0 0 0 -0.735533 0 3.64738 -1.09854 0 -6.99295 0 0 0 -1.71824 0 -0.530274 -3.18143 0 -15.9094 1.68823 0 12.5934 0 0 0 3.21209 0 0.999506 
0 0 -0.201528 6.67525 4.27994 42.0109 0 0 0 0 0 0 -0.735533 0 3.64738 -1.09854 0 -6.99295 0 0 0 -1.71824 0 -0.530274 -3.18143 0 -15.9094 1.68823 0 12.5934 0 0 0 3.21209 0 0.999506 
0 0 -0.159102 1.63588 3.88304 -40.3237 0 0 0 0 0 0 -1.59479 0 -12.2915 -0.577364 0 3.63641 0 0 0 -1.97636 0 -0.614933 -3.30572 0 -21.7074 1.95756 0 21.6807 0 0 0 3.34192 0 1.03855 
0 0 -0.159123 1.63588 3.88304 -40.3236 0 0 0 0 0 0 -1.59479 0 -12.2912 -0.577364 0 3.63695 0 0 0 -1.97636 0 -0.614933 -3.30572 0 -21.7064 1.95756 0 21.6814 0 0 0 3.34192 0 1.03855 
0 0 -0.159123 1.63588 3.88304 -40.3236 0 0 0 0 0 0 -1.59479 0 -12.2912 -0.577364 0 3.63695 0 0 0 -1.97636 0 -0.614933 -3.30572 0 -21.7064 1.95756 0 21.6814 0 0 0 3.34192 0 1.03855 
0 0 -0.20527 6.60054 4.18583 42.1763 0 0 0 0 0 0 -0.702588 0 3.79169 -1.04041 0 -6.62636 0 0 0 -1.76873 0 -0.546938 -3.14545 0 -15.5135 1.74124 0 13.1024 0 0 0 3.17425 0 0.988205 
0 0 -0.204894 6.60054 4.18583 42.175 0 0 0 0 0 0 -0.702588 0 3.78831 -1.04041 0 -6.63266 0 0 0 -1.76873 0 -0.546938 -3.14545 0 -15.5249 1.74124 0 13.0943 0 0 0 3.17425 0 0.988205 
0 0 -0.204894 6.60054 4.18583 42.175 0 0 0 0 0 0 -0.702588 0 3.78831 -1.04041 0 -6.63266 0 0 0 -1.76873 0 -0.546938 -3.14545 0 -15.5249 1.74124 0 13.0943 0 0 0 3.17425 0 0.988205 
0 0 -0.175655 1.57264 3.78309 -39.9498 0 0 0 0 0 0 -1.54837 0 -11.8422 -0.509974 0 4.32715 0 0 0 -2.02061 0 -0.629546 -3.27316 0 -21.063 2.00405 0 22.2267 0 0 0 3.30765 0 1.02832 
0 0 -0.175587 1.57264 3.78309 -39.95 0 0 0 0 0 0 -1.54837 0 -11.8427 -0.509974 0 4.32624 0 0 0 -2.02061 0 -0.629546 -3.27316 0 -21.0646 2.00405 0 22.2256 0 0 0 3.30765 0 1.02832 
0 0 -0.175587 1.57264 3.78309 -39.95 0 0 0 0 0 0 -1.54837 0 -11.8427 -0.509974 0 4.32624 0 0 0 -2.02061 0 -0.629546 -3.27316 0 -21.0646 2.00405 0 22.2256 0 0 0 3.30765 0 1.02832 
0 0 -0.175587 1.57264 3.78309 -39.95 0 0 0 0 0 0 -1.54837 0 -11.8427 -0.509974 0 4.32624 0 0 0 -2.02061 0 -0.629546 -3.27316 0 -21.0646 2.00405 0 22.2256 0 0 0 3.30765 0 1.02832 
0 0 -0.234318 6.5696 4.083 42.8468 0 0 0 0 0 0 -0.665453 0 4.17468 -0.965662 0 -5.68296 0 0 0 -1.81695 0 -0.562868 -3.11737 0 -14.501 1.79191 0 14.131 0 0 0 3.14461 0 0.979381 
0 0 -0.233864 6.5696 4.083 42.8453 0 0 0 0 0 0 -0.665453 0 4.17064 -0.965662 0 -5.69049 0 0 0 -1.81695 0 -0.562868 -3.11737 0 -14.5147 1.79191 0 14.1213 0 0 0 3.14461 0 0.979381 
0 0 -0.233864 6.5696 4.083 42.8453 0 0 0 0 0 0 -0.665453 0 4.17064 -0.965662 0 -5.69049 0 0 0 -1.81695 0 -0.562868 -3.11737 0 -14.5147 1.79191 0 14.1213 0 0 0 3.14461 0 0.979381 
0 0 -0.216618 1.56125 3.66796 -39.0284 0 0 0 0 0 0 -1.48216 0 -10.9682 -0.413624 0 5.68462 0 0 0 -2.05558 0 -0.641122 -3.25437 0 -19.8777 2.04088 0 23.131 0 0 0 3.28775 0 1.02242 
0 0 -0.216328 1.56125 3.66796 -39.0294 0 0 0 0 0 0 -1.48216 0 -10.9706 -0.413624 0 5.68008 0 0 0 -2.05558 0 -0.641122 -3.25437 0 -19.8859 2.04088 0 23.1252 0 0 0 3.28775 0 1.02242 
0 0 -0.216328 1.56125 3.66796 -39.0294 0 0 0 0 0 0 -1.48216 0 -10.9706 -0.413624 0 5.68008 0 0 0 -2.05558 0 -0.641122 -3.25437 0 -19.8859 2.04088 0 23.1252 0 0 0 3.28775 0 1.02242 
0 0 -0.283891 6.58277 3.96003 43.937 0 0 0 0 0 0 -0.612473 0 4.79387 -0.853336 0 -4.12634 0 0 0 -1.85756 0 -0.576303 -3.10672 0 -13.0655 1.83465 0 15.5694 0 0 0 3.1332 0 0.976036 
0 0 -0.283276 6.58277 3.96003 43.9349 0 0 0 0 0 0 -0.612473 0 4.78845 -0.853336 0 -4.13646 0 0 0 -1.85756 0 -0.576303 -3.10672 0 -13.0839 1.83465 0 15.5564 0 0 0 3.1332 0 0.976036 
0 0 -0.283276 6.58277 3.96003 43.9349 0 0 0 0 0 0 -0.612473 0 4.78845 -0.853336 0 -4.13646 0 0 0 -1.85756 0 -0.576303 -3.10672 0 -13.0839 1.83465 0 15.5564 0 0 0 3.1332 0 0.976036 
0 0 -0.283276 6.58277 3.96003 43.9349 0 0 0 0 0 0 -0.612473 0 4.78845 -0.853336 0 -4.13646 0 0 0 -1.85756 0 -0.576303 -3.10672 0 -13.0839 1.83465 0 15.5564 0 0 0 3.1332 0 0.976036 
0 0 -0.274821 1.59504 3.5318 -37.622 0 0 0 0 0 0 -1.38928 0 -9.72352 -0.278711 0 7.56136 0 0 0 -2.07942 0 -0.649046 -3.25312 0 -18.2792 2.06609 0 24.2946 0 0 0 3.2862 0 1.02203 
0 0 -0.274209 1.59504 3.5318 -37.624 0 0 0 0 0 0 -1.38928 0 -9.72868 -0.278711 0 7.55163 0 0 0 -2.07942 0 -0.649046 -3.25312 0 -18.2968 2.06609 0 24.2821 0 0 0 3.2862 0 1.02203 
0 0 -0.274209 1.59504 3.5318 -37.624 0 0 0 0 0 0 -1.38928 0 -9.72868 -0.278711 0 7.55163 0 0 0 -2.07942 0 -0.649046 -3.25312 0 -18.2968 2.06609 0 24.2821 0 0 0 3.2862 0 1.02203 
0 0 -0.351885 6.62834 3.81351 45.3629 0 0 0 0 0 0 -0.538155 0 5.65357 -0.70042 0 -2.02082 0 0 0 -1.89024 0 -0.587131 -3.11312 0 -11.1839 1.86909 0 17.4041 0 0 0 3.13962 0 0.978045 
0 0 -0.35104 6.62834 3.81351 45.36 0 0 0 0 0 0 -0.538155 0 5.64619 -0.70042 0 -2.03462 0 0 0 -1.89024 0 -0.587131 -3.11312 0 -11.209 1.86909 0 17.3864 0 0 0 3.13962 0 0.978045 
0 0 -0.35104 6.62834 3.81351 45.36 0 0 0 0 0 0 -0.538155 0 5.64619 -0.70042 0 -2.03462 0 0 0 -1.89024 0 -0.587131 -3.11312 0 -11.209 1.86909 0 17.3864 0 0 0 3.13962 0 0.978045 
0 0 -0.345671 1.65484 3.3713 -35.883 0 0 0 0 0 0 -1.26728 0 -8.14933 -0.104322 0 9.87968 0 0 0 -2.09362 0 -0.6538 -3.26701 0 -16.3342 2.08121 0 25.6734 0 0 0 3.30049 0 1.02639 
0 0 -0.344635 1.65484 3.3713 -35.8863 0 0 0 0 0 0 -1.26728 0 -8.15812 -0.104322 0 9.86314 0 0 0 -2.09362 0 -0.6538 -3.26701 0 -16.3642 2.08121 0 25.6523 0 0 0 3.30049 0 1.02639 
0 0 -0.344635 1.65484 3.3713 -35.8863 0 0 0 0 0 0 -1.26728 0 -8.15812 -0.104322 0 9.86314 0 0 0 -2.09362 0 -0.6538 -3.26701 0 -16.3642 2.08121 0 25.6523 0 0 0 3.30049 0 1.02639 
0 0 -0.344635 1.65484 3.3713 -35.8863 0 0 0 0 0 0 -1.26728 0 -8.15812 -0.104322 0 9.86314 0 0 0 -2.09362 0 -0.6538 -3.26701 0 -16.3642 2.08121 0 25.6523 0 0 0 3.30049 0 1.02639 
0 0 -0.431059 6.68638 3.64118 46.9889 0 0 0 0 0 0 -0.440537 0 6.70974 -0.509315 0 0.494005 0 0 0 -1.91738 0 -0.596125 -3.13189 0 -8.96333 1.8977 0 19.5419 0 0 0 3.15902 0 0.983943 
0 0 -0.429925 6.68638 3.64118 46.9852 0 0 0 0 0 0 -0.440537 0 6.6999 -0.509315 0 0.475604 0 0 0 -1.91738 0 -0.596125 -3.13189 0 -8.99677 1.8977 0 19.5182 0 0 0 3.15902 0 0.983943 
0 0 -0.429925 6.68638 3.64118 46.9852 0 0 0 0 0 0 -0.440537 0 6.6999 -0.509315 0 0.475604 0 0 0 -1.91738 0 -0.596125 -3.13189 0 -8.99677 1.8977 0 19.5182 0 0 0 3.15902 0 0.983943 
0 0 -0.427145 1.72688 3.18473 -33.857 0 0 0 0 0 0 -1.11819 0 -6.28842 0.104887 0 12.5795 0 0 0 -2.10279 0 -0.656887 -3.28965 0 -13.994 2.09103 0 27.3172 0 0 0 3.32398 0 1.0335 
0 0 -0.425607 1.72688 3.18473 -33.862 0 0 0 0 0 0 -1.11819 0 -6.30147 0.104887 0 12.555 0 0 0 -2.10279 0 -0.656887 -3.28965 0 -14.0386 2.09103 0 27.2858 0 0 0 3.32398 0 1.0335 
0 0 -0.425607 1.72688 3.18473 -33.862 0 0 0 0 0 0 -1.11819 0 -6.30147 0.104887 0 12.555 0 0 0 -2.10279 0 -0.656887 -3.28965 0 -14.0386 2.09103 0 27.2858 0 0 0 3.32398 0 1.0335 
0 0 -0.516793 6.7494 3.44047 48.8053 0 0 0 0 0 0 -0.321236 0 7.93047 -0.283504 0 3.353 0 0 0 -1.94435 0 -0.605039 -3.15699 0 -6.46287 1.92606 0 21.9668 0 0 0 3.18508 0 0.991825 
0 0 -0.515305 6.7494 3.44047 48.8004 0 0 0 0 0 0 -0.321236 0 7.91764 -0.283504 0 3.32898 0 0 0 -1.94435 0 -0.605039 -3.15699 0 -6.50652 1.92606 0 21.9359 0 0 0 3.18508 0 0.991825 
0 0 -0.515305 6.7494 3.44047 48.8004 0 0 0 0 0 0 -0.321236 0 7.91764 -0.283504 0 3.32898 0 0 0 -1.94435 0 -0.605039 -3.15699 0 -6.50652 1.92606 0 21.9359 0 0 0 3.18508 0 0.991825 
0 0 -0.515305 6.7494 3.44047 48.8004 0 0 0 0 0 0 -0.321236 0 7.91764 -0.283504 0 3.32898 0 0 0 -1.94435 0 -0.605039 -3.15699 0 -6.50652 1.92606 0 21.9359 0 0 0 3.18508 0 0.991825 
0 0 -0.51291 1.80324 2.96882 -31.5926 0 0 0 0 0 0 -0.943289 0 -4.18924 0.345559 0 15.5562 0 0 0 -2.11303 0 -0.660302 -3.31441 0 -11.3562 2.10189 0 29.1727 0 0 0 3.34973 0 1.04128 
0 0 -0.510805 1.80324 2.96882 -31.5994 0 0 0 0 0 0 -0.943289 0 -4.2071 0.345559 0 15.5226 0 0 0 -2.11303 0 -0.660302 -3.31441 0 -11.4172 2.10189 0 29.1297 0 0 0 3.34973 0 1.04128 
0 0 -0.510805 1.80324 2.96882 -31.5994 0 0 0 0 0 0 -0.943289 0 -4.2071 0.345559 0 15.5226 0 0 0 -2.11303 0 -0.660302 -3.31441 0 -11.4172 2.10189 0 29.1297 0 0 0 3.34973 0 1.04128 
0 0 -0.608291 6.81416 3.20717 50.8413 0 0 0 0 0 0 -0.181282 0 9.31097 -0.0260137 0 6.53758 0 0 0 -1.97816 0 -0.616163 -3.18118 0 -3.62606 1.96145 0 24.7387 0 0 0 3.21025 0 0.999424 
0 0 -0.606403 6.81416 3.20717 50.8351 0 0 0 0 0 0 -0.181282 0 9.29478 -0.0260137 0 6.50724 0 0 0 -1.97816 0 -0.616163 -3.18118 0 -3.6812 1.96145 0 24.6998 0 0 0 3.21025 0 0.999424 
0 0 -0.606403 6.81416 3.20717 50.8351 0 0 0 0 0 0 -0.181282 0 9.29478 -0.0260137 0 6.50724 0 0 0 -1.97816 0 -0.616163 -3.18118 0 -3.6812 1.96145 0 24.6998 0 0 0 3.21025 0 0.999424 
0 0 -0.602139 1.9348 2.75445 -28.6927 0 0 0 0 0 0 -0.745631 0 -1.88672 0.551572 0 17.9342 0 0 0 -2.13164 0 -0.666431 -3.30605 0 -7.69373 2.12139 0 31.2824 0 0 0 3.34088 0 1.03865 
0 0 -0.59948 1.9348 2.75445 -28.7014 0 0 0 0 0 0 -0.745631 0 -1.90922 0.551572 0 17.8918 0 0 0 -2.13164 0 -0.666431 -3.30605 0 -7.7706 2.12139 0 31.2282 0 0 0 3.34088 0 1.03865 
0 0 -0.59948 1.9348 2.75445 -28.7014 0 0 0 0 0 0 -0.745631 0 -1.90922 0.551572 0 17.8918 0 0 0 -2.13164 0 -0.666431 -3.30605 0 -7.7706 2.12139 0 31.2282 0 0 0 3.34088 0 1.03865 
0 0 -0.59948 1.9348 2.75445 -28.7014 0 0 0 0 0 0 -0.745631 0 -1.90922 0.551572 0 17.8918 0 0 0 -2.13164 0 -0.666431 -3.30605 0 -7.7706 2.12139 0 31.2282 0 0 0 3.34088 0 1.03865 
0 0 -0.701114 6.87868 2.95633 52.7025 0 0 0 0 0 0 -0.0231216 0 10.801 0.220971 0 9.93116 0 0 0 -2.02681 0 -0.632121 -3.17732 0 -0.525642 2.01222 0 27.8261 0 0 0 3.20612 0 0.99821 
0 0 -0.698694 6.87868 2.95633 52.6946 0 0 0 0 0 0 -0.0231216 0 10.7804 0.220971 0 9.89243 0 0 0 -2.02681 0 -0.632121 -3.17732 0 -0.596026 2.01222 0 27.7763 0 0 0 3.20612 0 0.99821 
0 0 -0.698694 6.87868 2.95633 52.6946 0 0 0 0 0 0 -0.0231216 0 10.7804 0.220971 0 9.89243 0 0 0 -2.02681 0 -0.632121 -3.17732 0 -0.596026 2.01222 0 27.7763 0 0 0 3.20612 0 0.99821 
0 0 -0.696313 2.04892 2.51605 -25.8165 0 0 0 0 0 0 -0.522427 0 0.649324 0.74918 0 20.3798 0 0 0 -2.16627 0 -0.67778 -3.26525 0 -3.53066 2.1575 0 33.6577 0 0 0 3.29813 0 1.02583 
0 0 -0.693055 2.04892 2.51605 -25.8271 0 0 0 0 0 0 -0.522427 0 0.621829 0.74918 0 20.3281 0 0 0 -2.16627 0 -0.67778 -3.26525 0 -3.62457 2.1575 0 33.5915 0 0 0 3.29813 0 1.02583 
0 0 -0.693055 2.04892 2.51605 -25.8271 0 0 0 0 0 0 -0.522427 0 0.621829 0.74918 0 20.3281 0 0 0 -2.16627 0 -0.67778 -3.26525 0 -3.62457 2.1575 0 33.5915 0 0 0 3.29813 0 1.02583 
0 0 -0.795027 6.90106 2.667 54.4067 0 0 0 0 0 0 0.155476 0 12.3845 0.477626 0 13.5604 0 0 0 -2.09844 0 -0.655579 -3.14464 0 2.80453 2.08686 0 31.2429 0 0 0 3.17187 0 0.98794 
0 0 -0.792013 6.90106 2.667 54.3969 0 0 0 0 0 0 0.155476 0 12.3589 0.477626 0 13.5124 0 0 0 -2.09844 0 -0.655579 -3.14464 0 2.71729 2.08686 0 31.1813 0 0 0 3.17187 0 0.98794 
0 0 -0.792013 6.90106 2.667 54.3969 0 0 0 0 0 0 0.155476 0 12.3589 0.477626 0 13.5124 0 0 0 -2.09844 0 -0.655579 -3.14464 0 2.71729 2.08686 0 31.1813 0 0 0 3.17187 0 0.98794 
0 0 -0.792013 6.90106 2.667 54.3969 0 0 0 0 0 0 0.155476 0 12.3589 0.477626 0 13.5124 0 0 0 -2.09844 0 -0.655579 -3.14464 0 2.71729 2.08686 0 31.1813 0 0 0 3.17187 0 0.98794 
0 0 -0.793622 2.12669 2.23695 -22.8653 0 0 0 0 0 0 -0.271324 0 3.3893 0.954528 0 22.8807 0 0 0 -2.22511 0 -0.697032 -3.19149 0 1.00684 2.21876 0 36.2629 0 0 0 3.22094 0 1.00266 
0 0 -0.789723 2.12669 2.23695 -22.8778 0 0 0 0 0 0 -0.271324 0 3.35653 0.954528 0 22.8191 0 0 0 -2.22511 0 -0.697032 -3.19149 0 0.894902 2.21876 0 36.1839 0 0 0 3.22094 0 1.00266 
0 0 -0.789723 2.12669 2.23695 -22.8778 0 0 0 0 0 0 -0.271324 0 3.35653 0.954528 0 22.8191 0 0 0 -2.22511 0 -0.697032 -3.19149 0 0.894902 2.21876 0 36.1839 0 0 0 3.22094 0 1.00266 
0 0 -0.893106 6.88181 2.32715 56.1385 0 0 0 0 0 0 0.356391 0 14.069 0.754411 0 17.4496 0 0 0 -2.20096 0 -0.689125 -3.08157 0 6.41558 2.1936 0 35.0504 0 0 0 3.10588 0 0.968125 
0 0 -0.889453 6.88181 2.32715 56.1268 0 0 0 0 0 0 0.356391 0 14.0382 0.754411 0 17.3917 0 0 0 -2.20096 0 -0.689125 -3.08157 0 6.31038 2.1936 0 34.9761 0 0 0 3.10588 0 0.968125 
0 0 -0.889453 6.88181 2.32715 56.1268 0 0 0 0 0 0 0.356391 0 14.0382 0.754411 0 17.3917 0 0 0 -2.20096 0 -0.689125 -3.08157 0 6.31038 2.1936 0 34.9761 0 0 0 3.10588 0 0.968125 
0 0 -0.894729 2.16554 1.90678 -19.8132 0 0 0 0 0 0 0.00886121 0 6.31461 1.17598 0 25.4389 0 0 0 -2.31482 0 -0.726375 -3.08277 0 5.89133 2.31213 0 39.086 0 0 0 3.1072 0 0.968503 
0 0 -0.89014 2.16554 1.90678 -19.8279 0 0 0 0 0 0 0.00886121 0 6.27622 1.17598 0 25.3668 0 0 0 -2.31482 0 -0.726375 -3.08277 0 5.76019 2.31213 0 38.9935 0 0 0 3.1072 0 0.968503 
0 0 -0.89014 2.16554 1.90678 -19.8279 0 0 0 0 0 0 0.00886121 0 6.27622 1.17598 0 25.3668 0 0 0 -2.31482 0 -0.726375 -3.08277 0 5.76019 2.31213 0 38.9935 0 0 0 3.1072 0 0.968503 
0 0 -0.89014 2.16554 1.90678 -19.8279 0 0 0 0 0 0 0.00886121 0 6.27622 1.17598 0 25.3668 0 0 0 -2.31482 0 -0.726375 -3.08277 0 5.76019 2.31213 0 38.9935 0 0 0 3.1072 0 0.968503 
0 0 -0.993306 6.80645 1.92716 57.793 0 0 0 0 0 0 0.58057 0 15.8197 1.05849 0 21.5652 0 0 0 -2.33961 0 -0.73449 -2.98565 0 10.2194 2.33795 0 39.1788 0 0 0 3.00556 0 0.93799 
0 0 -0.988972 6.80645 1.92716 57.7792 0 0 0 0 0 0 0.58057 0 15.7834 1.05849 0 21.4969 0 0 0 -2.33961 0 -0.73449 -2.98565 0 10.0953 2.33795 0 39.0912 0 0 0 3.00556 0 0.93799 
0 0 -0.988972 6.80645 1.92716 57.7792 0 0 0 0 0 0 0.58057 0 15.7834 1.05849 0 21.4969 0 0 0 -2.33961 0 -0.73449 -2.98565 0 10.0953 2.33795 0 39.0912 0 0 0 3.00556 0 0.93799 
0 0 -1.00145 2.14827 1.51719 -16.7238 0 0 0 0 0 0 0.317654 0 9.41978 1.41928 0 28.0899 0 0 0 -2.44001 0 -0.767324 -2.93647 0 11.1735 2.44244 0 42.1685 0 0 0 2.95419 0 0.922539 
0 0 -0.996141 2.14827 1.51719 -16.7406 0 0 0 0 0 0 0.317654 0 9.37559 1.41928 0 28.0068 0 0 0 -2.44001 0 -0.767324 -2.93647 0 11.0224 2.44244 0 42.062 0 0 0 2.95419 0 0.922539 
0 0 -0.996141 2.14827 1.51719 -16.7406 0 0 0 0 0 0 0.317654 0 9.37559 1.41928 0 28.0068 0 0 0 -2.44001 0 -0.767324 -2.93647 0 11.0224 2.44244 0 42.062 0 0 0 2.95419 0 0.922539 
0 0 -1.09428 6.65897 1.46107 59.3097 0 0 0 0 0 0 0.827633 0 17.6224 1.39336 0 25.8841 0 0 0 -2.51775 0 -0.79277 -2.85444 0 14.1888 2.52342 0 43.6021 0 0 0 2.86833 0 0.896762 
0 0 -1.08922 6.65897 1.46107 59.2936 0 0 0 0 0 0 0.827633 0 17.5802 1.39336 0 25.8048 0 0 0 -2.51775 0 -0.79277 -2.85444 0 14.0446 2.52342 0 43.5004 0 0 0 2.86833 0 0.896762 
0 0 -1.08922 6.65897 1.46107 59.2936 0 0 0 0 0 0 0.827633 0 17.5802 1.39336 0 25.8048 0 0 0 -2.51775 0 -0.79277 -2.85444 0 14.0446 2.52342 0 43.5004 0 0 0 2.86833 0 0.896762 
0 0 -1.08922 6.65897 1.46107 59.2936 0 0 0 0 0 0 0.827633 0 17.5802 1.39336 0 25.8048 0 0 0 -2.51775 0 -0.79277 -2.85444 0 14.0446 2.52342 0 43.5004 0 0 0 2.86833 0 0.896762 
0 0 -1.10946 2.06035 1.06407 -13.6663 0 0 0 0 0 0 0.65551 0 12.6813 1.68722 0 30.7826 0 0 0 -2.60292 0 -0.820612 -2.75129 0 16.7339 2.61202 0 45.4337 0 0 0 2.76052 0 0.864352 
0 0 -1.1034 2.06035 1.06407 -13.6855 0 0 0 0 0 0 0.65551 0 12.6311 1.68722 0 30.6883 0 0 0 -2.60292 0 -0.820612 -2.75129 0 16.5623 2.61202 0 45.3127 0 0 0 2.76052 0 0.864352 
0 0 -1.1034 2.06035 1.06407 -13.6855 0 0 0 0 0 0 0.65551 0 12.6311 1.68722 0 30.6883 0 0 0 -2.60292 0 -0.820612 -2.75129 0 16.5623 2.61202 0 45.3127 0 0 0 2.76052 0 0.864352 
0 0 -1.19328 5.08383 0.999851 44.7807 0 0 0 0 0 0 1.09796 0 19.4785 1.67049 0 29.179 0 0 0 -2.71305 0 -0.856662 -2.67035 0 18.7069 2.72676 0 47.7807 0 0 0 2.67581 0 0.838916 
0 0 -1.18736 5.08383 0.999851 44.762 0 0 0 0 0 0 1.09796 0 19.4294 1.67049 0 29.0869 0 0 0 -2.71305 0 -0.856662 -2.67035 0 18.5394 2.72676 0 47.6625 0 0 0 2.67581 0 0.838916 
0 0 -1.18736 5.08383 0.999851 44.762 0 0 0 0 0 0 1.09796 0 19.4294 1.67049 0 29.0869 0 0 0 -2.71305 0 -0.856662 -2.67035 0 18.5394 2.72676 0 47.6625 0 0 0 2.67581 0 0.838916 
0 0 -1.22002 0.976047 0.622951 -14.6142 0 0 0 0 0 0 1.01496 0 15.9783 1.90893 0 33.2223 0 0 0 -2.76637 0 -0.874094 -2.53188 0 22.0671 2.78224 0 48.3166 0 0 0 2.53103 0 0.795406 
0 0 -1.21317 0.976047 0.622951 -14.6357 0 0 0 0 0 0 1.01496 0 15.9219 1.90893 0 33.1163 0 0 0 -2.76637 0 -0.874094 -2.53188 0 21.8743 2.78224 0 48.1806 0 0 0 2.53103 0 0.795406 
0 0 -1.21317 0.976047 0.622951 -14.6357 0 0 0 0 0 0 1.01496 0 15.9219 1.90893 0 33.1163 0 0 0 -2.76637 0 -0.874094 -2.53188 0 21.8743 2.78224 0 48.1806 0 0 0 2.53103 0 0.795406 
0 0 -1.21317 0.976047 0.622951 -14.6357 0 0 0 0 0 0 1.01496 0 15.9219 1.90893 0 33.1163 0 0 0 -2.76637 0 -0.874094 -2.53188 0 21.8743 2.78224 0 48.1806 0 0 0 2.53103 0 0.795406 
0 0 -1.29808 5.64249 0.500076 60.2024 0 0 0 0 0 0 1.38559 0 21.3565 1.97975 0 33.2513 0 0 0 -2.92069 0 -0.924612 -2.47982 0 22.7563 2.94304 0 52.1636 0 0 0 2.4765 0 0.779043 
0 0 -1.29146 5.64249 0.500076 60.1816 0 0 0 0 0 0 1.38559 0 21.3021 1.97975 0 33.149 0 0 0 -2.92069 0 -0.924612 -2.47982 0 22.5701 2.94304 0 52.0323 0 0 0 2.4765 0 0.779043 
0 0 -1.29146 5.64249 0.500076 60.1816 0 0 0 0 0 0 1.38559 0 21.3021 1.97975 0 33.149 0 0 0 -2.92069 0 -0.924612 -2.47982 0 22.5701 2.94304 0 52.0323 0 0 0 2.4765 0 0.779043 
0 0 -1.30959 1.72194 0.156 -5.70054 0 0 0 0 0 0 1.37949 0 19.2551 2.1562 0 35.7371 0 0 0 -2.9526 0 -0.935023 -2.3122 0 27.2859 2.97617 0 51.5715 0 0 0 2.30127 0 0.726363 
0 0 -1.30196 1.72194 0.156 -5.72436 0 0 0 0 0 0 1.37949 0 19.1926 2.1562 0 35.6195 0 0 0 -2.9526 0 -0.935023 -2.3122 0 27.072 2.97617 0 51.4206 0 0 0 2.30127 0 0.726363 
0 0 -1.30196 1.72194 0.156 -5.72436 0 0 0 0 0 0 1.37949 0 19.1926 2.1562 0 35.6195 0 0 0 -2.9526 0 -0.935023 -2.3122 0 27.072 2.97617 0 51.4206 0 0 0 2.30127 0 0.726363 
0 0 -1.3555 1.11748 0.128622 6.87161 0 0 0 0 0 0 1.67726 0 23.2542 2.13341 0 34.8454 0 0 0 -3.09139 0 -0.980447 -2.26203 0 27.162 3.12077 0 55.2957 0 0 0 2.24874 0 0.710593 
0 0 -1.34786 1.11748 0.128622 6.84793 0 0 0 0 0 0 1.67726 0 23.192 2.13341 0 34.7284 0 0 0 -3.09139 0 -0.980447 -2.26203 0 26.9491 3.12077 0 55.1455 0 0 0 2.24874 0 0.710593 
0 0 -1.34786 1.11748 0.128622 6.84793 0 0 0 0 0 0 1.67726 0 23.192 2.13341 0 34.7284 0 0 0 -3.09139 0 -0.980447 -2.26203 0 26.9491 3.12077 0 55.1455 0 0 0 2.24874 0 0.710593 
0 0 -1.34786 1.11748 0.128622 6.84793 0 0 0 0 0 0 1.67726 0 23.192 2.13341 0 34.7284 0 0 0 -3.09139 0 -0.980447 -2.26203 0 26.9491 3.12077 0 55.1455 0 0 0 2.24874 0 0.710593 
0 0 -1.41582 2.67853 -0.248022 31.9545 0 0 0 0 0 0 1.91563 0 24.5101 2.27901 0 37.8333 0 0 0 -3.07285 0 -0.974385 -2.03099 0 33.5917 3.10147 0 53.9095 0 0 0 2.007 0 0.63797 
0 0 -1.40798 2.67853 -0.248022 31.9304 0 0 0 0 0 0 1.91563 0 24.4467 2.27901 0 37.7141 0 0 0 -3.07285 0 -0.974385 -2.03099 0 33.3749 3.10147 0 53.7566 0 0 0 2.007 0 0.63797 
0 0 -1.40798 2.67853 -0.248022 31.9304 0 0 0 0 0 0 1.91563 0 24.4467 2.27901 0 37.7141 0 0 0 -3.07285 0 -0.974385 -2.03099 0 33.3749 3.10147 0 53.7566 0 0 0 2.007 0 0.63797 
0 0 -1.40919 1.91664 -0.29294 14.0919 0 0 0 0 0 0 2.1064 0 25.4486 2.28144 0 37.0842 0 0 0 -3.18984 0 -1.01271 -1.98851 0 31.4146 3.22347 0 57.4318 0 0 0 1.9622 0 0.624615 
0 0 -1.40028 1.91664 -0.29294 14.0648 0 0 0 0 0 0 2.1064 0 25.3773 2.28144 0 36.9499 0 0 0 -3.18984 0 -1.01271 -1.98851 0 31.1702 3.22347 0 57.2595 0 0 0 1.9622 0 0.624615 
0 0 -1.40028 1.91664 -0.29294 14.0648 0 0 0 0 0 0 2.1064 0 25.3773 2.28144 0 36.9499 0 0 0 -3.18984 0 -1.01271 -1.98851 0 31.1702 3.22347 0 57.2595 0 0 0 1.9622 0 0.624615 
0 0 -1.40757 -0.203822 -0.568512 -3.45394 0 0 0 0 0 0 2.259 0 26.2394 2.39744 0 38.9943 0 0 0 -3.21481 0 -1.0209 -1.82894 0 35.3515 3.24954 0 56.8414 0 0 0 1.79506 0 0.574449 
0 0 -1.39895 -0.203822 -0.568512 -3.47998 0 0 0 0 0 0 2.259 0 26.1709 2.39744 0 38.8651 0 0 0 -3.21481 0 -1.0209 -1.82894 0 35.1164 3.24954 0 56.6755 0 0 0 1.79506 0 0.574449 
0 0 -1.39895 -0.203822 -0.568512 -3.47998 0 0 0 0 0 0 2.259 0 26.1709 2.39744 0 38.8651 0 0 0 -3.21481 0 -1.0209 -1.82894 0 35.1164 3.24954 0 56.6755 0 0 0 1.79506 0 0.574449 
0 0 -1.39895 -0.203822 -0.568512 -3.47998 0 0 0 0 0 0 2.259 0 26.1709 2.39744 0 38.8651 0 0 0 -3.21481 0 -1.0209 -1.82894 0 35.1164 3.24954 0 56.6755 0 0 0 1.79506 0 0.574449 
0 0 -1.40615 -0.200825 -0.718469 7.88049 0 0 0 0 0 0 2.38127 0 26.7671 2.49006 0 39.449 0 0 0 -3.35314 0 -1.06617 -1.77161 0 34.3049 3.39365 0 59.8006 0 0 0 1.7349 0 0.556423 
0 0 -1.39713 -0.200825 -0.718469 7.85351 0 0 0 0 0 0 2.38127 0 26.696 2.49006 0 39.3149 0 0 0 -3.35314 0 -1.06617 -1.77161 0 34.0607 3.39365 0 59.6285 0 0 0 1.7349 0 0.556423 
0 0 -1.39713 -0.200825 -0.718469 7.85351 0 0 0 0 0 0 2.38127 0 26.696 2.49006 0 39.3149 0 0 0 -3.35314 0 -1.06617 -1.77161 0 34.0607 3.39365 0 59.6285 0 0 0 1.7349 0 0.556423 
0 0 -1.37591 -0.958395 -0.911651 0.865158 0 0 0 0 0 0 2.47902 0 27.1212 2.56423 0 39.6189 0 0 0 -3.41567 0 -1.08662 -1.6526 0 36.1361 3.45877 0 59.12 0 0 0 1.61033 0 0.519005 
0 0 -1.36655 -0.958395 -0.911651 0.837444 0 0 0 0 0 0 2.47902 0 27.048 2.56423 0 39.481 0 0 0 -3.41567 0 -1.08662 -1.6526 0 35.8848 3.45877 0 58.9429 0 0 0 1.61033 0 0.519005 
0 0 -1.36655 -0.958395 -0.911651 0.837444 0 0 0 0 0 0 2.47902 0 27.048 2.56423 0 39.481 0 0 0 -3.41567 0 -1.08662 -1.6526 0 35.8848 3.45877 0 58.9429 0 0 0 1.61033 0 0.519005 
0 0 -1.3423 -0.939206 -1.05099 5.55089 0 0 0 0 0 0 2.5573 0 27.3558 2.6235 0 39.6415 0 0 0 -3.5233 0 -1.12183 -1.57254 0 35.7752 3.57088 0 60.453 0 0 0 1.52647 0 0.49383 
0 0 -1.33292 -0.939206 -1.05099 5.52346 0 0 0 0 0 0 2.5573 0 27.2832 2.6235 0 39.5046 0 0 0 -3.5233 0 -1.12183 -1.57254 0 35.5258 3.57088 0 60.2772 0 0 0 1.52647 0 0.49383 
0 0 -1.33292 -0.939206 -1.05099 5.52346 0 0 0 0 0 0 2.5573 0 27.2832 2.6235 0 39.5046 0 0 0 -3.5233 0 -1.12183 -1.57254 0 35.5258 3.57088 0 60.2772 0 0 0 1.52647 0 0.49383 
0 0 -1.33292 -0.939206 -1.05099 5.52346 0 0 0 0 0 0 2.5573 0 27.2832 2.6235 0 39.5046 0 0 0 -3.5233 0 -1.12183 -1.57254 0 35.5258 3.57088 0 60.2772 0 0 0 1.52647 0 0.49383 
0 0 -1.3076 -1.0424 -1.21667 5.43685 0 0 0 0 0 0 2.61998 0 27.4649 2.67084 0 39.5185 0 0 0 -3.61959 0 -1.15332 -1.45419 0 36.8306 3.67113 0 60.6985 0 0 0 1.40272 0 0.456615 
0 0 -1.29824 -1.0424 -1.21667 5.40975 0 0 0 0 0 0 2.61998 0 27.3932 2.67084 0 39.383 0 0 0 -3.61959 0 -1.15332 -1.45419 0 36.5837 3.67113 0 60.5245 0 0 0 1.40272 0 0.456615 
0 0 -1.29824 -1.0424 -1.21667 5.40975 0 0 0 0 0 0 2.61998 0 27.3932 2.67084 0 39.383 0 0 0 -3.61959 0 -1.15332 -1.45419 0 36.5837 3.67113 0 60.5245 0 0 0 1.40272 0 0.456615 
0 0 -1.29577 -0.951356 -1.37364 7.7844 0 0 0 0 0 0 2.67019 0 27.4357 2.70863 0 39.296 0 0 0 -3.75 0 -1.19597 -1.33503 0 37.1213 3.80695 0 61.7007 0 0 0 1.278 0 0.419142 
0 0 -1.28646 -0.951356 -1.37364 7.75772 0 0 0 0 0 0 2.67019 0 27.3649 2.70863 0 39.1623 0 0 0 -3.75 0 -1.19597 -1.33503 0 36.8776 3.80695 0 61.529 0 0 0 1.278 0 0.419142 
0 0 -1.28646 -0.951356 -1.37364 7.75772 0 0 0 0 0 0 2.67019 0 27.3649 2.70863 0 39.1623 0 0 0 -3.75 0 -1.19597 -1.33503 0 36.8776 3.80695 0 61.529 0 0 0 1.278 0 0.419142 
0 0 -1.30163 -1.06238 -1.56055 7.20892 0 0 0 0 0 0 2.71042 0 27.2992 2.7388 0 39.0078 0 0 0 -3.89902 0 -1.2447 -1.1783 0 38.2351 3.96212 0 62.4861 0 0 0 1.1142 0 0.369852 
0 0 -1.29238 -1.06238 -1.56055 7.18259 0 0 0 0 0 0 2.71042 0 27.2293 2.7388 0 38.8757 0 0 0 -3.89902 0 -1.2447 -1.1783 0 37.9943 3.96212 0 62.3165 0 0 0 1.1142 0 0.369852 
0 0 -1.29238 -1.06238 -1.56055 7.18259 0 0 0 0 0 0 2.71042 0 27.2293 2.7388 0 38.8757 0 0 0 -3.89902 0 -1.2447 -1.1783 0 37.9943 3.96212 0 62.3165 0 0 0 1.1142 0 0.369852 
0 0 -1.29238 -1.06238 -1.56055 7.18259 0 0 0 0 0 0 2.71042 0 27.2293 2.7388 0 38.8757 0 0 0 -3.89902 0 -1.2447 -1.1783 0 37.9943 3.96212 0 62.3165 0 0 0 1.1142 0 0.369852 
0 0 -1.32866 -1.2213 -1.75745 7.04084 0 0 0 0 0 0 2.74264 0 26.9985 2.76289 0 38.5694 0 0 0 -4.07896 0 -1.30355 -1.00551 0 38.8607 4.14954 0 63.4135 0 0 0 0.933399 0 0.315503 
0 0 -1.31943 -1.2213 -1.75745 7.01473 0 0 0 0 0 0 2.74264 0 26.9291 2.76289 0 38.4382 0 0 0 -4.07896 0 -1.30355 -1.00551 0 38.6215 4.14954 0 63.245 0 0 0 0.933399 0 0.315503 
0 0 -1.31943 -1.2213 -1.75745 7.01473 0 0 0 0 0 0 2.74264 0 26.9291 2.76289 0 38.4382 0 0 0 -4.07896 0 -1.30355 -1.00551 0 38.6215 4.14954 0 63.245 0 0 0 0.933399 0 0.315503 
0 0 -1.35072 -1.56358 -1.98152 5.28766 0 0 0 0 0 0 2.76843 0 26.6305 2.78215 0 38.0453 0 0 0 -4.28237 0 -1.37006 -0.800699 0 39.8626 4.36138 0 64.3028 0 0 0 0.719377 0 0.251078 
0 0 -1.34152 -1.56358 -1.98152 5.26167 0 0 0 0 0 0 2.76843 0 26.5615 2.78215 0 37.9148 0 0 0 -4.28237 0 -1.37006 -0.800699 0 39.6245 4.36138 0 64.1351 0 0 0 0.719377 0 0.251078 
0 0 -1.34152 -1.56358 -1.98152 5.26167 0 0 0 0 0 0 2.76843 0 26.5615 2.78215 0 37.9148 0 0 0 -4.28237 0 -1.37006 -0.800699 0 39.6245 4.36138 0 64.1351 0 0 0 0.719377 0 0.251078 
0 0 -1.37019 -1.94927 -2.2147 3.95943 0 0 0 0 0 0 2.78908 0 26.1634 2.79754 0 37.3846 0 0 0 -4.50664 0 -1.44339 -0.582932 0 40.4163 4.59496 0 65.1132 0 0 0 0.49158 0 0.182567 
0 0 -1.36103 -1.94927 -2.2147 3.93351 0 0 0 0 0 0 2.78908 0 26.0946 2.79754 0 37.2544 0 0 0 -4.50664 0 -1.44339 -0.582932 0 40.1789 4.59496 0 64.9461 0 0 0 0.49158 0 0.182567 
0 0 -1.36103 -1.94927 -2.2147 3.93351 0 0 0 0 0 0 2.78908 0 26.0946 2.79754 0 37.2544 0 0 0 -4.50664 0 -1.44339 -0.582932 0 40.1789 4.59496 0 64.9461 0 0 0 0.49158 0 0.182567 
0 0 -1.36103 -1.94927 -2.2147 3.93351 0 0 0 0 0 0 2.78908 0 26.0946 2.79754 0 37.2544 0 0 0 -4.50664 0 -1.44339 -0.582932 0 40.1789 4.59496 0 64.9461 0 0 0 0.49158 0 0.182567 
0 0 -1.36404 -2.42118 -2.4652 2.01148 0 0 0 0 0 0 2.80559 0 25.6504 2.80987 0 36.5972 0 0 0 -4.74671 0 -1.52187 -0.344773 0 41.0331 4.84499 0 65.858 0 0 0 0.242744 0 0.107633 
0 0 -1.35494 -2.42118 -2.4652 1.98564 0 0 0 0 0 0 2.80559 0 25.5819 2.80987 0 36.4676 0 0 0 -4.74671 0 -1.52187 -0.344773 0 40.7968 4.84499 0 65.6916 0 0 0 0.242744 0 0.107633 
0 0 -1.35494 -2.42118 -2.4652 1.98564 0 0 0 0 0 0 2.80559 0 25.5819 2.80987 0 36.4676 0 0 0 -4.74671 0 -1.52187 -0.344773 0 40.7968 4.84499 0 65.6916 0 0 0 0.242744 0 0.107633 
0 0 -1.35788 -2.49295 -2.7232 5.10253 0 0 0 0 0 0 2.81896 0 25.0669 2.81949 0 35.7152 0 0 0 -5.0015 0 -1.60515 -0.0964235 0 41.4043 5.11036 0 66.5513 0 0 0 -0.0169806 0 0.0294784 
0 0 -1.34897 -2.49295 -2.7232 5.07706 0 0 0 0 0 0 2.81896 0 24.9995 2.81949 0 35.5877 0 0 0 -5.0015 0 -1.60515 -0.0964235 0 41.1718 5.11036 0 66.3876 0 0 0 -0.0169806 0 0.0294784 
0 0 -1.34897 -2.49295 -2.7232 5.07706 0 0 0 0 0 0 2.81896 0 24.9995 2.81949 0 35.5877 0 0 0 -5.0015 0 -1.60515 -0.0964235 0 41.1718 5.11036 0 66.3876 0 0 0 -0.0169806 0 0.0294784 
0 0 -1.30797 -3.09616 -2.98818 0.0294588 0 0 0 0 0 0 2.82948 0 24.497 2.82745 0 34.7329 0 0 0 -5.26232 0 -1.6904 0.160577 0 41.64 5.38202 0 67.1451 0 0 0 -0.28543 0 -0.0514084 
0 0 -1.29916 -3.09616 -2.98818 0.00399326 0 0 0 0 0 0 2.82948 0 24.4297 2.82745 0 34.6057 0 0 0 -5.26232 0 -1.6904 0.160577 0 41.4081 5.38202 0 66.9818 0 0 0 -0.28543 0 -0.0514084 
0 0 -1.29916 -3.09616 -2.98818 0.00399326 0 0 0 0 0 0 2.82948 0 24.4297 2.82745 0 34.6057 0 0 0 -5.26232 0 -1.6904 0.160577 0 41.4081 5.38202 0 66.9818 0 0 0 -0.28543 0 -0.0514084 
0 0 -1.29916 -3.09616 -2.98818 0.00399326 0 0 0 0 0 0 2.82948 0 24.4297 2.82745 0 34.6057 0 0 0 -5.26232 0 -1.6904 0.160577 0 41.4081 5.38202 0 66.9818 0 0 0 -0.28543 0 -0.0514084 
0 0 -1.31711 -1.38642 -3.28691 24.5446 0 0 0 0 0 0 2.8381 0 23.8193 2.83356 0 33.809 0 0 0 -5.56191 0 -1.78829 0.453173 0 42.7042 5.69404 0 68.3905 0 0 0 -0.591333 0 -0.143518 
0 0 -1.30899 -1.38642 -3.28691 24.5208 0 0 0 0 0 0 2.8381 0 23.7567 2.83356 0 33.6906 0 0 0 -5.56191 0 -1.78829 0.453173 0 42.4883 5.69404 0 68.2385 0 0 0 -0.591333 0 -0.143518 
0 0 -1.30899 -1.38642 -3.28691 24.5208 0 0 0 0 0 0 2.8381 0 23.7567 2.83356 0 33.6906 0 0 0 -5.56191 0 -1.78829 0.453173 0 42.4883 5.69404 0 68.2385 0 0 0 -0.591333 0 -0.143518 
0 0 -1.21049 -2.73761 -3.57853 1.59268 0 0 0 0 0 0 2.84473 0 23.2125 2.83878 0 32.6023 0 0 0 -5.85319 0 -1.88348 0.73955 0 42.5325 5.99747 0 68.8371 0 0 0 -0.890316 0 -0.233681 
0 0 -1.20204 -2.73761 -3.57853 1.56752 0 0 0 0 0 0 2.84473 0 23.1465 2.83878 0 32.4776 0 0 0 -5.85319 0 -1.88348 0.73955 0 42.3051 5.99747 0 68.677 0 0 0 -0.890316 0 -0.233681 
0 0 -1.20204 -2.73761 -3.57853 1.56752 0 0 0 0 0 0 2.84473 0 23.1465 2.83878 0 32.4776 0 0 0 -5.85319 0 -1.88348 0.73955 0 42.3051 5.99747 0 68.677 0 0 0 -0.890316 0 -0.233681 
0 0 -1.16557 -3.38699 -3.89741 3.04824 0 0 0 0 0 0 2.85023 0 22.5316 2.84274 0 31.5045 0 0 0 -6.17548 0 -1.98875 1.05445 0 43.3609 6.33312 0 70.0435 0 0 0 -1.21945 0 -0.332851 
0 0 -1.15792 -3.38699 -3.89741 3.025 0 0 0 0 0 0 2.85023 0 22.4708 2.84274 0 31.3897 0 0 0 -6.17548 0 -1.98875 1.05445 0 43.1517 6.33312 0 69.8962 0 0 0 -1.21945 0 -0.332851 
0 0 -1.15792 -3.38699 -3.89741 3.025 0 0 0 0 0 0 2.85023 0 22.4708 2.84274 0 31.3897 0 0 0 -6.17548 0 -1.98875 1.05445 0 43.1517 6.33312 0 69.8962 0 0 0 -1.21945 0 -0.332851 
0 0 -1.15792 -3.38699 -3.89741 3.025 0 0 0 0 0 0 2.85023 0 22.4708 2.84274 0 31.3897 0 0 0 -6.17548 0 -1.98875 1.05445 0 43.1517 6.33312 0 69.8962 0 0 0 -1.21945 0 -0.332851 
0 0 -1.02471 -4.88251 -4.20252 -9.10145 0 0 0 0 0 0 2.85437 0 21.8843 2.84622 0 30.1138 0 0 0 -6.48248 0 -2.08904 1.35607 0 42.8785 6.65297 0 70.3603 0 0 0 -1.53427 0 -0.427851 
0 0 -1.01679 -4.88251 -4.20252 -9.12596 0 0 0 0 0 0 2.85437 0 21.8205 2.84622 0 29.9932 0 0 0 -6.48248 0 -2.08904 1.35607 0 42.659 6.65297 0 70.2058 0 0 0 -1.53427 0 -0.427851 
0 0 -1.01679 -4.88251 -4.20252 -9.12596 0 0 0 0 0 0 2.85437 0 21.8205 2.84622 0 29.9932 0 0 0 -6.48248 0 -2.08904 1.35607 0 42.659 6.65297 0 70.2058 0 0 0 -1.53427 0 -0.427851 
0 0 -0.963197 -0.687762 -4.56054 49.0613 0 0 0 0 0 0 2.85773 0 21.2029 2.84901 0 28.982 0 0 0 -6.84479 0 -2.20734 1.7113 0 44.3865 7.03033 0 72.2158 0 0 0 -1.90536 0 -0.539767 
0 0 -0.956462 -0.687762 -4.56054 49.0398 0 0 0 0 0 0 2.85773 0 21.1473 2.84901 0 28.877 0 0 0 -6.84479 0 -2.20734 1.7113 0 44.1955 7.03033 0 72.0813 0 0 0 -1.90536 0 -0.539767 
0 0 -0.956462 -0.687762 -4.56054 49.0398 0 0 0 0 0 0 2.85773 0 21.1473 2.84901 0 28.877 0 0 0 -6.84479 0 -2.20734 1.7113 0 44.1955 7.03033 0 72.0813 0 0 0 -1.90536 0 -0.539767 
0 0 -0.757058 -3.28927 -4.85733 -1.58423 0 0 0 0 0 0 2.86023 0 20.5419 2.85142 0 27.2824 0 0 0 -7.14564 0 -2.3056 2.00569 0 42.5369 7.34384 0 71.6353 0 0 0 -2.21236 0 -0.632527 
0 0 -0.749294 -3.28927 -4.85733 -1.6094 0 0 0 0 0 0 2.86023 0 20.477 2.85142 0 27.1599 0 0 0 -7.14564 0 -2.3056 2.00569 0 42.314 7.34384 0 71.4784 0 0 0 -2.21236 0 -0.632527 
0 0 -0.749294 -3.28927 -4.85733 -1.6094 0 0 0 0 0 0 2.86023 0 20.477 2.85142 0 27.1599 0 0 0 -7.14564 0 -2.3056 2.00569 0 42.314 7.34384 0 71.4784 0 0 0 -2.21236 0 -0.632527 
0 0 -0.749294 -3.28927 -4.85733 -1.6094 0 0 0 0 0 0 2.86023 0 20.477 2.85142 0 27.1599 0 0 0 -7.14564 0 -2.3056 2.00569 0 42.314 7.34384 0 71.4784 0 0 0 -2.21236 0 -0.632527 
0 0 -0.668995 -2.5705 -5.22437 22.5017 0 0 0 0 0 0 2.86237 0 19.8908 2.85324 0 26.0474 0 0 0 -7.51763 0 -2.42701 2.37091 0 44.2696 7.7313 0 73.802 0 0 0 -2.59381 0 -0.747644 
0 0 -0.663032 -2.5705 -5.22437 22.4819 0 0 0 0 0 0 2.86237 0 19.8398 2.85324 0 25.9513 0 0 0 -7.51763 0 -2.42701 2.37091 0 44.0948 7.7313 0 73.6788 0 0 0 -2.59381 0 -0.747644 
0 0 -0.663032 -2.5705 -5.22437 22.4819 0 0 0 0 0 0 2.86237 0 19.8398 2.85324 0 25.9513 0 0 0 -7.51763 0 -2.42701 2.37091 0 44.0948 7.7313 0 73.6788 0 0 0 -2.59381 0 -0.747644 
0 0 -0.471467 -5.67303 -5.52969 -15.5562 0 0 0 0 0 0 2.86382 0 19.1856 2.855 0 24.2549 0 0 0 -7.82696 0 -2.52801 2.6745 0 42.331 8.05369 0 73.1782 0 0 0 -2.91034 0 -0.843349 
0 0 -0.464427 -5.67303 -5.52969 -15.58 0 0 0 0 0 0 2.86382 0 19.1246 2.855 0 24.14 0 0 0 -7.82696 0 -2.52801 2.6745 0 42.122 8.05369 0 73.031 0 0 0 -2.91034 0 -0.843349 
0 0 -0.464427 -5.67303 -5.52969 -15.58 0 0 0 0 0 0 2.86382 0 19.1246 2.855 0 24.14 0 0 0 -7.82696 0 -2.52801 2.6745 0 42.122 8.05369 0 73.031 0 0 0 -2.91034 0 -0.843349 
0 0 -0.337529 -2.78308 -5.87639 35.9812 0 0 0 0 0 0 2.86494 0 18.5603 2.85648 0 22.8032 0 0 0 -8.17801 0 -2.64254 3.01975 0 43.0819 8.41939 0 74.7075 0 0 0 -3.27072 0 -0.952219 
0 0 -0.331875 -2.78308 -5.87639 35.9616 0 0 0 0 0 0 2.86494 0 18.5104 2.85648 0 22.7092 0 0 0 -8.17801 0 -2.64254 3.01975 0 42.911 8.41939 0 74.5872 0 0 0 -3.27072 0 -0.952219 
0 0 -0.331875 -2.78308 -5.87639 35.9616 0 0 0 0 0 0 2.86494 0 18.5104 2.85648 0 22.7092 0 0 0 -8.17801 0 -2.64254 3.01975 0 42.911 8.41939 0 74.5872 0 0 0 -3.27072 0 -0.952219 
0 0 -0.331875 -2.78308 -5.87639 35.9616 0 0 0 0 0 0 2.86494 0 18.5104 2.85648 0 22.7092 0 0 0 -8.17801 0 -2.64254 3.01975 0 42.911 8.41939 0 74.5872 0 0 0 -3.27072 0 -0.952219 
0 0 -0.178887 -6.08445 -6.11141 -16.3798 0 0 0 0 0 0 2.86571 0 17.6538 2.85782 0 20.8222 0 0 0 -8.41708 0 -2.72059 3.25347 0 39.4047 8.66865 0 72.456 0 0 0 -3.51424 0 -1.02593 
0 0 -0.17217 -6.08445 -6.11141 -16.4033 0 0 0 0 0 0 2.86571 0 17.594 2.85782 0 20.7096 0 0 0 -8.41708 0 -2.72059 3.25347 0 39.2 8.66865 0 72.3119 0 0 0 -3.51424 0 -1.02593 
0 0 -0.17217 -6.08445 -6.11141 -16.4033 0 0 0 0 0 0 2.86571 0 17.594 2.85782 0 20.7096 0 0 0 -8.41708 0 -2.72059 3.25347 0 39.2 8.66865 0 72.3119 0 0 0 -3.51424 0 -1.02593 
0 0 -0.0548941 -3.41639 -6.39696 33.3153 0 0 0 0 0 0 2.86627 0 17.049 2.85897 0 19.3713 0 0 0 -8.70524 0 -2.81458 3.53792 0 39.8742 8.96888 0 73.6897 0 0 0 -3.81109 0 -1.11567 
0 0 -0.0500584 -3.41639 -6.39696 33.2982 0 0 0 0 0 0 2.86627 0 17.0056 2.85897 0 19.2894 0 0 0 -8.70524 0 -2.81458 3.53792 0 39.7254 8.96888 0 73.585 0 0 0 -3.81109 0 -1.11567 
0 0 -0.0500584 -3.41639 -6.39696 33.2982 0 0 0 0 0 0 2.86627 0 17.0056 2.85897 0 19.2894 0 0 0 -8.70524 0 -2.81458 3.53792 0 39.7254 8.96888 0 73.585 0 0 0 -3.81109 0 -1.11567 
0 0 0.043278 -6.87275 -6.56734 -20.035 0 0 0 0 0 0 2.86664 0 16.0694 2.86 0 17.5458 0 0 0 -8.87865 0 -2.87119 3.70731 0 35.8776 9.14976 0 70.8855 0 0 0 -3.98744 0 -1.16911 
0 0 0.0490691 -6.87275 -6.56734 -20.0557 0 0 0 0 0 0 2.86664 0 16.017 2.86 0 17.4472 0 0 0 -8.87865 0 -2.87119 3.70731 0 35.6986 9.14976 0 70.7595 0 0 0 -3.98744 0 -1.16911 
0 0 0.0490691 -6.87275 -6.56734 -20.0557 0 0 0 0 0 0 2.86664 0 16.017 2.86 0 17.4472 0 0 0 -8.87865 0 -2.87119 3.70731 0 35.6986 9.14976 0 70.7595 0 0 0 -3.98744 0 -1.16911 
0 0 0.0490691 -6.87275 -6.56734 -20.0557 0 0 0 0 0 0 2.86664 0 16.017 2.86 0 17.4472 0 0 0 -8.87865 0 -2.87119 3.70731 0 35.6986 9.14976 0 70.7595 0 0 0 -3.98744 0 -1.16911 
0 0 0.152451 -4.25717 -6.77957 29.4592 0 0 0 0 0 0 2.86687 0 15.4607 2.86089 0 16.1247 0 0 0 -9.09226 0 -2.94085 3.91871 0 35.6971 9.37234 0 71.4606 0 0 0 -4.20803 0 -1.23582 
0 0 0.156548 -4.25717 -6.77957 29.4446 0 0 0 0 0 0 2.86687 0 15.4237 2.86089 0 16.0549 0 0 0 -9.09226 0 -2.94085 3.91871 0 35.5703 9.37234 0 71.3713 0 0 0 -4.20803 0 -1.23582 
0 0 0.156548 -4.25717 -6.77957 29.4446 0 0 0 0 0 0 2.86687 0 15.4237 2.86089 0 16.0549 0 0 0 -9.09226 0 -2.94085 3.91871 0 35.5703 9.37234 0 71.3713 0 0 0 -4.20803 0 -1.23582 
0 0 0.202779 -7.67841 -6.87094 -23.6349 0 0 0 0 0 0 2.867 0 14.3934 2.86161 0 14.4482 0 0 0 -9.18501 0 -2.97115 4.00941 0 31.2047 9.4692 0 67.902 0 0 0 -4.30231 0 -1.26445 
0 0 0.207679 -7.67841 -6.87094 -23.6524 0 0 0 0 0 0 2.867 0 14.3489 2.86161 0 14.3645 0 0 0 -9.18501 0 -2.97115 4.00941 0 31.0526 9.4692 0 67.795 0 0 0 -4.30231 0 -1.26445 
0 0 0.207679 -7.67841 -6.87094 -23.6524 0 0 0 0 0 0 2.867 0 14.3489 2.86161 0 14.3645 0 0 0 -9.18501 0 -2.97115 4.00941 0 31.0526 9.4692 0 67.795 0 0 0 -4.30231 0 -1.26445 
0 0 0.29327 -4.94233 -6.99762 26.5852 0 0 0 0 0 0 2.86696 0 13.8028 2.86228 0 13.1554 0 0 0 -9.31213 0 -3.01259 4.13547 0 30.4711 9.60166 0 67.8467 0 0 0 -4.43386 0 -1.30424 
0 0 0.296558 -4.94233 -6.99762 26.5734 0 0 0 0 0 0 2.86696 0 13.7731 2.86228 0 13.0995 0 0 0 -9.31213 0 -3.01259 4.13547 0 30.3695 9.60166 0 67.7752 0 0 0 -4.43386 0 -1.30424 
0 0 0.296558 -4.94233 -6.99762 26.5734 0 0 0 0 0 0 2.86696 0 13.7731 2.86228 0 13.0995 0 0 0 -9.31213 0 -3.01259 4.13547 0 30.3695 9.60166 0 67.7752 0 0 0 -4.43386 0 -1.30424 
0 0 0.296558 -4.94233 -6.99762 26.5734 0 0 0 0 0 0 2.86696 0 13.7731 2.86228 0 13.0995 0 0 0 -9.31213 0 -3.01259 4.13547 0 30.3695 9.60166 0 67.7752 0 0 0 -4.43386 0 -1.30424 
0 0 0.308156 -8.21589 -7.00399 -25.8738 0 0 0 0 0 0 2.86694 0 12.7159 2.86295 0 11.7017 0 0 0 -9.31773 0 -3.01447 4.14122 0 25.6698 9.60771 0 63.6974 0 0 0 -4.43956 0 -1.30605 
0 0 0.312113 -8.21589 -7.00399 -25.8879 0 0 0 0 0 0 2.86694 0 12.6801 2.86295 0 11.6344 0 0 0 -9.31773 0 -3.01447 4.14122 0 25.5475 9.60771 0 63.6113 0 0 0 -4.43956 0 -1.30605 
0 0 0.312113 -8.21589 -7.00399 -25.8879 0 0 0 0 0 0 2.86694 0 12.6801 2.86295 0 11.6344 0 0 0 -9.31773 0 -3.01447 4.14122 0 25.5475 9.60771 0 63.6113 0 0 0 -4.43956 0 -1.30605 
0 0 0.379219 -5.30321 -7.04557 25.1357 0 0 0 0 0 0 2.86692 0 12.2339 2.86346 0 10.6784 0 0 0 -9.35901 0 -3.02791 4.18233 0 24.7591 9.65073 0 63.3208 0 0 0 -4.48251 0 -1.31903 
0 0 0.381627 -5.30321 -7.04557 25.1271 0 0 0 0 0 0 2.86692 0 12.2124 2.86346 0 10.6378 0 0 0 -9.35901 0 -3.02791 4.18233 0 24.6853 9.65073 0 63.2689 0 0 0 -4.48251 0 -1.31903 
0 0 0.381627 -5.30321 -7.04557 25.1271 0 0 0 0 0 0 2.86692 0 12.2124 2.86346 0 10.6378 0 0 0 -9.35901 0 -3.02791 4.18233 0 24.6853 9.65073 0 63.2689 0 0 0 -4.48251 0 -1.31903 
0 0 0.361047 -8.41331 -6.97286 -26.7307 0 0 0 0 0 0 2.86688 0 11.2902 2.86397 0 9.63936 0 0 0 -9.2834 0 -3.00331 4.10915 0 20.1701 9.57214 0 59.0495 0 0 0 -4.4059 0 -1.29593 
0 0 0.364085 -8.41331 -6.97286 -26.7415 0 0 0 0 0 0 2.86688 0 11.263 2.86397 0 9.58801 0 0 0 -9.2834 0 -3.00331 4.10915 0 20.0768 9.57214 0 58.9838 0 0 0 -4.4059 0 -1.29593 
0 0 0.364085 -8.41331 -6.97286 -26.7415 0 0 0 0 0 0 2.86688 0 11.263 2.86397 0 9.58801 0 0 0 -9.2834 0 -3.00331 4.10915 0 20.0768 9.57214 0 58.9838 0 0 0 -4.4059 0 -1.29593 
0 0 0.364085 -8.41331 -6.97286 -26.7415 0 0 0 0 0 0 2.86688 0 11.263 2.86397 0 9.58801 0 0 0 -9.2834 0 -3.00331 4.10915 0 20.0768 9.57214 0 58.9838 0 0 0 -4.4059 0 -1.29593 
0 0 0.413816 -5.34306 -6.93989 24.8218 0 0 0 0 0 0 2.86683 0 10.9803 2.86434 0 8.95604 0 0 0 -9.24964 0 -2.9923 4.07584 0 19.3807 9.53696 0 58.6389 0 0 0 -4.37124 0 -1.28543 
0 0 0.41541 -5.34306 -6.93989 24.8162 0 0 0 0 0 0 2.86683 0 10.9662 2.86434 0 8.92943 0 0 0 -9.24964 0 -2.9923 4.07584 0 19.3324 9.53696 0 58.6049 0 0 0 -4.37124 0 -1.28543 
0 0 0.41541 -5.34306 -6.93989 24.8162 0 0 0 0 0 0 2.86683 0 10.9662 2.86434 0 8.92943 0 0 0 -9.24964 0 -2.9923 4.07584 0 19.3324 9.53696 0 58.6049 0 0 0 -4.37124 0 -1.28543 
0 0 0.375734 -8.32991 -6.80106 -26.7742 0 0 0 0 0 0 2.86677 0 10.1931 2.86471 0 8.2388 0 0 0 -9.10616 0 -2.94556 3.93666 0 15.0091 9.38764 0 54.3691 0 0 0 -4.22579 0 -1.2415 
0 0 0.378011 -8.32991 -6.80106 -26.7822 0 0 0 0 0 0 2.86677 0 10.1728 2.86471 0 8.20059 0 0 0 -9.10616 0 -2.94556 3.93666 0 14.9397 9.38764 0 54.3202 0 0 0 -4.22579 0 -1.2415 
0 0 0.378011 -8.32991 -6.80106 -26.7822 0 0 0 0 0 0 2.86677 0 10.1728 2.86471 0 8.20059 0 0 0 -9.10616 0 -2.94556 3.93666 0 14.9397 9.38764 0 54.3202 0 0 0 -4.22579 0 -1.2415 
0 0 0.418854 -5.15386 -6.70909 24.9991 0 0 0 0 0 0 2.86672 0 10.0486 2.86495 0 7.81949 0 0 0 -9.01296 0 -2.91515 3.84445 0 14.384 9.29051 0 54.032 0 0 0 -4.12969 0 -1.21241 
0 0 0.41977 -5.15386 -6.70909 24.9959 0 0 0 0 0 0 2.86672 0 10.0407 2.86495 0 7.80437 0 0 0 -9.01296 0 -2.91515 3.84445 0 14.3566 9.29051 0 54.0127 0 0 0 -4.12969 0 -1.21241 
0 0 0.41977 -5.15386 -6.70909 24.9959 0 0 0 0 0 0 2.86672 0 10.0407 2.86495 0 7.80437 0 0 0 -9.01296 0 -2.91515 3.84445 0 14.3566 9.29051 0 54.0127 0 0 0 -4.12969 0 -1.21241 
0 0 0.41977 -5.15386 -6.70909 24.9959 0 0 0 0 0 0 2.86672 0 10.0407 2.86495 0 7.80437 0 0 0 -9.01296 0 -2.91515 3.84445 0 14.3566 9.29051 0 54.0127 0 0 0 -4.12969 0 -1.21241 
0 0 0.371387 -8.0605 -6.51977 -26.4924 0 0 0 0 0 0 2.86667 0 9.41666 2.86523 0 7.32918 0 0 0 -8.81776 0 -2.85153 3.65487 0 10.2063 9.08727 0 49.8535 0 0 0 -3.93165 0 -1.15258 
0 0 0.373071 -8.0605 -6.51977 -26.4983 0 0 0 0 0 0 2.86667 0 9.40171 2.86523 0 7.30106 0 0 0 -8.81776 0 -2.85153 3.65487 0 10.1552 9.08727 0 49.8174 0 0 0 -3.93165 0 -1.15258 
0 0 0.373071 -8.0605 -6.51977 -26.4983 0 0 0 0 0 0 2.86667 0 9.40171 2.86523 0 7.30106 0 0 0 -8.81776 0 -2.85153 3.65487 0 10.1552 9.08727 0 49.8174 0 0 0 -3.93165 0 -1.15258 
0 0 0.413184 -4.81648 -6.3853 25.3716 0 0 0 0 0 0 2.86662 0 9.42525 2.86538 0 7.10183 0 0 0 -8.68157 0 -2.8071 3.52026 0 9.76861 8.94535 0 49.6653 0 0 0 -3.79127 0 -1.11011 
0 0 0.413564 -4.81648 -6.3853 25.3703 0 0 0 0 0 0 2.86662 0 9.42204 2.86538 0 7.09569 0 0 0 -8.68157 0 -2.8071 3.52026 0 9.75747 8.94535 0 49.6575 0 0 0 -3.79127 0 -1.11011 
0 0 0.413564 -4.81648 -6.3853 25.3703 0 0 0 0 0 0 2.86662 0 9.42204 2.86538 0 7.09569 0 0 0 -8.68157 0 -2.8071 3.52026 0 9.75747 8.94535 0 49.6575 0 0 0 -3.79127 0 -1.11011 
0 0 0.364404 -7.66683 -6.16129 -26.0215 0 0 0 0 0 0 2.86659 0 8.93666 2.86557 0 6.7653 0 0 0 -8.45105 0 -2.73194 3.29606 0 5.77483 8.70528 0 45.6481 0 0 0 -3.5571 0 -1.03938 
0 0 0.365639 -7.66683 -6.16129 -26.0258 0 0 0 0 0 0 2.86659 0 8.92572 2.86557 0 6.74476 0 0 0 -8.45105 0 -2.73194 3.29606 0 5.73746 8.70528 0 45.6218 0 0 0 -3.5571 0 -1.03938 
0 0 0.365639 -7.66683 -6.16129 -26.0258 0 0 0 0 0 0 2.86659 0 8.92572 2.86557 0 6.74476 0 0 0 -8.45105 0 -2.73194 3.29606 0 5.73746 8.70528 0 45.6218 0 0 0 -3.5571 0 -1.03938 
0 0 0.365639 -7.66683 -6.16129 -26.0258 0 0 0 0 0 0 2.86659 0 8.92572 2.86557 0 6.74476 0 0 0 -8.45105 0 -2.73194 3.29606 0 5.73746 8.70528 0 45.6218 0 0 0 -3.5571 0 -1.03938 
0 0 0.410972 -4.37722 -6.00072 25.8945 0 0 0 0 0 0 2.86656 0 9.07977 2.86565 0 6.67863 0 0 0 -8.28818 0 -2.6788 3.1354 0 5.56803 8.53556 0 45.6733 0 0 0 -3.38949 0 -0.988706 
0 0 0.410931 -4.37722 -6.00072 25.8947 0 0 0 0 0 0 2.86656 0 9.08026 2.86565 0 6.67948 0 0 0 -8.28818 0 -2.6788 3.1354 0 5.56959 8.53556 0 45.6745 0 0 0 -3.38949 0 -0.988706 
0 0 0.410931 -4.37722 -6.00072 25.8947 0 0 0 0 0 0 2.86656 0 9.08026 2.86565 0 6.67948 0 0 0 -8.28818 0 -2.6788 3.1354 0 5.56959 8.53556 0 45.6745 0 0 0 -3.38949 0 -0.988706 
0 0 0.365705 -7.18842 -5.75793 -25.3933 0 0 0 0 0 0 2.86654 0 8.71409 2.86578 0 6.45009 0 0 0 -8.03882 0 -2.59746 2.89248 0 1.78838 8.27584 0 41.8857 0 0 0 -3.13575 0 -0.91209 
0 0 0.366596 -7.18842 -5.75793 -25.3963 0 0 0 0 0 0 2.86654 0 8.70618 2.86578 0 6.43527 0 0 0 -8.03882 0 -2.59746 2.89248 0 1.76141 8.27584 0 41.8666 0 0 0 -3.13575 0 -0.91209 
0 0 0.366596 -7.18842 -5.75793 -25.3963 0 0 0 0 0 0 2.86654 0 8.70618 2.86578 0 6.43527 0 0 0 -8.03882 0 -2.59746 2.89248 0 1.76141 8.27584 0 41.8666 0 0 0 -3.13575 0 -0.91209 
0 0 0.418926 -3.87617 -5.58762 26.5067 0 0 0 0 0 0 2.86654 0 8.96485 2.86581 0 6.474 0 0 0 -7.86565 0 -2.54095 2.72212 0 1.88216 8.0954 0 42.1826 0 0 0 -2.95795 0 -0.858369 
0 0 0.418549 -3.87617 -5.58762 26.508 0 0 0 0 0 0 2.86654 0 8.96826 2.86581 0 6.48035 0 0 0 -7.86565 0 -2.54095 2.72212 0 1.89373 8.0954 0 42.1908 0 0 0 -2.95795 0 -0.858369 
0 0 0.418549 -3.87617 -5.58762 26.508 0 0 0 0 0 0 2.86654 0 8.96826 2.86581 0 6.48035 0 0 0 -7.86565 0 -2.54095 2.72212 0 1.89373 8.0954 0 42.1908 0 0 0 -2.95795 0 -0.858369 
0 0 0.418549 -3.87617 -5.58762 26.508 0 0 0 0 0 0 2.86654 0 8.96826 2.86581 0 6.48035 0 0 0 -7.86565 0 -2.54095 2.72212 0 1.89373 8.0954 0 42.1908 0 0 0 -2.95795 0 -0.858369 
0 0 0.378212 -6.67208 -5.34185 -24.732 0 0 0 0 0 0 2.86654 0 8.69371 2.86589 0 6.32614 0 0 0 -7.61377 0 -2.45875 2.47626 0 -1.63159 7.83302 0 38.6816 0 0 0 -2.70112 0 -0.78085 
0 0 0.378843 -6.67208 -5.34185 -24.7342 0 0 0 0 0 0 2.86654 0 8.68809 2.86589 0 6.31562 0 0 0 -7.61377 0 -2.45875 2.47626 0 -1.65073 7.83302 0 38.668 0 0 0 -2.70112 0 -0.78085 
0 0 0.378843 -6.67208 -5.34185 -24.7342 0 0 0 0 0 0 2.86654 0 8.68809 2.86589 0 6.31562 0 0 0 -7.61377 0 -2.45875 2.47626 0 -1.65073 7.83302 0 38.668 0 0 0 -2.70112 0 -0.78085 
0 0 0.435669 -3.36674 -5.17724 27.0426 0 0 0 0 0 0 2.86655 0 9.01775 2.86588 0 6.44059 0 0 0 -7.44588 0 -2.40395 2.31164 0 -1.17465 7.65807 0 39.2864 0 0 0 -2.52926 0 -0.728954 
0 0 0.435032 -3.36674 -5.17724 27.0448 0 0 0 0 0 0 2.86655 0 9.0234 2.86588 0 6.45116 0 0 0 -7.44588 0 -2.40395 2.31164 0 -1.15541 7.65807 0 39.3 0 0 0 -2.52926 0 -0.728954 
0 0 0.435032 -3.36674 -5.17724 27.0448 0 0 0 0 0 0 2.86655 0 9.0234 2.86588 0 6.45116 0 0 0 -7.44588 0 -2.40395 2.31164 0 -1.15541 7.65807 0 39.3 0 0 0 -2.52926 0 -0.728954 
0 0 0.397516 -6.17637 -4.94263 -24.2341 0 0 0 0 0 0 2.86658 0 8.80781 2.86593 0 6.35222 0 0 0 -7.206 0 -2.32565 2.07697 0 -4.38784 7.40818 0 36.0974 0 0 0 -2.28409 0 -0.654984 
0 0 0.397965 -6.17637 -4.94263 -24.2356 0 0 0 0 0 0 2.86658 0 8.80378 2.86593 0 6.34471 0 0 0 -7.206 0 -2.32565 2.07697 0 -4.40152 7.40818 0 36.0877 0 0 0 -2.28409 0 -0.654984 
0 0 0.397965 -6.17637 -4.94263 -24.2356 0 0 0 0 0 0 2.86658 0 8.80378 2.86593 0 6.34471 0 0 0 -7.206 0 -2.32565 2.07697 0 -4.40152 7.40818 0 36.0877 0 0 0 -2.28409 0 -0.654984 
0 0 0.397965 -6.17637 -4.94263 -24.2356 0 0 0 0 0 0 2.86658 0 8.80378 2.86593 0 6.34471 0 0 0 -7.206 0 -2.32565 2.07697 0 -4.40152 7.40818 0 36.0877 0 0 0 -2.28409 0 -0.654984 
0 0 0.454546 -2.90647 -4.79628 27.3251 0 0 0 0 0 0 2.8666 0 9.1689 2.8659 0 6.53649 0 0 0 -7.05611 0 -2.2767 1.93064 0 -3.5481 7.25199 0 37.0084 0 0 0 -2.13126 0 -0.608866 
0 0 0.453727 -2.90647 -4.79628 27.3279 0 0 0 0 0 0 2.8666 0 9.1761 2.8659 0 6.54997 0 0 0 -7.05611 0 -2.2767 1.93064 0 -3.52357 7.25199 0 37.0257 0 0 0 -2.13126 0 -0.608866 
0 0 0.453727 -2.90647 -4.79628 27.3279 0 0 0 0 0 0 2.8666 0 9.1761 2.8659 0 6.54997 0 0 0 -7.05611 0 -2.2767 1.93064 0 -3.52357 7.25199 0 37.0257 0 0 0 -2.13126 0 -0.608866 
0 0 0.416042 -5.75353 -4.58322 -24.0459 0 0 0 0 0 0 2.86664 0 8.98823 2.86592 0 6.48547 0 0 0 -6.83886 0 -2.20577 1.71754 0 -6.46825 7.02566 0 34.1161 0 0 0 -1.90858 0 -0.541713 
0 0 0.416388 -5.75353 -4.58322 -24.047 0 0 0 0 0 0 2.86664 0 8.98511 2.86592 0 6.47967 0 0 0 -6.83886 0 -2.20577 1.71754 0 -6.47883 7.02566 0 34.1086 0 0 0 -1.90858 0 -0.541713 
0 0 0.416388 -5.75353 -4.58322 -24.047 0 0 0 0 0 0 2.86664 0 8.98511 2.86592 0 6.47967 0 0 0 -6.83886 0 -2.20577 1.71754 0 -6.47883 7.02566 0 34.1086 0 0 0 -1.90858 0 -0.541713 
0 0 0.468787 -2.53656 -4.46299 27.272 0 0 0 0 0 0 2.86667 0 9.35635 2.86587 0 6.71461 0 0 0 -6.715 0 -2.16532 1.59735 0 -5.28046 6.8966 0 35.2955 0 0 0 -1.78299 0 -0.503839 
0 0 0.467867 -2.53656 -4.46299 27.2751 0 0 0 0 0 0 2.86667 0 9.36439 2.86587 0 6.72968 0 0 0 -6.715 0 -2.16532 1.59735 0 -5.25305 6.8966 0 35.3148 0 0 0 -1.78299 0 -0.503839 
0 0 0.467867 -2.53656 -4.46299 27.2751 0 0 0 0 0 0 2.86667 0 9.36439 2.86587 0 6.72968 0 0 0 -6.715 0 -2.16532 1.59735 0 -5.25305 6.8966 0 35.3148 0 0 0 -1.78299 0 -0.503839 
0 0 0.467867 -2.53656 -4.46299 27.2751 0 0 0 0 0 0 2.86667 0 9.36439 2.86587 0 6.72968 0 0 0 -6.715 0 -2.16532 1.59735 0 -5.25305 6.8966 0 35.3148 0 0 0 -1.78299 0 -0.503839 
0 0 0.42848 -5.432 -4.27683 -24.196 0 0 0 0 0 0 2.86672 0 9.18116 2.86588 0 6.67749 0 0 0 -6.5258 0 -2.10352 1.41117 0 -7.95692 6.69947 0 32.6522 0 0 0 -1.5884 0 -0.445182 
0 0 0.428794 -5.432 -4.27683 -24.1971 0 0 0 0 0 0 2.86672 0 9.17832 2.86588 0 6.67221 0 0 0 -6.5258 0 -2.10352 1.41117 0 -7.96654 6.69947 0 32.6453 0 0 0 -1.5884 0 -0.445182 
0 0 0.428794 -5.432 -4.27683 -24.1971 0 0 0 0 0 0 2.86672 0 9.17832 2.86588 0 6.67221 0 0 0 -6.5258 0 -2.10352 1.41117 0 -7.96654 6.69947 0 32.6453 0 0 0 -1.5884 0 -0.445182 
0 0 0.475871 -2.27122 -4.18529 26.9133 0 0 0 0 0 0 2.86676 0 9.53778 2.86583 0 6.92536 0 0 0 -6.43067 0 -2.07245 1.31967 0 -6.49677 6.60036 0 34.0397 0 0 0 -1.49274 0 -0.416355 
0 0 0.474921 -2.27122 -4.18529 26.9165 0 0 0 0 0 0 2.86676 0 9.54605 2.86583 0 6.94087 0 0 0 -6.43067 0 -2.07245 1.31967 0 -6.46857 6.60036 0 34.0596 0 0 0 -1.49274 0 -0.416355 
0 0 0.474921 -2.27122 -4.18529 26.9165 0 0 0 0 0 0 2.86676 0 9.54605 2.86583 0 6.94087 0 0 0 -6.43067 0 -2.07245 1.31967 0 -6.46857 6.60036 0 34.0596 0 0 0 -1.49274 0 -0.416355 
0 0 0.434646 -5.21351 -4.02639 -24.62 0 0 0 0 0 0 2.8668 0 9.35531 2.86584 0 6.88122 0 0 0 -6.26977 0 -2.01989 1.16075 0 -9.00365 6.43271 0 31.5812 0 0 0 -1.32661 0 -0.366296 
0 0 0.434985 -5.21351 -4.02639 -24.6212 0 0 0 0 0 0 2.8668 0 9.35226 2.86584 0 6.87555 0 0 0 -6.26977 0 -2.01989 1.16075 0 -9.01396 6.43271 0 31.5738 0 0 0 -1.32661 0 -0.366296 
0 0 0.434985 -5.21351 -4.02639 -24.6212 0 0 0 0 0 0 2.8668 0 9.35226 2.86584 0 6.87555 0 0 0 -6.26977 0 -2.01989 1.16075 0 -9.01396 6.43271 0 31.5738 0 0 0 -1.32661 0 -0.366296 
0 0 0.434985 -5.21351 -4.02639 -24.6212 0 0 0 0 0 0 2.8668 0 9.35226 2.86584 0 6.87555 0 0 0 -6.26977 0 -2.01989 1.16075 0 -9.01396 6.43271 0 31.5738 0 0 0 -1.32661 0 -0.366296 
0 0 0.478021 -2.10155 -3.96149 26.3396 0 0 0 0 0 0 2.86683 0 9.69298 2.86579 0 7.1261 0 0 0 -6.20142 0 -1.99756 1.0959 0 -7.36412 6.36149 0 33.1089 0 0 0 -1.25876 0 -0.345868 
0 0 0.477094 -2.10155 -3.96149 26.3427 0 0 0 0 0 0 2.86683 0 9.70105 2.86579 0 7.14122 0 0 0 -6.20142 0 -1.99756 1.0959 0 -7.33661 6.36149 0 33.1283 0 0 0 -1.25876 0 -0.345868 
0 0 0.477094 -2.10155 -3.96149 26.3427 0 0 0 0 0 0 2.86683 0 9.70105 2.86579 0 7.14122 0 0 0 -6.20142 0 -1.99756 1.0959 0 -7.33661 6.36149 0 33.1283 0 0 0 -1.25876 0 -0.345868 
0 0 0.438 -5.08147 -3.82622 -25.2197 0 0 0 0 0 0 2.86687 0 9.49935 2.86579 0 7.06083 0 0 0 -6.06499 0 -1.95298 0.960609 0 -9.78072 6.21934 0 30.7668 0 0 0 -1.11729 0 -0.303256 
0 0 0.438398 -5.08147 -3.82622 -25.2211 0 0 0 0 0 0 2.86687 0 9.49581 2.86579 0 7.05425 0 0 0 -6.06499 0 -1.95298 0.960609 0 -9.79271 6.21934 0 30.7583 0 0 0 -1.11729 0 -0.303256 
0 0 0.438398 -5.08147 -3.82622 -25.2211 0 0 0 0 0 0 2.86687 0 9.49581 2.86579 0 7.05425 0 0 0 -6.06499 0 -1.95298 0.960609 0 -9.79271 6.21934 0 30.7583 0 0 0 -1.11729 0 -0.303256 
0 0 0.479102 -2.00568 -3.78264 25.6502 0 0 0 0 0 0 2.8669 0 9.81722 2.86575 0 7.28997 0 0 0 -6.01809 0 -1.93766 0.917071 0 -8.0515 6.17047 0 32.367 0 0 0 -1.07168 0 -0.289543 
0 0 0.478223 -2.00568 -3.78264 25.6531 0 0 0 0 0 0 2.8669 0 9.82487 2.86575 0 7.3043 0 0 0 -6.01809 0 -1.93766 0.917071 0 -8.02542 6.17047 0 32.3855 0 0 0 -1.07168 0 -0.289543 
0 0 0.478223 -2.00568 -3.78264 25.6531 0 0 0 0 0 0 2.8669 0 9.82487 2.86575 0 7.3043 0 0 0 -6.01809 0 -1.93766 0.917071 0 -8.02542 6.17047 0 32.3855 0 0 0 -1.07168 0 -0.289543 
0 0 0.478223 -2.00568 -3.78264 25.6531 0 0 0 0 0 0 2.8669 0 9.82487 2.86575 0 7.3043 0 0 0 -6.01809 0 -1.93766 0.917071 0 -8.02542 6.17047 0 32.3855 0 0 0 -1.07168 0 -0.289543 
0 0 0.441746 -5.01075 -3.66477 -25.8998 0 0 0 0 0 0 2.86693 0 9.61283 2.86576 0 7.19882 0 0 0 -5.89969 0 -1.89897 0.799191 0 -10.448 6.0471 0 30.0758 0 0 0 -0.948395 0 -0.25242 
0 0 0.442212 -5.01075 -3.66477 -25.9014 0 0 0 0 0 0 2.86693 0 9.60873 2.86576 0 7.19116 0 0 0 -5.89969 0 -1.89897 0.799191 0 -10.462 6.0471 0 30.0659 0 0 0 -0.948395 0 -0.25242 
0 0 0.442212 -5.01075 -3.66477 -25.9014 0 0 0 0 0 0 2.86693 0 9.60873 2.86576 0 7.19116 0 0 0 -5.89969 0 -1.89897 0.799191 0 -10.462 6.0471 0 30.0659 0 0 0 -0.948395 0 -0.25242 
0 0 0.481164 -1.95672 -3.63534 24.9347 0 0 0 0 0 0 2.86695 0 9.91244 2.86572 0 7.40963 0 0 0 -5.86702 0 -1.8883 0.769793 0 -8.70324 6.01306 0 31.6862 0 0 0 -0.917553 0 -0.24316 
0 0 0.480336 -1.95672 -3.63534 24.9374 0 0 0 0 0 0 2.86695 0 9.91964 2.86572 0 7.42314 0 0 0 -5.86702 0 -1.8883 0.769793 0 -8.67868 6.01306 0 31.7035 0 0 0 -0.917553 0 -0.24316 
0 0 0.480336 -1.95672 -3.63534 24.9374 0 0 0 0 0 0 2.86695 0 9.91964 2.86572 0 7.42314 0 0 0 -5.86702 0 -1.8883 0.769793 0 -8.67868 6.01306 0 31.7035 0 0 0 -0.917553 0 -0.24316 
0 0 0.446228 -4.97347 -3.52748 -26.5724 0 0 0 0 0 0 2.86697 0 9.69863 2.86573 0 7.29686 0 0 0 -5.75899 0 -1.85299 0.661913 0 -11.1331 5.90048 0 29.3873 0 0 0 -0.80471 0 -0.209189 
0 0 0.446753 -4.97347 -3.52748 -26.5742 0 0 0 0 0 0 2.86697 0 9.69404 2.86573 0 7.28827 0 0 0 -5.75899 0 -1.85299 0.661913 0 -11.1487 5.90048 0 29.3763 0 0 0 -0.80471 0 -0.209189 
0 0 0.446753 -4.97347 -3.52748 -26.5742 0 0 0 0 0 0 2.86697 0 9.69404 2.86573 0 7.28827 0 0 0 -5.75899 0 -1.85299 0.661913 0 -11.1487 5.90048 0 29.3763 0 0 0 -0.80471 0 -0.209189 
0 0 0.446753 -4.97347 -3.52748 -26.5742 0 0 0 0 0 0 2.86697 0 9.69404 2.86573 0 7.28827 0 0 0 -5.75899 0 -1.85299 0.661913 0 -11.1487 5.90048 0 29.3763 0 0 0 -0.80471 0 -0.209189 
0 0 0.483314 -1.92658 -3.50449 24.2772 0 0 0 0 0 0 2.86699 0 9.98238 2.86569 0 7.49492 0 0 0 -5.73279 0 -1.84443 0.638962 0 -9.42601 5.87319 0 30.956 0 0 0 -0.780609 0 -0.201961 
0 0 0.482521 -1.92658 -3.50449 24.2799 0 0 0 0 0 0 2.86699 0 9.98926 2.86569 0 7.50783 0 0 0 -5.73279 0 -1.84443 0.638962 0 -9.40254 5.87319 0 30.9725 0 0 0 -0.780609 0 -0.201961 
0 0 0.482521 -1.92658 -3.50449 24.2799 0 0 0 0 0 0 2.86699 0 9.98926 2.86569 0 7.50783 0 0 0 -5.73279 0 -1.84443 0.638962 0 -9.40254 5.87319 0 30.9725 0 0 0 -0.780609 0 -0.201961 
0 0 0.447803 -4.92456 -3.39175 -27.0191 0 0 0 0 0 0 2.8672 0 9.76384 2.85401 0 7.22396 0 0 0 -5.62803 0 -1.81018 0.537861 0 -11.8074 5.764 0 28.6196 0 0 0 -0.67486 0 -0.170127 
0 0 0.448352 -4.92456 -3.39175 -27.0209 0 0 0 0 0 0 2.8672 0 9.7591 2.85401 0 7.21506 0 0 0 -5.62803 0 -1.81018 0.537861 0 -11.8236 5.764 0 28.6082 0 0 0 -0.67486 0 -0.170127 
0 0 0.448352 -4.92456 -3.39175 -27.0209 0 0 0 0 0 0 2.8672 0 9.7591 2.85401 0 7.21506 0 0 0 -5.62803 0 -1.81018 0.537861 0 -11.8236 5.764 0 28.6082 0 0 0 -0.67486 0 -0.170127 
0 0 0.483213 -1.89795 -3.3716 23.5636 0 0 0 0 0 0 2.86718 0 10.0336 2.85632 0 7.53367 0 0 0 -5.59937 0 -1.80081 0.515406 0 -10.2254 5.73413 0 30.0611 0 0 0 -0.651285 0 -0.163056 
0 0 0.482445 -1.89795 -3.3716 23.5662 0 0 0 0 0 0 2.86718 0 10.0402 2.85632 0 7.54609 0 0 0 -5.59937 0 -1.80081 0.515406 0 -10.2028 5.73413 0 30.077 0 0 0 -0.651285 0 -0.163056 
0 0 0.482445 -1.89795 -3.3716 23.5662 0 0 0 0 0 0 2.86718 0 10.0402 2.85632 0 7.54609 0 0 0 -5.59937 0 -1.80081 0.515406 0 -10.2028 5.73413 0 30.077 0 0 0 -0.651285 0 -0.163056 
0 0 0.482445 -1.89795 -3.3716 23.5662 0 0 0 0 0 0 2.86718 0 10.0402 2.85632 0 7.54609 0 0 0 -5.59937 0 -1.80081 0.515406 0 -10.2028 5.73413 0 30.077 0 0 0 -0.651285 0 -0.163056 
0 0 0.440464 -4.74301 -3.20224 -26.381 0 0 0 0 0 0 2.86739 0 9.82189 2.7619 0 6.18704 0 0 0 -5.49541 0 -1.76682 0.440434 0 -11.8932 5.62575 0 27.8099 0 0 0 -0.57285 0 -0.139451 
0 0 0.440913 -4.74301 -3.20224 -26.3825 0 0 0 0 0 0 2.86739 0 9.81803 2.7619 0 6.17977 0 0 0 -5.49541 0 -1.76682 0.440434 0 -11.9064 5.62575 0 27.8006 0 0 0 -0.57285 0 -0.139451 
0 0 0.440913 -4.74301 -3.20224 -26.3825 0 0 0 0 0 0 2.86739 0 9.81803 2.7619 0 6.17977 0 0 0 -5.49541 0 -1.76682 0.440434 0 -11.9064 5.62575 0 27.8006 0 0 0 -0.57285 0 -0.139451 
0 0 0.478878 -1.90061 -3.20219 21.7848 0 0 0 0 0 0 2.86733 0 10.0759 2.78262 0 7.36 0 0 0 -5.44738 0 -1.75112 0.419674 0 -10.7794 5.57571 0 28.7688 0 0 0 -0.551024 0 -0.132914 
0 0 0.478202 -1.90061 -3.20219 21.7871 0 0 0 0 0 0 2.86733 0 10.0817 2.78262 0 7.37092 0 0 0 -5.44738 0 -1.75112 0.419674 0 -10.7595 5.57571 0 28.7828 0 0 0 -0.551024 0 -0.132914 
0 0 0.478202 -1.90061 -3.20219 21.7871 0 0 0 0 0 0 2.86733 0 10.0817 2.78262 0 7.37092 0 0 0 -5.44738 0 -1.75112 0.419674 0 -10.7595 5.57571 0 28.7828 0 0 0 -0.551024 0 -0.132914 
0 0 0.423287 -4.33841 -2.91217 -23.8666 0 0 0 0 0 0 2.86749 0 9.89001 2.5283 0 3.83413 0 0 0 -5.3546 0 -1.72077 0.383953 0 -11.3374 5.47897 0 27.1413 0 0 0 -0.513642 0 -0.121667 
0 0 0.423497 -4.33841 -2.91217 -23.8673 0 0 0 0 0 0 2.86749 0 9.88815 2.5283 0 3.83067 0 0 0 -5.3546 0 -1.72077 0.383953 0 -11.3437 5.47897 0 27.1369 0 0 0 -0.513642 0 -0.121667 
0 0 0.423497 -4.33841 -2.91217 -23.8673 0 0 0 0 0 0 2.86749 0 9.88815 2.5283 0 3.83067 0 0 0 -5.3546 0 -1.72077 0.383953 0 -11.3437 5.47897 0 27.1369 0 0 0 -0.513642 0 -0.121667 
0 0 0.423497 -4.33841 -2.91217 -23.8673 0 0 0 0 0 0 2.86749 0 9.88815 2.5283 0 3.83067 0 0 0 -5.3546 0 -1.72077 0.383953 0 -11.3437 5.47897 0 27.1369 0 0 0 -0.513642 0 -0.121667 
0 0 0.47046 -1.94544 -2.96681 18.2427 0 0 0 0 0 0 2.8674 0 10.1234 2.59571 0 6.82365 0 0 0 -5.26527 0 -1.69156 0.371197 0 -10.8166 5.38585 0 26.9498 0 0 0 -0.500119 0 -0.117649 
0 0 0.469966 -1.94544 -2.96681 18.2443 0 0 0 0 0 0 2.8674 0 10.1277 2.59571 0 6.8317 0 0 0 -5.26527 0 -1.69156 0.371197 0 -10.802 5.38585 0 26.9601 0 0 0 -0.500119 0 -0.117649 
0 0 0.469966 -1.94544 -2.96681 18.2443 0 0 0 0 0 0 2.8674 0 10.1277 2.59571 0 6.8317 0 0 0 -5.26527 0 -1.69156 0.371197 0 -10.802 5.38585 0 26.9601 0 0 0 -0.500119 0 -0.117649 
0 0 0.396238 -3.6122 -2.46908 -18.6467 0 0 0 0 0 0 2.86758 0 9.99266 2.07485 0 -0.461009 0 0 0 -5.20261 0 -1.67105 0.394304 0 -9.77114 5.3205 0 26.7692 0 0 0 -0.524334 0 -0.124924 
0 0 0.396033 -3.6122 -2.46908 -18.646 0 0 0 0 0 0 2.86758 0 9.99431 2.07485 0 -0.45784 0 0 0 -5.20261 0 -1.67105 0.394304 0 -9.7654 5.3205 0 26.7732 0 0 0 -0.524334 0 -0.124924 
0 0 0.396033 -3.6122 -2.46908 -18.646 0 0 0 0 0 0 2.86758 0 9.99431 2.07485 0 -0.45784 0 0 0 -5.20261 0 -1.67105 0.394304 0 -9.7654 5.3205 0 26.7732 0 0 0 -0.524334 0 -0.124924 
0 0 0.457007 -1.55193 -2.58676 16.8271 0 0 0 0 0 0 2.75299 0 8.87927 2.23307 0 5.76987 0 0 0 -5.13709 0 -1.64962 0.353793 0 -11.0639 5.25216 0 26.6129 0 0 0 -0.481837 0 -0.112169 
0 0 0.456691 -1.55193 -2.58676 16.8281 0 0 0 0 0 0 2.75299 0 8.88213 2.23307 0 5.77516 0 0 0 -5.13709 0 -1.64962 0.353793 0 -11.0543 5.25216 0 26.6198 0 0 0 -0.481837 0 -0.112169 
0 0 0.456691 -1.55193 -2.58676 16.8281 0 0 0 0 0 0 2.75299 0 8.88213 2.23307 0 5.77516 0 0 0 -5.13709 0 -1.64962 0.353793 0 -11.0543 5.25216 0 26.6198 0 0 0 -0.481837 0 -0.112169 
0 0 0.456691 -1.55193 -2.58676 16.8281 0 0 0 0 0 0 2.75299 0 8.88213 2.23307 0 5.77516 0 0 0 -5.13709 0 -1.64962 0.353793 0 -11.0543 5.25216 0 26.6198 0 0 0 -0.481837 0 -0.112169 
0 0 0.383061 -3.0575 -2.05445 -16.9752 0 0 0 0 0 0 2.77602 0 9.77959 1.68886 0 -2.54957 0 0 0 -5.06108 0 -1.62474 0.365672 0 -9.82761 5.1729 0 25.7606 0 0 0 -0.494748 0 -0.115915 
0 0 0.382852 -3.0575 -2.05445 -16.9746 0 0 0 0 0 0 2.77602 0 9.78119 1.68886 0 -2.54645 0 0 0 -5.06108 0 -1.62474 0.365672 0 -9.82197 5.1729 0 25.7646 0 0 0 -0.494748 0 -0.115915 
0 0 0.382852 -3.0575 -2.05445 -16.9746 0 0 0 0 0 0 2.77602 0 9.78119 1.68886 0 -2.54645 0 0 0 -5.06108 0 -1.62474 0.365672 0 -9.82197 5.1729 0 25.7646 0 0 0 -0.494748 0 -0.115915 
0 0 0.41553 -1.64717 -2.26002 11.6618 0 0 0 0 0 0 2.40167 0 5.50211 1.92423 0 5.07636 0 0 0 -5.04587 0 -1.61976 0.335888 0 -10.3694 5.15701 0 27.0589 0 0 0 -0.463386 0 -0.106536 
0 0 0.414863 -1.64717 -2.26002 11.664 0 0 0 0 0 0 2.40167 0 5.5079 1.92423 0 5.08719 0 0 0 -5.04587 0 -1.61976 0.335888 0 -10.3497 5.15701 0 27.0729 0 0 0 -0.463386 0 -0.106536 
0 0 0.414863 -1.64717 -2.26002 11.664 0 0 0 0 0 0 2.40167 0 5.5079 1.92423 0 5.08719 0 0 0 -5.04587 0 -1.61976 0.335888 0 -10.3497 5.15701 0 27.0729 0 0 0 -0.463386 0 -0.106536 
0 0 0.361078 -2.67959 -1.5976 -14.8351 0 0 0 0 0 0 2.49464 0 9.02626 1.21031 0 -6.13685 0 0 0 -4.95157 0 -1.58891 0.387371 0 -8.34386 5.0587 0 25.1292 0 0 0 -0.5177 0 -0.122749 
0 0 0.360899 -2.67959 -1.5976 -14.8346 0 0 0 0 0 0 2.49464 0 9.02764 1.21031 0 -6.13417 0 0 0 -4.95157 0 -1.58891 0.387371 0 -8.33901 5.0587 0 25.1326 0 0 0 -0.5177 0 -0.122749 
0 0 0.360899 -2.67959 -1.5976 -14.8346 0 0 0 0 0 0 2.49464 0 9.02764 1.21031 0 -6.13417 0 0 0 -4.95157 0 -1.58891 0.387371 0 -8.33901 5.0587 0 25.1326 0 0 0 -0.5177 0 -0.122749 
0 0 0.360899 -2.67959 -1.5976 -14.8346 0 0 0 0 0 0 2.49464 0 9.02764 1.21031 0 -6.13417 0 0 0 -4.95157 0 -1.58891 0.387371 0 -8.33901 5.0587 0 25.1326 0 0 0 -0.5177 0 -0.122749 
0 0 0.406208 -1.31207 -1.84906 10.8035 0 0 0 0 0 0 2.14471 0 4.56074 1.54132 0 4.04139 0 0 0 -4.93193 0 -1.58248 0.30784 0 -10.892 5.03821 0 26.572 0 0 0 -0.434504 0 -0.0977118 
0 0 0.405676 -1.31207 -1.84906 10.8053 0 0 0 0 0 0 2.14471 0 4.56536 1.54132 0 4.05001 0 0 0 -4.93193 0 -1.58248 0.30784 0 -10.8763 5.03821 0 26.5831 0 0 0 -0.434504 0 -0.0977118 
0 0 0.405676 -1.31207 -1.84906 10.8053 0 0 0 0 0 0 2.14471 0 4.56536 1.54132 0 4.05001 0 0 0 -4.93193 0 -1.58248 0.30784 0 -10.8763 5.03821 0 26.5831 0 0 0 -0.434504 0 -0.0977118 
0 0 0.359128 -2.29415 -1.21959 -14.3489 0 0 0 0 0 0 2.28906 0 8.55641 0.895985 0 -7.011 0 0 0 -4.82509 0 -1.54753 0.323694 0 -8.88106 4.92686 0 24.485 0 0 0 -0.451464 0 -0.102707 
0 0 0.358906 -2.29415 -1.21959 -14.3482 0 0 0 0 0 0 2.28906 0 8.55814 0.895985 0 -7.00767 0 0 0 -4.82509 0 -1.54753 0.323694 0 -8.87503 4.92686 0 24.4892 0 0 0 -0.451464 0 -0.102707 
0 0 0.358906 -2.29415 -1.21959 -14.3482 0 0 0 0 0 0 2.28906 0 8.55814 0.895985 0 -7.00767 0 0 0 -4.82509 0 -1.54753 0.323694 0 -8.87503 4.92686 0 24.4892 0 0 0 -0.451464 0 -0.102707 
0 0 0.393764 -0.879793 -1.50106 11.3893 0 0 0 0 0 0 1.96297 0 4.0253 1.28981 0 3.51793 0 0 0 -4.80429 0 -1.54072 0.211348 0 -11.5463 4.90516 0 26.1149 0 0 0 -0.333919 0 -0.0673406 
0 0 0.393114 -0.879793 -1.50106 11.3914 0 0 0 0 0 0 1.96297 0 4.03087 1.28981 0 3.52834 0 0 0 -4.80429 0 -1.54072 0.211348 0 -11.5273 4.90516 0 26.1283 0 0 0 -0.333919 0 -0.0673406 
0 0 0.393114 -0.879793 -1.50106 11.3914 0 0 0 0 0 0 1.96297 0 4.03087 1.28981 0 3.52834 0 0 0 -4.80429 0 -1.54072 0.211348 0 -11.5273 4.90516 0 26.1283 0 0 0 -0.333919 0 -0.0673406 
0 0 0.393114 -0.879793 -1.50106 11.3914 0 0 0 0 0 0 1.96297 0 4.03087 1.28981 0 3.52834 0 0 0 -4.80429 0 -1.54072 0.211348 0 -11.5273 4.90516 0 26.1283 0 0 0 -0.333919 0 -0.0673406 
0 0 0.350733 -1.85127 -0.904615 -13.3629 0 0 0 0 0 0 2.14368 0 8.30402 0.702159 0 -7.26356 0 0 0 -4.68652 0 -1.5022 0.202545 0 -9.5771 4.78243 0 23.8316 0 0 0 -0.324974 0 -0.0645724 
0 0 0.350484 -1.85127 -0.904615 -13.3621 0 0 0 0 0 0 2.14368 0 8.30598 0.702159 0 -7.25978 0 0 0 -4.68652 0 -1.5022 0.202545 0 -9.57026 4.78243 0 23.8364 0 0 0 -0.324974 0 -0.0645724 
0 0 0.350484 -1.85127 -0.904615 -13.3621 0 0 0 0 0 0 2.14368 0 8.30598 0.702159 0 -7.25978 0 0 0 -4.68652 0 -1.5022 0.202545 0 -9.57026 4.78243 0 23.8364 0 0 0 -0.324974 0 -0.0645724 
0 0 0.375253 -0.468648 -1.21318 11.9481 0 0 0 0 0 0 1.80595 0 3.3982 1.13472 0 3.38462 0 0 0 -4.67198 0 -1.49744 0.0785602 0 -12.0182 4.76725 0 25.7975 0 0 0 -0.195126 0 -0.0255441 
0 0 0.374471 -0.468648 -1.21318 11.9507 0 0 0 0 0 0 1.80595 0 3.40485 1.13472 0 3.39707 0 0 0 -4.67198 0 -1.49744 0.0785602 0 -11.9956 4.76725 0 25.8135 0 0 0 -0.195126 0 -0.0255441 
0 0 0.374471 -0.468648 -1.21318 11.9507 0 0 0 0 0 0 1.80595 0 3.40485 1.13472 0 3.39707 0 0 0 -4.67198 0 -1.49744 0.0785602 0 -11.9956 4.76725 0 25.8135 0 0 0 -0.195126 0 -0.0255441 
0 0 0.33778 -1.47433 -0.636763 -12.6804 0 0 0 0 0 0 2.01806 0 8.13191 0.569854 0 -7.41707 0 0 0 -4.54246 0 -1.45507 0.0669985 0 -9.93891 4.63227 0 23.1678 0 0 0 -0.183189 0 -0.0219066 
0 0 0.337544 -1.47433 -0.636763 -12.6797 0 0 0 0 0 0 2.01806 0 8.13379 0.569854 0 -7.41347 0 0 0 -4.54246 0 -1.45507 0.0669985 0 -9.93239 4.63227 0 23.1724 0 0 0 -0.183189 0 -0.0219066 
0 0 0.337544 -1.47433 -0.636763 -12.6797 0 0 0 0 0 0 2.01806 0 8.13379 0.569854 0 -7.41347 0 0 0 -4.54246 0 -1.45507 0.0669985 0 -9.93239 4.63227 0 23.1724 0 0 0 -0.183189 0 -0.0219066 
0 0 0.337544 -1.47433 -0.636763 -12.6797 0 0 0 0 0 0 2.01806 0 8.13379 0.569854 0 -7.41347 0 0 0 -4.54246 0 -1.45507 0.0669985 0 -9.93239 4.63227 0 23.1724 0 0 0 -0.183189 0 -0.0219066 
