alexis-jensen/Push-Recovery/PushRecovery/log/torques200.txt
q0 qdot0 tau0 q1 qdot1 tau1 q2 qdot2 tau2 q3 qdot3 tau3 q4 qdot4 tau4 q5 qdot5 tau5 q6 qdot6 tau6 q7 qdot7 tau7 q8 qdot8 tau8 q9 qdot9 tau9 q10 qdot10 tau10 q11 qdot11 tau11 
0 0 0 0 0 0 0 0 0 0 0 0 0 0 0 0 0 0 0 0 0 0 0 0 0 0 0 0 0 0 0 0 0 0 0 0 
0 0 0 0 0 0 0 0 0 0 0 0 0 0 0 0 0 0 0 0 0 0 0 0 0 0 0 0 0 0 0 0 0 0 0 0 
0 0 0 0 0 0 0 0 0 0 0 0 0 0 0 0 0 0 0 0 0 0 0 0 0 0 0 0 0 0 0 0 0 0 0 0 
0 0 0 0 0 0 0 0 0 0 0 0 0 0 0 0 0 0 0 0 0 0 0 0 0 0 0 0 0 0 0 0 0 0 0 0 
0 0 0 0 0 0 0 0 0 0 0 0 0 0 0 0 0 0 0 0 0 0 0 0 0 0 0 0 0 0 0 0 0 0 0 0 
0 0 0.962841 0.415361 1.39358 -4.26573 0 0 0 0 0 0 0.536233 0 10.6892 0.499484 0 7.85564 0 0 0 0.837629 0 0.266157 -1.89346 0 -39.8953 -0.846986 0 -12.5252 0 0 0 1.90692 0 0.594718 
0 0 0.911516 0.415361 1.39358 -4.2011 0 0 0 0 0 0 0.536233 0 10.6962 0.499484 0 8.08899 0 0 0 0.837629 0 0.266157 -1.89346 0 -39.5298 -0.846986 0 -12.3922 0 0 0 1.90692 0 0.594718 
0 0 0.911516 0.415361 1.39358 -4.2011 0 0 0 0 0 0 0.536233 0 10.6962 0.499484 0 8.08899 0 0 0 0.837629 0 0.266157 -1.89346 0 -39.5298 -0.846986 0 -12.3922 0 0 0 1.90692 0 0.594718 
0 0 1.75289 5.70112 3.31473 41.8131 0 0 0 0 0 0 -0.699816 0 -6.08931 -0.705488 0 -10.8794 0 0 0 0.794487 0 0.256091 -2.60976 0 -24.5943 -0.814833 0 5.45357 0 0 0 2.63845 0 0.819705 
0 0 1.68979 5.70112 3.31473 41.8737 0 0 0 0 0 0 -0.699816 0 -6.13585 -0.705488 0 -10.6896 0 0 0 0.794487 0 0.256091 -2.60976 0 -24.3207 -0.814833 0 5.47943 0 0 0 2.63845 0 0.819705 
0 0 1.68979 5.70112 3.31473 41.8737 0 0 0 0 0 0 -0.699816 0 -6.13585 -0.705488 0 -10.6896 0 0 0 0.794487 0 0.256091 -2.60976 0 -24.3207 -0.814833 0 5.47943 0 0 0 2.63845 0 0.819705 
0 0 1.68979 5.70112 3.31473 41.8737 0 0 0 0 0 0 -0.699816 0 -6.13585 -0.705488 0 -10.6896 0 0 0 0.794487 0 0.256091 -2.60976 0 -24.3207 -0.814833 0 5.47943 0 0 0 2.63845 0 0.819705 
0 0 2.45471 3.67553 5.0155 -20.0977 0 0 0 0 0 0 -2.19037 0 -14.5177 -2.02639 0 -19.8569 0 0 0 0.553042 0 0.182952 -2.98964 0 -22.8658 -0.581947 0 11.4697 0 0 0 3.02884 0 0.939042 
0 0 2.38331 3.67553 5.0155 -20.0452 0 0 0 0 0 0 -2.19037 0 -14.6123 -2.02639 0 -19.7201 0 0 0 0.553042 0 0.182952 -2.98964 0 -22.6999 -0.581947 0 11.3887 0 0 0 3.02884 0 0.939042 
0 0 2.38331 3.67553 5.0155 -20.0452 0 0 0 0 0 0 -2.19037 0 -14.6123 -2.02639 0 -19.7201 0 0 0 0.553042 0 0.182952 -2.98964 0 -22.6999 -0.581947 0 11.3887 0 0 0 3.02884 0 0.939042 
0 0 -1.08613 8.83036 6.53902 43.2014 0 0 0 0 0 0 -2.88602 0 -17.8828 -3.36159 0 -21.8076 0 0 0 0.38618 0 0.133149 -3.17799 0 -15.3982 -0.423307 0 5.48866 0 0 0 3.22281 0 0.998244 
0 0 -1.05071 8.83036 6.53902 43.1709 0 0 0 0 0 0 -2.88602 0 -17.8594 -3.36159 0 -21.9077 0 0 0 0.38618 0 0.133149 -3.17799 0 -15.54 -0.423307 0 5.48 0 0 0 3.22281 0 0.998244 
0 0 -1.05071 8.83036 6.53902 43.1709 0 0 0 0 0 0 -2.88602 0 -17.8594 -3.36159 0 -21.9077 0 0 0 0.38618 0 0.133149 -3.17799 0 -15.54 -0.423307 0 5.48 0 0 0 3.22281 0 0.998244 
0 0 -0.013618 3.40902 6.89924 -51.0607 0 0 0 0 0 0 -4.25165 0 -28.1001 -3.27486 0 -12.5301 0 0 0 0.0477965 0 0.0275619 -3.6249 0 -25.7379 -0.0872207 0 11.6686 0 0 0 3.68364 0 1.13861 
0 0 -0.0120783 3.40902 6.89924 -51.0638 0 0 0 0 0 0 -4.25165 0 -28.1067 -3.27486 0 -12.5452 0 0 0 0.0477965 0 0.0275619 -3.6249 0 -25.7646 -0.0872207 0 11.6513 0 0 0 3.68364 0 1.13861 
0 0 -0.0120783 3.40902 6.89924 -51.0638 0 0 0 0 0 0 -4.25165 0 -28.1067 -3.27486 0 -12.5452 0 0 0 0.0477965 0 0.0275619 -3.6249 0 -25.7646 -0.0872207 0 11.6513 0 0 0 3.68364 0 1.13861 
0 0 -0.0120783 3.40902 6.89924 -51.0638 0 0 0 0 0 0 -4.25165 0 -28.1067 -3.27486 0 -12.5452 0 0 0 0.0477965 0 0.0275619 -3.6249 0 -25.7646 -0.0872207 0 11.6513 0 0 0 3.68364 0 1.13861 
0 0 -0.112671 8.29824 7.78132 30.8839 0 0 0 0 0 0 -3.59901 0 -10.925 -4.12511 0 -24.5034 0 0 0 0.225458 0 0.0883043 -3.65667 0 -19.1879 -0.280224 0 2.1423 0 0 0 3.7162 0 1.14863 
0 0 -0.11215 8.29824 7.78132 30.8821 0 0 0 0 0 0 -3.59901 0 -10.9303 -4.12511 0 -24.513 0 0 0 0.225458 0 0.0883043 -3.65667 0 -19.2055 -0.280224 0 2.12941 0 0 0 3.7162 0 1.14863 
0 0 -0.11215 8.29824 7.78132 30.8821 0 0 0 0 0 0 -3.59901 0 -10.9303 -4.12511 0 -24.513 0 0 0 0.225458 0 0.0883043 -3.65667 0 -19.2055 -0.280224 0 2.12941 0 0 0 3.7162 0 1.14863 
0 0 -0.0690787 4.11442 7.9821 -46.3006 0 0 0 0 0 0 -4.66364 0 -27.9272 -4.06142 0 -16.9746 0 0 0 -0.117011 0 -0.0196306 -3.92112 0 -24.9586 0.0632773 0 12.7941 0 0 0 3.99002 0 1.2317 
0 0 -0.0695057 4.11442 7.9821 -46.2993 0 0 0 0 0 0 -4.66364 0 -27.9237 -4.06142 0 -16.9679 0 0 0 -0.117011 0 -0.0196306 -3.92112 0 -24.9466 0.0632773 0 12.8026 0 0 0 3.99002 0 1.2317 
0 0 -0.0695057 4.11442 7.9821 -46.2993 0 0 0 0 0 0 -4.66364 0 -27.9237 -4.06142 0 -16.9679 0 0 0 -0.117011 0 -0.0196306 -3.92112 0 -24.9466 0.0632773 0 12.8026 0 0 0 3.99002 0 1.2317 
0 0 -0.241706 9.5205 8.54416 37.4189 0 0 0 0 0 0 -3.8395 0 -11.114 -4.58513 0 -24.3246 0 0 0 0.0785096 0 0.04675 -3.95943 0 -21.427 -0.147629 0 2.72548 0 0 0 4.02953 0 1.24376 
0 0 -0.241124 9.5205 8.54416 37.4171 0 0 0 0 0 0 -3.8395 0 -11.1187 -4.58513 0 -24.3334 0 0 0 0.0785096 0 0.04675 -3.95943 0 -21.4431 -0.147629 0 2.71413 0 0 0 4.02953 0 1.24376 
0 0 -0.241124 9.5205 8.54416 37.4171 0 0 0 0 0 0 -3.8395 0 -11.1187 -4.58513 0 -24.3334 0 0 0 0.0785096 0 0.04675 -3.95943 0 -21.4431 -0.147629 0 2.71413 0 0 0 4.02953 0 1.24376 
0 0 -0.241124 9.5205 8.54416 37.4171 0 0 0 0 0 0 -3.8395 0 -11.1187 -4.58513 0 -24.3334 0 0 0 0.0785096 0 0.04675 -3.95943 0 -21.4431 -0.147629 0 2.71413 0 0 0 4.02953 0 1.24376 
0 0 -0.199332 4.57857 8.26252 -49.8769 0 0 0 0 0 0 -4.95459 0 -29.673 -3.98081 0 -12.0186 0 0 0 -0.253902 0 -0.0591552 -4.28211 0 -28.366 0.18933 0 13.5086 0 0 0 4.36495 0 1.34508 
0 0 -0.200214 4.57857 8.26252 -49.8742 0 0 0 0 0 0 -4.95459 0 -29.6658 -3.98081 0 -12.0049 0 0 0 -0.253902 0 -0.0591552 -4.28211 0 -28.3413 0.18933 0 13.5262 0 0 0 4.36495 0 1.34508 
0 0 -0.200214 4.57857 8.26252 -49.8742 0 0 0 0 0 0 -4.95459 0 -29.6658 -3.98081 0 -12.0049 0 0 0 -0.253902 0 -0.0591552 -4.28211 0 -28.3413 0.18933 0 13.5262 0 0 0 4.36495 0 1.34508 
0 0 -0.356297 10.2289 8.70537 42.2091 0 0 0 0 0 0 -3.7841 0 -8.50178 -4.47242 0 -23.1118 0 0 0 0.0720604 0 0.0494131 -4.2333 0 -21.4663 -0.155721 0 0.915584 0 0 0 4.31408 0 1.32978 
0 0 -0.356236 10.2289 8.70537 42.2089 0 0 0 0 0 0 -3.7841 0 -8.50245 -4.47242 0 -23.1129 0 0 0 0.0720604 0 0.0494131 -4.2333 0 -21.4685 -0.155721 0 0.913993 0 0 0 4.31408 0 1.32978 
0 0 -0.356236 10.2289 8.70537 42.2089 0 0 0 0 0 0 -3.7841 0 -8.50245 -4.47242 0 -23.1129 0 0 0 0.0720604 0 0.0494131 -4.2333 0 -21.4685 -0.155721 0 0.913993 0 0 0 4.31408 0 1.32978 
0 0 -0.2793 5.08056 8.24943 -47.7019 0 0 0 0 0 0 -4.68845 0 -26.6817 -3.72333 0 -9.04964 0 0 0 -0.204686 0 -0.0392459 -4.52646 0 -29.0401 0.126315 0 12.6099 0 0 0 4.61941 0 1.42182 
0 0 -0.280546 5.08056 8.24943 -47.6979 0 0 0 0 0 0 -4.68845 0 -26.6713 -3.72333 0 -9.02992 0 0 0 -0.204686 0 -0.0392459 -4.52646 0 -29.0043 0.126315 0 12.6352 0 0 0 4.61941 0 1.42182 
0 0 -0.280546 5.08056 8.24943 -47.6979 0 0 0 0 0 0 -4.68845 0 -26.6713 -3.72333 0 -9.02992 0 0 0 -0.204686 0 -0.0392459 -4.52646 0 -29.0043 0.126315 0 12.6352 0 0 0 4.61941 0 1.42182 
0 0 -0.280546 5.08056 8.24943 -47.6979 0 0 0 0 0 0 -4.68845 0 -26.6713 -3.72333 0 -9.02992 0 0 0 -0.204686 0 -0.0392459 -4.52646 0 -29.0043 0.126315 0 12.6352 0 0 0 4.61941 0 1.42182 
0 0 -0.444449 10.5588 8.60819 44.1192 0 0 0 0 0 0 -3.40387 0 -5.69789 -4.19075 0 -20.8777 0 0 0 0.132916 0 0.0728369 -4.41776 0 -20.9632 -0.229889 0 0.739679 0 0 0 4.50613 0 1.38771 
0 0 -0.444686 10.5588 8.60819 44.1199 0 0 0 0 0 0 -3.40387 0 -5.6962 -4.19075 0 -20.8743 0 0 0 0.132916 0 0.0728369 -4.41776 0 -20.9572 -0.229889 0 0.743835 0 0 0 4.50613 0 1.38771 
0 0 -0.444686 10.5588 8.60819 44.1199 0 0 0 0 0 0 -3.40387 0 -5.6962 -4.19075 0 -20.8743 0 0 0 0.132916 0 0.0728369 -4.41776 0 -20.9572 -0.229889 0 0.743835 0 0 0 4.50613 0 1.38771 
0 0 -0.357921 5.29789 8.10991 -45.693 0 0 0 0 0 0 -4.26114 0 -23.974 -3.45593 0 -7.17524 0 0 0 -0.16665 0 -0.0240224 -4.65429 0 -28.1521 0.0781412 0 13.1498 0 0 0 4.75272 0 1.46197 
0 0 -0.359173 5.29789 8.10991 -45.6889 0 0 0 0 0 0 -4.26114 0 -23.9633 -3.45593 0 -7.15502 0 0 0 -0.16665 0 -0.0240224 -4.65429 0 -28.1153 0.0781412 0 13.1757 0 0 0 4.75272 0 1.46197 
0 0 -0.359173 5.29789 8.10991 -45.6889 0 0 0 0 0 0 -4.26114 0 -23.9633 -3.45593 0 -7.15502 0 0 0 -0.16665 0 -0.0240224 -4.65429 0 -28.1153 0.0781412 0 13.1757 0 0 0 4.75272 0 1.46197 
0 0 -0.506058 10.4355 8.40663 42.9449 0 0 0 0 0 0 -3.07004 0 -4.50124 -3.89602 0 -18.5948 0 0 0 0.113889 0 0.0690739 -4.51088 0 -20.2643 -0.217706 0 2.19366 0 0 0 4.60318 0 1.41696 
0 0 -0.506162 10.4355 8.40663 42.9452 0 0 0 0 0 0 -3.07004 0 -4.50063 -3.89602 0 -18.5935 0 0 0 0.113889 0 0.0690739 -4.51088 0 -20.262 -0.217706 0 2.19518 0 0 0 4.60318 0 1.41696 
0 0 -0.506162 10.4355 8.40663 42.9452 0 0 0 0 0 0 -3.07004 0 -4.50063 -3.89602 0 -18.5935 0 0 0 0.113889 0 0.0690739 -4.51088 0 -20.262 -0.217706 0 2.19518 0 0 0 4.60318 0 1.41696 
0 0 -0.506162 10.4355 8.40663 42.9452 0 0 0 0 0 0 -3.07004 0 -4.50063 -3.89602 0 -18.5935 0 0 0 0.113889 0 0.0690739 -4.51088 0 -20.262 -0.217706 0 2.19518 0 0 0 4.60318 0 1.41696 
0 0 -0.410546 5.14286 7.926 -45.4268 0 0 0 0 0 0 -3.98158 0 -22.7554 -3.23403 0 -6.15254 0 0 0 -0.219361 0 -0.0393973 -4.69224 0 -26.8345 0.127181 0 14.4034 0 0 0 4.79235 0 1.47389 
0 0 -0.411559 5.14286 7.926 -45.4234 0 0 0 0 0 0 -3.98158 0 -22.7465 -3.23403 0 -6.13589 0 0 0 -0.219361 0 -0.0393973 -4.69224 0 -26.8042 0.127181 0 14.4248 0 0 0 4.79235 0 1.47389 
0 0 -0.411559 5.14286 7.926 -45.4234 0 0 0 0 0 0 -3.98158 0 -22.7465 -3.23403 0 -6.13589 0 0 0 -0.219361 0 -0.0393973 -4.69224 0 -26.8042 0.127181 0 14.4248 0 0 0 4.79235 0 1.47389 
0 0 -0.530631 10.108 8.20413 41.2548 0 0 0 0 0 0 -2.88965 0 -4.15853 -3.67599 0 -17.1581 0 0 0 0.0287929 0 0.0428324 -4.52838 0 -19.592 -0.134141 0 3.58072 0 0 0 4.62142 0 1.42246 
0 0 -0.530458 10.108 8.20413 41.2542 0 0 0 0 0 0 -2.88965 0 -4.16025 -3.67599 0 -17.1612 0 0 0 0.0287929 0 0.0428324 -4.52838 0 -19.5978 -0.134141 0 3.5766 0 0 0 4.62142 0 1.42246 
0 0 -0.530458 10.108 8.20413 41.2542 0 0 0 0 0 0 -2.88965 0 -4.16025 -3.67599 0 -17.1612 0 0 0 0.0287929 0 0.0428324 -4.52838 0 -19.5978 -0.134141 0 3.5766 0 0 0 4.62142 0 1.42246 
0 0 -0.428502 4.89205 7.7587 -45.4519 0 0 0 0 0 0 -3.83939 0 -22.1949 -3.08179 0 -5.68167 0 0 0 -0.306693 0 -0.0667629 -4.67715 0 -25.8546 0.214288 0 15.2546 0 0 0 4.77662 0 1.46916 
0 0 -0.429291 4.89205 7.7587 -45.4492 0 0 0 0 0 0 -3.83939 0 -22.1878 -3.08179 0 -5.66847 0 0 0 -0.306693 0 -0.0667629 -4.67715 0 -25.8306 0.214288 0 15.2716 0 0 0 4.77662 0 1.46916 
0 0 -0.429291 4.89205 7.7587 -45.4492 0 0 0 0 0 0 -3.83939 0 -22.1878 -3.08179 0 -5.66847 0 0 0 -0.306693 0 -0.0667629 -4.67715 0 -25.8306 0.214288 0 15.2716 0 0 0 4.77662 0 1.46916 
0 0 -0.429291 4.89205 7.7587 -45.4492 0 0 0 0 0 0 -3.83939 0 -22.1878 -3.08179 0 -5.66847 0 0 0 -0.306693 0 -0.0667629 -4.67715 0 -25.8306 0.214288 0 15.2716 0 0 0 4.77662 0 1.46916 
0 0 -0.534474 9.89446 8.04828 41.0525 0 0 0 0 0 0 -2.77569 0 -3.73161 -3.54136 0 -16.4733 0 0 0 -0.051786 0 0.0175047 -4.50713 0 -19.1556 -0.0535314 0 4.18323 0 0 0 4.59922 0 1.41579 
0 0 -0.534118 9.89446 8.04828 41.0512 0 0 0 0 0 0 -2.77569 0 -3.73493 -3.54136 0 -16.4794 0 0 0 -0.051786 0 0.0175047 -4.50713 0 -19.1668 -0.0535314 0 4.17525 0 0 0 4.59922 0 1.41579 
0 0 -0.534118 9.89446 8.04828 41.0512 0 0 0 0 0 0 -2.77569 0 -3.73493 -3.54136 0 -16.4794 0 0 0 -0.051786 0 0.0175047 -4.50713 0 -19.1668 -0.0535314 0 4.17525 0 0 0 4.59922 0 1.41579 
0 0 -0.43208 4.78847 7.62485 -44.6415 0 0 0 0 0 0 -3.72916 0 -21.6178 -2.97464 0 -5.25003 0 0 0 -0.37181 0 -0.0872737 -4.65042 0 -25.4443 0.279566 0 15.5662 0 0 0 4.74874 0 1.46077 
0 0 -0.432765 4.78847 7.62485 -44.6391 0 0 0 0 0 0 -3.72916 0 -21.6116 -2.97464 0 -5.23839 0 0 0 -0.37181 0 -0.0872737 -4.65042 0 -25.4231 0.279566 0 15.5812 0 0 0 4.74874 0 1.46077 
0 0 -0.432765 4.78847 7.62485 -44.6391 0 0 0 0 0 0 -3.72916 0 -21.6116 -2.97464 0 -5.23839 0 0 0 -0.37181 0 -0.0872737 -4.65042 0 -25.4231 0.279566 0 15.5812 0 0 0 4.74874 0 1.46077 
0 0 -0.534219 9.87043 7.92249 42.0871 0 0 0 0 0 0 -2.6559 0 -3.05029 -3.4362 0 -15.8799 0 0 0 -0.0992146 0 0.00266897 -4.48649 0 -19.0322 -0.00630729 0 4.31551 0 0 0 4.57768 0 1.40932 
0 0 -0.533807 9.87043 7.92249 42.0856 0 0 0 0 0 0 -2.6559 0 -3.05414 -3.4362 0 -15.8871 0 0 0 -0.0992146 0 0.00266897 -4.48649 0 -19.0452 -0.00630729 0 4.30628 0 0 0 4.57768 0 1.40932 
0 0 -0.533807 9.87043 7.92249 42.0856 0 0 0 0 0 0 -2.6559 0 -3.05414 -3.4362 0 -15.8871 0 0 0 -0.0992146 0 0.00266897 -4.48649 0 -19.0452 -0.00630729 0 4.30628 0 0 0 4.57768 0 1.40932 
0 0 -0.533807 9.87043 7.92249 42.0856 0 0 0 0 0 0 -2.6559 0 -3.05414 -3.4362 0 -15.8871 0 0 0 -0.0992146 0 0.00266897 -4.48649 0 -19.0452 -0.00630729 0 4.30628 0 0 0 4.57768 0 1.40932 
0 0 -0.433283 4.81916 7.50058 -43.3477 0 0 0 0 0 0 -3.60358 0 -20.9175 -2.86454 0 -4.56786 0 0 0 -0.407006 0 -0.0982822 -4.63625 0 -25.3699 0.314609 0 15.6876 0 0 0 4.73395 0 1.45633 
0 0 -0.433949 4.81916 7.50058 -43.3453 0 0 0 0 0 0 -3.60358 0 -20.9114 -2.86454 0 -4.55642 0 0 0 -0.407006 0 -0.0982822 -4.63625 0 -25.3491 0.314609 0 15.7024 0 0 0 4.73395 0 1.45633 
0 0 -0.433949 4.81916 7.50058 -43.3453 0 0 0 0 0 0 -3.60358 0 -20.9114 -2.86454 0 -4.55642 0 0 0 -0.407006 0 -0.0982822 -4.63625 0 -25.3491 0.314609 0 15.7024 0 0 0 4.73395 0 1.45633 
0 0 -0.534039 9.91577 7.79257 43.2336 0 0 0 0 0 0 -2.52024 0 -2.28529 -3.31348 0 -15.0772 0 0 0 -0.124577 0 -0.00522425 -4.47927 0 -19.0247 0.0188219 0 4.40707 0 0 0 4.57012 0 1.40705 
0 0 -0.53362 9.91577 7.79257 43.2321 0 0 0 0 0 0 -2.52024 0 -2.28922 -3.31348 0 -15.0845 0 0 0 -0.124577 0 -0.00522425 -4.47927 0 -19.038 0.0188219 0 4.39764 0 0 0 4.57012 0 1.40705 
0 0 -0.53362 9.91577 7.79257 43.2321 0 0 0 0 0 0 -2.52024 0 -2.28922 -3.31348 0 -15.0845 0 0 0 -0.124577 0 -0.00522425 -4.47927 0 -19.038 0.0188219 0 4.39764 0 0 0 4.57012 0 1.40705 
0 0 -0.433878 4.85968 7.36331 -42.2263 0 0 0 0 0 0 -3.46446 0 -20.1677 -2.73263 0 -3.73229 0 0 0 -0.429077 0 -0.105247 -4.63087 0 -25.277 0.336773 0 15.8577 0 0 0 4.72833 0 1.45464 
0 0 -0.434535 4.85968 7.36331 -42.224 0 0 0 0 0 0 -3.46446 0 -20.1616 -2.73263 0 -3.72093 0 0 0 -0.429077 0 -0.105247 -4.63087 0 -25.2564 0.336773 0 15.8723 0 0 0 4.72833 0 1.45464 
0 0 -0.434535 4.85968 7.36331 -42.224 0 0 0 0 0 0 -3.46446 0 -20.1616 -2.73263 0 -3.72093 0 0 0 -0.429077 0 -0.105247 -4.63087 0 -25.2564 0.336773 0 15.8723 0 0 0 4.72833 0 1.45464 
0 0 -0.434535 4.85968 7.36331 -42.224 0 0 0 0 0 0 -3.46446 0 -20.1616 -2.73263 0 -3.72093 0 0 0 -0.429077 0 -0.105247 -4.63087 0 -25.2564 0.336773 0 15.8723 0 0 0 4.72833 0 1.45464 
0 0 -0.533368 9.92061 7.6438 43.9533 0 0 0 0 0 0 -2.37758 0 -1.52729 -3.17014 0 -14.1761 0 0 0 -0.146236 0 -0.0121671 -4.47384 0 -18.9142 0.040906 0 4.61371 0 0 0 4.56442 0 1.40535 
0 0 -0.532925 9.92061 7.6438 43.9517 0 0 0 0 0 0 -2.37758 0 -1.53147 -3.17014 0 -14.1838 0 0 0 -0.146236 0 -0.0121671 -4.47384 0 -18.9283 0.040906 0 4.60369 0 0 0 4.56442 0 1.40535 
0 0 -0.532925 9.92061 7.6438 43.9517 0 0 0 0 0 0 -2.37758 0 -1.53147 -3.17014 0 -14.1838 0 0 0 -0.146236 0 -0.0121671 -4.47384 0 -18.9283 0.040906 0 4.60369 0 0 0 4.56442 0 1.40535 
0 0 -0.433997 4.83952 7.20703 -41.4717 0 0 0 0 0 0 -3.32043 0 -19.4191 -2.58822 0 -2.90772 0 0 0 -0.45417 0 -0.11344 -4.61899 0 -25.0163 0.362825 0 16.1369 0 0 0 4.71591 0 1.45091 
0 0 -0.434614 4.83952 7.20703 -41.4695 0 0 0 0 0 0 -3.32043 0 -19.4133 -2.58822 0 -2.89699 0 0 0 -0.45417 0 -0.11344 -4.61899 0 -24.9968 0.362825 0 16.1508 0 0 0 4.71591 0 1.45091 
0 0 -0.434614 4.83952 7.20703 -41.4695 0 0 0 0 0 0 -3.32043 0 -19.4133 -2.58822 0 -2.89699 0 0 0 -0.45417 0 -0.11344 -4.61899 0 -24.9968 0.362825 0 16.1508 0 0 0 4.71591 0 1.45091 
0 0 -0.531807 9.85928 7.47596 44.328 0 0 0 0 0 0 -2.23158 0 -0.775663 -3.02022 0 -13.3134 0 0 0 -0.176368 0 -0.022131 -4.4559 0 -18.6511 0.0725717 0 4.93152 0 0 0 4.54564 0 1.39972 
0 0 -0.531301 9.85928 7.47596 44.3262 0 0 0 0 0 0 -2.23158 0 -0.780407 -3.02022 0 -13.3222 0 0 0 -0.176368 0 -0.022131 -4.4559 0 -18.6671 0.0725717 0 4.92015 0 0 0 4.54564 0 1.39972 
0 0 -0.531301 9.85928 7.47596 44.3262 0 0 0 0 0 0 -2.23158 0 -0.780407 -3.02022 0 -13.3222 0 0 0 -0.176368 0 -0.022131 -4.4559 0 -18.6671 0.0725717 0 4.92015 0 0 0 4.54564 0 1.39972 
0 0 -0.531301 9.85928 7.47596 44.3262 0 0 0 0 0 0 -2.23158 0 -0.780407 -3.02022 0 -13.3222 0 0 0 -0.176368 0 -0.022131 -4.4559 0 -18.6671 0.0725717 0 4.92015 0 0 0 4.54564 0 1.39972 
0 0 -0.434433 4.755 7.03111 -40.9856 0 0 0 0 0 0 -3.17439 0 -18.6963 -2.44051 0 -2.12602 0 0 0 -0.491841 0 -0.125969 -4.59077 0 -24.6294 0.40264 0 16.5214 0 0 0 4.68641 0 1.44206 
0 0 -0.434981 4.755 7.03111 -40.9836 0 0 0 0 0 0 -3.17439 0 -18.6912 -2.44051 0 -2.11645 0 0 0 -0.491841 0 -0.125969 -4.59077 0 -24.612 0.40264 0 16.5337 0 0 0 4.68641 0 1.44206 
0 0 -0.434981 4.755 7.03111 -40.9836 0 0 0 0 0 0 -3.17439 0 -18.6912 -2.44051 0 -2.11645 0 0 0 -0.491841 0 -0.125969 -4.59077 0 -24.612 0.40264 0 16.5337 0 0 0 4.68641 0 1.44206 
0 0 -0.529287 9.74449 7.28826 44.534 0 0 0 0 0 0 -2.08189 0 -0.0189441 -2.86892 0 -12.5023 0 0 0 -0.22126 0 -0.0371384 -4.41949 0 -18.2897 0.120252 0 5.33014 0 0 0 4.50755 0 1.38829 
0 0 -0.528694 9.74449 7.28826 44.5319 0 0 0 0 0 0 -2.08189 0 -0.0244526 -2.86892 0 -12.5125 0 0 0 -0.22126 0 -0.0371384 -4.41949 0 -18.3083 0.120252 0 5.31693 0 0 0 4.50755 0 1.38829 
0 0 -0.528694 9.74449 7.28826 44.5319 0 0 0 0 0 0 -2.08189 0 -0.0244526 -2.86892 0 -12.5125 0 0 0 -0.22126 0 -0.0371384 -4.41949 0 -18.3083 0.120252 0 5.31693 0 0 0 4.50755 0 1.38829 
0 0 -0.434839 4.61859 6.8328 -40.6759 0 0 0 0 0 0 -3.02551 0 -17.9989 -2.289 0 -1.35184 0 0 0 -0.546268 0 -0.144155 -4.54396 0 -24.1868 0.460431 0 16.9909 0 0 0 4.63746 0 1.42737 
0 0 -0.435304 4.61859 6.8328 -40.6742 0 0 0 0 0 0 -3.02551 0 -17.9945 -2.289 0 -1.34369 0 0 0 -0.546268 0 -0.144155 -4.54396 0 -24.172 0.460431 0 17.0014 0 0 0 4.63746 0 1.42737 
0 0 -0.435304 4.61859 6.8328 -40.6742 0 0 0 0 0 0 -3.02551 0 -17.9945 -2.289 0 -1.34369 0 0 0 -0.546268 0 -0.144155 -4.54396 0 -24.172 0.460431 0 17.0014 0 0 0 4.63746 0 1.42737 
0 0 -0.435304 4.61859 6.8328 -40.6742 0 0 0 0 0 0 -3.02551 0 -17.9945 -2.289 0 -1.34369 0 0 0 -0.546268 0 -0.144155 -4.54396 0 -24.172 0.460431 0 17.0014 0 0 0 4.63746 0 1.42737 
0 0 -0.524536 9.58381 7.07734 44.6113 0 0 0 0 0 0 -1.92731 0 0.747579 -2.71304 0 -11.7123 0 0 0 -0.283214 0 -0.0578835 -4.36444 0 -17.8801 0.186162 0 5.78833 0 0 0 4.44992 0 1.37101 
0 0 -0.523849 9.58381 7.07734 44.6088 0 0 0 0 0 0 -1.92731 0 0.741257 -2.71304 0 -11.7241 0 0 0 -0.283214 0 -0.0578835 -4.36444 0 -17.9015 0.186162 0 5.77317 0 0 0 4.44992 0 1.37101 
0 0 -0.523849 9.58381 7.07734 44.6088 0 0 0 0 0 0 -1.92731 0 0.741257 -2.71304 0 -11.7241 0 0 0 -0.283214 0 -0.0578835 -4.36444 0 -17.9015 0.186162 0 5.77317 0 0 0 4.44992 0 1.37101 
0 0 -0.432739 4.43528 6.61007 -40.5128 0 0 0 0 0 0 -2.87182 0 -17.3099 -2.13107 0 -0.581992 0 0 0 -0.618094 0 -0.168145 -4.47915 0 -23.7173 0.53667 0 17.5228 0 0 0 4.56966 0 1.40703 
0 0 -0.433121 4.43528 6.61007 -40.5115 0 0 0 0 0 0 -2.87182 0 -17.3063 -2.13107 0 -0.575278 0 0 0 -0.618094 0 -0.168145 -4.47915 0 -23.7051 0.53667 0 17.5315 0 0 0 4.56966 0 1.40703 
0 0 -0.433121 4.43528 6.61007 -40.5115 0 0 0 0 0 0 -2.87182 0 -17.3063 -2.13107 0 -0.575278 0 0 0 -0.618094 0 -0.168145 -4.47915 0 -23.7051 0.53667 0 17.5315 0 0 0 4.56966 0 1.40703 
0 0 -0.514782 9.37644 6.84241 44.5266 0 0 0 0 0 0 -1.76755 0 1.51714 -2.55062 0 -10.9422 0 0 0 -0.362081 0 -0.0842453 -4.29193 0 -17.4485 0.269924 0 6.29572 0 0 0 4.37399 0 1.34825 
0 0 -0.514004 9.37644 6.84241 44.5239 0 0 0 0 0 0 -1.76755 0 1.51005 -2.55062 0 -10.9554 0 0 0 -0.362081 0 -0.0842453 -4.29193 0 -17.4725 0.269924 0 6.2787 0 0 0 4.37399 0 1.34825 
0 0 -0.514004 9.37644 6.84241 44.5239 0 0 0 0 0 0 -1.76755 0 1.51005 -2.55062 0 -10.9554 0 0 0 -0.362081 0 -0.0842453 -4.29193 0 -17.4725 0.269924 0 6.2787 0 0 0 4.37399 0 1.34825 
0 0 -0.514004 9.37644 6.84241 44.5239 0 0 0 0 0 0 -1.76755 0 1.51005 -2.55062 0 -10.9554 0 0 0 -0.362081 0 -0.0842453 -4.29193 0 -17.4725 0.269924 0 6.2787 0 0 0 4.37399 0 1.34825 
0 0 -0.424885 4.20749 6.36549 -40.4804 0 0 0 0 0 0 -2.71335 0 -16.6256 -1.96822 0 0.144412 0 0 0 -0.70614 0 -0.197482 -4.39741 0 -23.2304 0.629912 0 18.0984 0 0 0 4.4841 0 1.38137 
0 0 -0.425189 4.20749 6.36549 -40.4793 0 0 0 0 0 0 -2.71335 0 -16.6227 -1.96822 0 0.149797 0 0 0 -0.70614 0 -0.197482 -4.39741 0 -23.2206 0.629912 0 18.1054 0 0 0 4.4841 0 1.38137 
0 0 -0.425189 4.20749 6.36549 -40.4793 0 0 0 0 0 0 -2.71335 0 -16.6227 -1.96822 0 0.149797 0 0 0 -0.70614 0 -0.197482 -4.39741 0 -23.2206 0.629912 0 18.1054 0 0 0 4.4841 0 1.38137 
0 0 -0.497179 9.12469 6.58809 44.2671 0 0 0 0 0 0 -1.60509 0 2.26616 -2.38459 0 -10.221 0 0 0 -0.456321 0 -0.115647 -4.20362 0 -17.0193 0.369715 0 6.84284 0 0 0 4.28149 0 1.32053 
0 0 -0.496318 9.12469 6.58809 44.2641 0 0 0 0 0 0 -1.60509 0 2.25837 -2.38459 0 -10.2355 0 0 0 -0.456321 0 -0.115647 -4.20362 0 -17.0457 0.369715 0 6.82415 0 0 0 4.28149 0 1.32053 
0 0 -0.496318 9.12469 6.58809 44.2641 0 0 0 0 0 0 -1.60509 0 2.25837 -2.38459 0 -10.2355 0 0 0 -0.456321 0 -0.115647 -4.20362 0 -17.0457 0.369715 0 6.82415 0 0 0 4.28149 0 1.32053 
0 0 -0.409317 3.943 6.10641 -40.5492 0 0 0 0 0 0 -2.5538 0 -15.9667 -1.80573 0 0.78057 0 0 0 -0.808107 0 -0.231351 -4.3008 0 -22.7465 0.737573 0 18.6963 0 0 0 4.38294 0 1.35104 
0 0 -0.409551 3.943 6.10641 -40.5484 0 0 0 0 0 0 -2.5538 0 -15.9644 -1.80573 0 0.784795 0 0 0 -0.808107 0 -0.231351 -4.3008 0 -22.7388 0.737573 0 18.7018 0 0 0 4.38294 0 1.35104 
0 0 -0.409551 3.943 6.10641 -40.5484 0 0 0 0 0 0 -2.5538 0 -15.9644 -1.80573 0 0.784795 0 0 0 -0.808107 0 -0.231351 -4.3008 0 -22.7388 0.737573 0 18.7018 0 0 0 4.38294 0 1.35104 
0 0 -0.409551 3.943 6.10641 -40.5484 0 0 0 0 0 0 -2.5538 0 -15.9644 -1.80573 0 0.784795 0 0 0 -0.808107 0 -0.231351 -4.3008 0 -22.7388 0.737573 0 18.7018 0 0 0 4.38294 0 1.35104 
0 0 -0.470896 8.83956 6.32478 43.8583 0 0 0 0 0 0 -1.46979 0 2.68486 -2.22273 0 -9.59672 0 0 0 -0.574479 0 -0.154831 -4.10216 0 -16.5957 0.494256 0 7.67994 0 0 0 4.1752 0 1.28867 
0 0 -0.469996 8.83956 6.32478 43.8552 0 0 0 0 0 0 -1.46979 0 2.67679 -2.22273 0 -9.61176 0 0 0 -0.574479 0 -0.154831 -4.10216 0 -16.623 0.494256 0 7.66056 0 0 0 4.1752 0 1.28867 
0 0 -0.469996 8.83956 6.32478 43.8552 0 0 0 0 0 0 -1.46979 0 2.67679 -2.22273 0 -9.61176 0 0 0 -0.574479 0 -0.154831 -4.10216 0 -16.623 0.494256 0 7.66056 0 0 0 4.1752 0 1.28867 
0 0 -0.385811 3.65673 5.84344 -40.6718 0 0 0 0 0 0 -2.41637 0 -15.401 -1.64993 0 1.30709 0 0 0 -0.928733 0 -0.271257 -4.19363 0 -22.3196 0.864439 0 19.2996 0 0 0 4.2707 0 1.3174 
0 0 -0.385951 3.65673 5.84344 -40.6712 0 0 0 0 0 0 -2.41637 0 -15.3995 -1.64993 0 1.30975 0 0 0 -0.928733 0 -0.271257 -4.19363 0 -22.3147 0.864439 0 19.3031 0 0 0 4.2707 0 1.3174 
0 0 -0.385951 3.65673 5.84344 -40.6712 0 0 0 0 0 0 -2.41637 0 -15.3995 -1.64993 0 1.30975 0 0 0 -0.928733 0 -0.271257 -4.19363 0 -22.3147 0.864439 0 19.3031 0 0 0 4.2707 0 1.3174 
0 0 -0.439126 8.53945 6.06208 43.385 0 0 0 0 0 0 -1.35984 0 2.9365 -2.06931 0 -9.07512 0 0 0 -0.70838 0 -0.199078 -3.99287 0 -16.2388 0.634915 0 8.54053 0 0 0 4.0607 0 1.25436 
0 0 -0.438209 8.53945 6.06208 43.3819 0 0 0 0 0 0 -1.35984 0 2.92834 -2.06931 0 -9.09033 0 0 0 -0.70838 0 -0.199078 -3.99287 0 -16.2665 0.634915 0 8.52093 0 0 0 4.0607 0 1.25436 
0 0 -0.438209 8.53945 6.06208 43.3819 0 0 0 0 0 0 -1.35984 0 2.92834 -2.06931 0 -9.09033 0 0 0 -0.70838 0 -0.199078 -3.99287 0 -16.2665 0.634915 0 8.52093 0 0 0 4.0607 0 1.25436 
0 0 -0.438209 8.53945 6.06208 43.3819 0 0 0 0 0 0 -1.35984 0 2.92834 -2.06931 0 -9.09033 0 0 0 -0.70838 0 -0.199078 -3.99287 0 -16.2665 0.634915 0 8.52093 0 0 0 4.0607 0 1.25436 
0 0 -0.356898 3.36565 5.58598 -40.8142 0 0 0 0 0 0 -2.29933 0 -14.9176 -1.50475 0 1.71734 0 0 0 -1.05944 0 -0.314365 -4.08133 0 -21.973 1.00151 0 19.8482 0 0 0 4.15309 0 1.28214 
0 0 -0.35696 3.36565 5.58598 -40.814 0 0 0 0 0 0 -2.29933 0 -14.9168 -1.50475 0 1.71868 0 0 0 -1.05944 0 -0.314365 -4.08133 0 -21.9706 1.00151 0 19.85 0 0 0 4.15309 0 1.28214 
0 0 -0.35696 3.36565 5.58598 -40.814 0 0 0 0 0 0 -2.29933 0 -14.9168 -1.50475 0 1.71868 0 0 0 -1.05944 0 -0.314365 -4.08133 0 -21.9706 1.00151 0 19.85 0 0 0 4.15309 0 1.28214 
0 0 -0.404361 8.24158 5.80899 42.9041 0 0 0 0 0 0 -1.2662 0 3.11832 -1.92787 0 -8.6602 0 0 0 -0.846712 0 -0.244662 -3.8812 0 -15.9695 0.779844 0 9.31119 0 0 0 3.94375 0 1.2193 
0 0 -0.403449 8.24158 5.80899 42.901 0 0 0 0 0 0 -1.2662 0 3.11025 -1.92787 0 -8.67526 0 0 0 -0.846712 0 -0.244662 -3.8812 0 -15.9969 0.779844 0 9.29179 0 0 0 3.94375 0 1.2193 
0 0 -0.403449 8.24158 5.80899 42.901 0 0 0 0 0 0 -1.2662 0 3.11025 -1.92787 0 -8.67526 0 0 0 -0.846712 0 -0.244662 -3.8812 0 -15.9969 0.779844 0 9.29179 0 0 0 3.94375 0 1.2193 
0 0 -0.325824 3.08479 5.34253 -40.95 0 0 0 0 0 0 -2.19755 0 -14.5118 -1.37342 0 2.01463 0 0 0 -1.19031 0 -0.357423 -3.96921 0 -21.7129 1.13843 0 20.3061 0 0 0 4.03569 0 1.24694 
0 0 -0.325834 3.08479 5.34253 -40.9499 0 0 0 0 0 0 -2.19755 0 -14.5115 -1.37342 0 2.01509 0 0 0 -1.19031 0 -0.357423 -3.96921 0 -21.712 1.13843 0 20.3067 0 0 0 4.03569 0 1.24694 
0 0 -0.325834 3.08479 5.34253 -40.9499 0 0 0 0 0 0 -2.19755 0 -14.5115 -1.37342 0 2.01509 0 0 0 -1.19031 0 -0.357423 -3.96921 0 -21.712 1.13843 0 20.3067 0 0 0 4.03569 0 1.24694 
0 0 -0.325834 3.08479 5.34253 -40.9499 0 0 0 0 0 0 -2.19755 0 -14.5115 -1.37342 0 2.01509 0 0 0 -1.19031 0 -0.357423 -3.96921 0 -21.712 1.13843 0 20.3067 0 0 0 4.03569 0 1.24694 
0 0 -0.369607 7.96232 5.5739 42.4777 0 0 0 0 0 0 -1.18475 0 3.24893 -1.80188 0 -8.35445 0 0 0 -0.980456 0 -0.288631 -3.7721 0 -15.7877 0.919654 0 9.95563 0 0 0 3.82953 0 1.18504 
0 0 -0.36872 7.96232 5.5739 42.4747 0 0 0 0 0 0 -1.18475 0 3.24111 -1.80188 0 -8.36905 0 0 0 -0.980456 0 -0.288631 -3.7721 0 -15.8142 0.919654 0 9.93683 0 0 0 3.82953 0 1.18504 
0 0 -0.36872 7.96232 5.5739 42.4747 0 0 0 0 0 0 -1.18475 0 3.24111 -1.80188 0 -8.36905 0 0 0 -0.980456 0 -0.288631 -3.7721 0 -15.8142 0.919654 0 9.93683 0 0 0 3.82953 0 1.18504 
0 0 -0.295561 2.8292 5.12024 -41.0341 0 0 0 0 0 0 -2.10813 0 -14.1722 -1.25818 0 2.21499 0 0 0 -1.3138 0 -0.397963 -3.86215 0 -21.5435 1.26736 0 20.6565 0 0 0 3.92365 0 1.21332 
0 0 -0.295545 2.8292 5.12024 -41.0341 0 0 0 0 0 0 -2.10813 0 -14.1721 -1.25818 0 2.21501 0 0 0 -1.3138 0 -0.397963 -3.86215 0 -21.5435 1.26736 0 20.6566 0 0 0 3.92365 0 1.21332 
0 0 -0.295545 2.8292 5.12024 -41.0341 0 0 0 0 0 0 -2.10813 0 -14.1721 -1.25818 0 2.21501 0 0 0 -1.3138 0 -0.397963 -3.86215 0 -21.5435 1.26736 0 20.6566 0 0 0 3.92365 0 1.21332 
0 0 -0.337394 7.71558 5.36268 42.1567 0 0 0 0 0 0 -1.11321 0 3.34149 -1.69263 0 -8.13997 0 0 0 -1.10353 0 -0.329009 -3.67013 0 -15.6918 1.04806 0 10.4681 0 0 0 3.72283 0 1.15301 
0 0 -0.336551 7.71558 5.36268 42.1539 0 0 0 0 0 0 -1.11321 0 3.33406 -1.69263 0 -8.15383 0 0 0 -1.10353 0 -0.329009 -3.67013 0 -15.717 1.04806 0 10.4503 0 0 0 3.72283 0 1.15301 
0 0 -0.336551 7.71558 5.36268 42.1539 0 0 0 0 0 0 -1.11321 0 3.33406 -1.69263 0 -8.15383 0 0 0 -1.10353 0 -0.329009 -3.67013 0 -15.717 1.04806 0 10.4503 0 0 0 3.72283 0 1.15301 
0 0 -0.336551 7.71558 5.36268 42.1539 0 0 0 0 0 0 -1.11321 0 3.33406 -1.69263 0 -8.15383 0 0 0 -1.10353 0 -0.329009 -3.67013 0 -15.717 1.04806 0 10.4503 0 0 0 3.72283 0 1.15301 
0 0 -0.268212 2.60909 4.92306 -41.044 0 0 0 0 0 0 -2.02966 0 -13.8922 -1.15877 0 2.34847 0 0 0 -1.42542 0 -0.434539 -3.76437 0 -21.4629 1.3837 0 20.907 0 0 0 3.82138 0 1.18261 
0 0 -0.268192 2.60909 4.92306 -41.0441 0 0 0 0 0 0 -2.02966 0 -13.8922 -1.15877 0 2.34841 0 0 0 -1.42542 0 -0.434539 -3.76437 0 -21.463 1.3837 0 20.907 0 0 0 3.82138 0 1.18261 
0 0 -0.268192 2.60909 4.92306 -41.0441 0 0 0 0 0 0 -2.02966 0 -13.8922 -1.15877 0 2.34841 0 0 0 -1.42542 0 -0.434539 -3.76437 0 -21.463 1.3837 0 20.907 0 0 0 3.82138 0 1.18261 
0 0 -0.309167 7.50765 5.1775 41.9502 0 0 0 0 0 0 -1.05043 0 3.40559 -1.59873 0 -7.98676 0 0 0 -1.21276 0 -0.36478 -3.57883 0 -15.673 1.16182 0 10.8602 0 0 0 3.62739 0 1.12434 
0 0 -0.308382 7.50765 5.1775 41.9476 0 0 0 0 0 0 -1.05043 0 3.39866 -1.59873 0 -7.99969 0 0 0 -1.21276 0 -0.36478 -3.57883 0 -15.6965 1.16182 0 10.8435 0 0 0 3.62739 0 1.12434 
0 0 -0.308382 7.50765 5.1775 41.9476 0 0 0 0 0 0 -1.05043 0 3.39866 -1.59873 0 -7.99969 0 0 0 -1.21276 0 -0.36478 -3.57883 0 -15.6965 1.16182 0 10.8435 0 0 0 3.62739 0 1.12434 
0 0 -0.244728 2.42634 4.75147 -40.9924 0 0 0 0 0 0 -1.96135 0 -13.6653 -1.07296 0 2.44527 0 0 0 -1.52319 0 -0.466523 -3.67858 0 -21.4561 1.48543 0 21.0747 0 0 0 3.73171 0 1.15566 
0 0 -0.24472 2.42634 4.75147 -40.9923 0 0 0 0 0 0 -1.96135 0 -13.6652 -1.07296 0 2.44539 0 0 0 -1.52319 0 -0.466523 -3.67858 0 -21.4559 1.48543 0 21.0749 0 0 0 3.73171 0 1.15566 
0 0 -0.24472 2.42634 4.75147 -40.9923 0 0 0 0 0 0 -1.96135 0 -13.6652 -1.07296 0 2.44539 0 0 0 -1.52319 0 -0.466523 -3.67858 0 -21.4559 1.48543 0 21.0749 0 0 0 3.73171 0 1.15566 
0 0 -0.24472 2.42634 4.75147 -40.9923 0 0 0 0 0 0 -1.96135 0 -13.6652 -1.07296 0 2.44539 0 0 0 -1.52319 0 -0.466523 -3.67858 0 -21.4559 1.48543 0 21.0749 0 0 0 3.73171 0 1.15566 
0 0 -0.285349 7.33755 5.01759 41.842 0 0 0 0 0 0 -0.995774 0 3.44873 -1.51773 0 -7.87075 0 0 0 -1.30724 0 -0.395673 -3.49992 0 -15.7098 1.26008 0 11.1535 0 0 0 3.54496 0 1.09955 
0 0 -0.284628 7.33755 5.01759 41.8395 0 0 0 0 0 0 -0.995774 0 3.44234 -1.51773 0 -7.88266 0 0 0 -1.30724 0 -0.395673 -3.49992 0 -15.7314 1.26008 0 11.1382 0 0 0 3.54496 0 1.09955 
0 0 -0.284628 7.33755 5.01759 41.8395 0 0 0 0 0 0 -0.995774 0 3.44234 -1.51773 0 -7.88266 0 0 0 -1.30724 0 -0.395673 -3.49992 0 -15.7314 1.26008 0 11.1382 0 0 0 3.54496 0 1.09955 
0 0 -0.225171 2.27741 4.60354 -40.9008 0 0 0 0 0 0 -1.90202 0 -13.4781 -0.998077 0 2.528 0 0 0 -1.60687 0 -0.493866 -3.60553 0 -21.5007 1.57242 0 21.178 0 0 0 3.65543 0 1.13272 
0 0 -0.225185 2.27741 4.60354 -40.9007 0 0 0 0 0 0 -1.90202 0 -13.4778 -0.998077 0 2.52847 0 0 0 -1.60687 0 -0.493866 -3.60553 0 -21.4998 1.57242 0 21.1786 0 0 0 3.65543 0 1.13272 
0 0 -0.225185 2.27741 4.60354 -40.9007 0 0 0 0 0 0 -1.90202 0 -13.4778 -0.998077 0 2.52847 0 0 0 -1.60687 0 -0.493866 -3.60553 0 -21.4998 1.57242 0 21.1786 0 0 0 3.65543 0 1.13272 
0 0 -0.265704 7.2007 4.88024 41.8129 0 0 0 0 0 0 -0.948312 0 3.47815 -1.44704 0 -7.77477 0 0 0 -1.38774 0 -0.421967 -3.43325 0 -15.7766 1.34372 0 11.3769 0 0 0 3.47537 0 1.07861 
0 0 -0.265049 7.2007 4.88024 41.8107 0 0 0 0 0 0 -0.948312 0 3.47233 -1.44704 0 -7.78561 0 0 0 -1.38774 0 -0.421967 -3.43325 0 -15.7963 1.34372 0 11.3629 0 0 0 3.47537 0 1.07861 
0 0 -0.265049 7.2007 4.88024 41.8107 0 0 0 0 0 0 -0.948312 0 3.47233 -1.44704 0 -7.78561 0 0 0 -1.38774 0 -0.421967 -3.43325 0 -15.7963 1.34372 0 11.3629 0 0 0 3.47537 0 1.07861 
0 0 -0.265049 7.2007 4.88024 41.8107 0 0 0 0 0 0 -0.948312 0 3.47233 -1.44704 0 -7.78561 0 0 0 -1.38774 0 -0.421967 -3.43325 0 -15.7963 1.34372 0 11.3629 0 0 0 3.47537 0 1.07861 
0 0 -0.209166 2.15663 4.47575 -40.7863 0 0 0 0 0 0 -1.84994 0 -13.3145 -0.931406 0 2.61458 0 0 0 -1.67771 0 -0.516994 -3.54441 0 -21.5741 1.64599 0 21.2379 0 0 0 3.59163 0 1.11352 
0 0 -0.209204 2.15663 4.47575 -40.7861 0 0 0 0 0 0 -1.84994 0 -13.314 -0.931406 0 2.61543 0 0 0 -1.67771 0 -0.516994 -3.54441 0 -21.5725 1.64599 0 21.239 0 0 0 3.59163 0 1.11352 
0 0 -0.209204 2.15663 4.47575 -40.7861 0 0 0 0 0 0 -1.84994 0 -13.314 -0.931406 0 2.61543 0 0 0 -1.67771 0 -0.516994 -3.54441 0 -21.5725 1.64599 0 21.239 0 0 0 3.59163 0 1.11352 
0 0 -0.249705 7.09064 4.76131 41.8419 0 0 0 0 0 0 -0.906646 0 3.50081 -1.38391 0 -7.68286 0 0 0 -1.45632 0 -0.444358 -3.37745 0 -15.851 1.41494 0 11.561 0 0 0 3.41715 0 1.06108 
0 0 -0.249114 7.09064 4.76131 41.8399 0 0 0 0 0 0 -0.906646 0 3.49554 -1.38391 0 -7.69269 0 0 0 -1.45632 0 -0.444358 -3.37745 0 -15.8689 1.41494 0 11.5484 0 0 0 3.41715 0 1.06108 
0 0 -0.249114 7.09064 4.76131 41.8399 0 0 0 0 0 0 -0.906646 0 3.49554 -1.38391 0 -7.69269 0 0 0 -1.45632 0 -0.444358 -3.37745 0 -15.8689 1.41494 0 11.5484 0 0 0 3.41715 0 1.06108 
0 0 -0.196203 2.05698 4.36348 -40.6647 0 0 0 0 0 0 -1.80314 0 -13.1608 -0.870137 0 2.7195 0 0 0 -1.73802 0 -0.536688 -3.4934 0 -21.6564 1.70864 0 21.2766 0 0 0 3.5384 0 1.0975 
0 0 -0.196261 2.05698 4.36348 -40.6645 0 0 0 0 0 0 -1.80314 0 -13.1601 -0.870137 0 2.72066 0 0 0 -1.73802 0 -0.536688 -3.4934 0 -21.6543 1.70864 0 21.2782 0 0 0 3.5384 0 1.0975 
0 0 -0.196261 2.05698 4.36348 -40.6645 0 0 0 0 0 0 -1.80314 0 -13.1601 -0.870137 0 2.72066 0 0 0 -1.73802 0 -0.536688 -3.4934 0 -21.6543 1.70864 0 21.2782 0 0 0 3.5384 0 1.0975 
0 0 -0.196261 2.05698 4.36348 -40.6645 0 0 0 0 0 0 -1.80314 0 -13.1601 -0.870137 0 2.72066 0 0 0 -1.73802 0 -0.536688 -3.4934 0 -21.6543 1.70864 0 21.2782 0 0 0 3.5384 0 1.0975 
0 0 -0.236739 6.99947 4.65579 41.9029 0 0 0 0 0 0 -0.869217 0 3.52229 -1.32543 0 -7.58103 0 0 0 -1.5158 0 -0.463791 -3.3304 0 -15.9152 1.47676 0 11.7335 0 0 0 3.36806 0 1.0463 
0 0 -0.236206 6.99947 4.65579 41.901 0 0 0 0 0 0 -0.869217 0 3.51751 -1.32543 0 -7.58993 0 0 0 -1.5158 0 -0.463791 -3.3304 0 -15.9314 1.47676 0 11.722 0 0 0 3.36806 0 1.0463 
0 0 -0.236206 6.99947 4.65579 41.901 0 0 0 0 0 0 -0.869217 0 3.51751 -1.32543 0 -7.58993 0 0 0 -1.5158 0 -0.463791 -3.3304 0 -15.9314 1.47676 0 11.722 0 0 0 3.36806 0 1.0463 
0 0 -0.185749 1.97062 4.26167 -40.552 0 0 0 0 0 0 -1.75977 0 -13.0068 -0.811636 0 2.85139 0 0 0 -1.79071 0 -0.553912 -3.45008 0 -21.7304 1.76344 0 21.3133 0 0 0 3.49319 0 1.0839 
0 0 -0.185819 1.97062 4.26167 -40.5517 0 0 0 0 0 0 -1.75977 0 -13.0061 -0.811636 0 2.85274 0 0 0 -1.79071 0 -0.553912 -3.45008 0 -21.7279 1.76344 0 21.3151 0 0 0 3.49319 0 1.0839 
0 0 -0.185819 1.97062 4.26167 -40.5517 0 0 0 0 0 0 -1.75977 0 -13.0061 -0.811636 0 2.85274 0 0 0 -1.79071 0 -0.553912 -3.45008 0 -21.7279 1.76344 0 21.3151 0 0 0 3.49319 0 1.0839 
0 0 -0.226176 6.91879 4.5586 41.9688 0 0 0 0 0 0 -0.834525 0 3.54642 -1.26906 0 -7.46059 0 0 0 -1.56924 0 -0.481282 -3.28959 0 -15.956 1.5324 0 11.9149 0 0 0 3.32544 0 1.03348 
0 0 -0.225693 6.91879 4.5586 41.9672 0 0 0 0 0 0 -0.834525 0 3.54207 -1.26906 0 -7.46868 0 0 0 -1.56924 0 -0.481282 -3.28959 0 -15.9707 1.5324 0 11.9044 0 0 0 3.32544 0 1.03348 
0 0 -0.225693 6.91879 4.5586 41.9672 0 0 0 0 0 0 -0.834525 0 3.54207 -1.26906 0 -7.46868 0 0 0 -1.56924 0 -0.481282 -3.28959 0 -15.9707 1.5324 0 11.9044 0 0 0 3.32544 0 1.03348 
0 0 -0.225693 6.91879 4.5586 41.9672 0 0 0 0 0 0 -0.834525 0 3.54207 -1.26906 0 -7.46868 0 0 0 -1.56924 0 -0.481282 -3.28959 0 -15.9707 1.5324 0 11.9044 0 0 0 3.32544 0 1.03348 
0 0 -0.177237 1.89003 4.16569 -40.4607 0 0 0 0 0 0 -1.71818 0 -12.8458 -0.753894 0 3.01171 0 0 0 -1.83869 0 -0.569628 -3.41184 0 -21.7831 1.81343 0 21.3617 0 0 0 3.45322 0 1.07188 
0 0 -0.177308 1.89003 4.16569 -40.4604 0 0 0 0 0 0 -1.71818 0 -12.8451 -0.753894 0 3.01308 0 0 0 -1.83869 0 -0.569628 -3.41184 0 -21.7806 1.81343 0 21.3635 0 0 0 3.45322 0 1.07188 
0 0 -0.177308 1.89003 4.16569 -40.4604 0 0 0 0 0 0 -1.71818 0 -12.8451 -0.753894 0 3.01308 0 0 0 -1.83869 0 -0.569628 -3.41184 0 -21.7806 1.81343 0 21.3635 0 0 0 3.45322 0 1.07188 
0 0 -0.217339 6.84116 4.46543 42.0177 0 0 0 0 0 0 -0.801263 0 3.57548 -1.21297 0 -7.31903 0 0 0 -1.61946 0 -0.497754 -3.2525 0 -15.9661 1.58479 0 12.1181 0 0 0 3.28665 0 1.02183 
0 0 -0.216896 6.84116 4.46543 42.0161 0 0 0 0 0 0 -0.801263 0 3.57149 -1.21297 0 -7.32645 0 0 0 -1.61946 0 -0.497754 -3.2525 0 -15.9796 1.58479 0 12.1085 0 0 0 3.28665 0 1.02183 
0 0 -0.216896 6.84116 4.46543 42.0161 0 0 0 0 0 0 -0.801263 0 3.57149 -1.21297 0 -7.32645 0 0 0 -1.61946 0 -0.497754 -3.2525 0 -15.9796 1.58479 0 12.1085 0 0 0 3.28665 0 1.02183 
0 0 -0.170029 1.80917 4.07191 -40.398 0 0 0 0 0 0 -1.67715 0 -12.6748 -0.695728 0 3.19596 0 0 0 -1.88449 0 -0.584668 -3.37623 0 -21.8078 1.86128 0 21.43 0 0 0 3.41593 0 1.0607 
0 0 -0.170092 1.80917 4.07191 -40.3978 0 0 0 0 0 0 -1.67715 0 -12.6741 -0.695728 0 3.19718 0 0 0 -1.88449 0 -0.584668 -3.37623 0 -21.8055 1.86128 0 21.4316 0 0 0 3.41593 0 1.0607 
0 0 -0.170092 1.80917 4.07191 -40.3978 0 0 0 0 0 0 -1.67715 0 -12.6741 -0.695728 0 3.19718 0 0 0 -1.88449 0 -0.584668 -3.37623 0 -21.8055 1.86128 0 21.4316 0 0 0 3.41593 0 1.0607 
0 0 -0.170092 1.80917 4.07191 -40.3978 0 0 0 0 0 0 -1.67715 0 -12.6741 -0.695728 0 3.19718 0 0 0 -1.88449 0 -0.584668 -3.37623 0 -21.8055 1.86128 0 21.4316 0 0 0 3.41593 0 1.0607 
0 0 -0.209495 6.76105 4.37313 42.0345 0 0 0 0 0 0 -0.768453 0 3.61039 -1.15619 0 -7.15891 0 0 0 -1.66865 0 -0.513931 -3.21698 0 -15.9451 1.63625 0 12.3478 0 0 0 3.24941 0 1.01067 
0 0 -0.209085 6.76105 4.37313 42.0331 0 0 0 0 0 0 -0.768453 0 3.60669 -1.15619 0 -7.1658 0 0 0 -1.66865 0 -0.513931 -3.21698 0 -15.9576 1.63625 0 12.3389 0 0 0 3.24941 0 1.01067 
0 0 -0.209085 6.76105 4.37313 42.0331 0 0 0 0 0 0 -0.768453 0 3.60669 -1.15619 0 -7.1658 0 0 0 -1.66865 0 -0.513931 -3.21698 0 -15.9576 1.63625 0 12.3389 0 0 0 3.24941 0 1.01067 
0 0 -0.163434 1.72415 3.978 -40.3657 0 0 0 0 0 0 -1.63599 0 -12.4944 -0.636759 0 3.39562 0 0 0 -1.93 0 -0.599647 -3.34128 0 -21.8038 1.90894 0 21.5207 0 0 0 3.37928 0 1.04972 
0 0 -0.163479 1.72415 3.978 -40.3655 0 0 0 0 0 0 -1.63599 0 -12.4939 -0.636759 0 3.39655 0 0 0 -1.93 0 -0.599647 -3.34128 0 -21.8021 1.90894 0 21.5219 0 0 0 3.37928 0 1.04972 
0 0 -0.163479 1.72415 3.978 -40.3655 0 0 0 0 0 0 -1.63599 0 -12.4939 -0.636759 0 3.39655 0 0 0 -1.93 0 -0.599647 -3.34128 0 -21.8021 1.90894 0 21.5219 0 0 0 3.37928 0 1.04972 
0 0 -0.201913 6.67525 4.27994 42.0122 0 0 0 0 0 0 -0.735533 0 3.65086 -1.09854 0 -6.98649 0 0 0 -1.71824 0 -0.530274 -3.18143 0 -15.8977 1.68823 0 12.6017 0 0 0 3.21209 0 0.999506 
0 0 -0.201528 6.67525 4.27994 42.0109 0 0 0 0 0 0 -0.735533 0 3.64738 -1.09854 0 -6.99295 0 0 0 -1.71824 0 -0.530274 -3.18143 0 -15.9094 1.68823 0 12.5934 0 0 0 3.21209 0 0.999506 
0 0 -0.201528 6.67525 4.27994 42.0109 0 0 0 0 0 0 -0.735533 0 3.64738 -1.09854 0 -6.99295 0 0 0 -1.71824 0 -0.530274 -3.18143 0 -15.9094 1.68823 0 12.5934 0 0 0 3.21209 0 0.999506 
0 0 -0.201528 6.67525 4.27994 42.0109 0 0 0 0 0 0 -0.735533 0 3.64738 -1.09854 0 -6.99295 0 0 0 -1.71824 0 -0.530274 -3.18143 0 -15.9094 1.68823 0 12.5934 0 0 0 3.21209 0 0.999506 
0 0 -0.16373 1.64111 3.88314 -40.2493 0 0 0 0 0 0 -1.59537 0 -12.2587 -0.577485 0 3.70934 0 0 0 -1.97646 0 -0.614968 -3.30569 0 -21.5714 1.95767 0 21.7784 0 0 0 3.34189 0 1.03854 
0 0 -0.163752 1.64111 3.88314 -40.2491 0 0 0 0 0 0 -1.59537 0 -12.2584 -0.577485 0 3.70988 0 0 0 -1.97646 0 -0.614968 -3.30569 0 -21.5704 1.95767 0 21.7791 0 0 0 3.34189 0 1.03854 
0 0 -0.163752 1.64111 3.88314 -40.2491 0 0 0 0 0 0 -1.59537 0 -12.2584 -0.577485 0 3.70988 0 0 0 -1.97646 0 -0.614968 -3.30569 0 -21.5704 1.95767 0 21.7791 0 0 0 3.34189 0 1.03854 
0 0 -0.227841 6.6359 4.18658 42.6261 0 0 0 0 0 0 -0.703051 0 3.98378 -1.04022 0 -6.25872 0 0 0 -1.76856 0 -0.546881 -3.14639 0 -14.8759 1.74106 0 13.563 0 0 0 3.17523 0 0.988499 
0 0 -0.227443 6.6359 4.18658 42.6247 0 0 0 0 0 0 -0.703051 0 3.9802 -1.04022 0 -6.26538 0 0 0 -1.76856 0 -0.546881 -3.14639 0 -14.888 1.74106 0 13.5544 0 0 0 3.17523 0 0.988499 
0 0 -0.227443 6.6359 4.18658 42.6247 0 0 0 0 0 0 -0.703051 0 3.9802 -1.04022 0 -6.26538 0 0 0 -1.76856 0 -0.546881 -3.14639 0 -14.888 1.74106 0 13.5544 0 0 0 3.17523 0 0.988499 
0 0 -0.22771 1.6441 3.77495 -39.0945 0 0 0 0 0 0 -1.53919 0 -11.2859 -0.49351 0 5.3857 0 0 0 -2.01441 0 -0.627512 -3.28148 0 -19.7291 1.99758 0 23.1648 0 0 0 3.31635 0 1.03094 
0 0 -0.227517 1.6441 3.77495 -39.0952 0 0 0 0 0 0 -1.53919 0 -11.2875 -0.49351 0 5.38275 0 0 0 -2.01441 0 -0.627512 -3.28148 0 -19.7344 1.99758 0 23.161 0 0 0 3.31635 0 1.03094 
0 0 -0.227517 1.6441 3.77495 -39.0952 0 0 0 0 0 0 -1.53919 0 -11.2875 -0.49351 0 5.38275 0 0 0 -2.01441 0 -0.627512 -3.28148 0 -19.7344 1.99758 0 23.161 0 0 0 3.31635 0 1.03094 
0 0 -0.227517 1.6441 3.77495 -39.0952 0 0 0 0 0 0 -1.53919 0 -11.2875 -0.49351 0 5.38275 0 0 0 -2.01441 0 -0.627512 -3.28148 0 -19.7344 1.99758 0 23.161 0 0 0 3.31635 0 1.03094 
0 0 -0.331814 6.73875 4.06814 44.8231 0 0 0 0 0 0 -0.658101 0 5.03911 -0.9309 0 -3.77148 0 0 0 -1.81034 0 -0.560702 -3.13727 0 -11.9867 1.78502 0 16.0979 0 0 0 3.16543 0 0.985634 
0 0 -0.331148 6.73875 4.06814 44.8209 0 0 0 0 0 0 -0.658101 0 5.03324 -0.9309 0 -3.78244 0 0 0 -1.81034 0 -0.560702 -3.13727 0 -12.0067 1.78502 0 16.0838 0 0 0 3.16543 0 0.985634 
0 0 -0.331148 6.73875 4.06814 44.8209 0 0 0 0 0 0 -0.658101 0 5.03324 -0.9309 0 -3.78244 0 0 0 -1.81034 0 -0.560702 -3.13727 0 -12.0067 1.78502 0 16.0838 0 0 0 3.16543 0 0.985634 
0 0 -0.365022 1.80942 3.62037 -36.2728 0 0 0 0 0 0 -1.42256 0 -9.027 -0.319523 0 9.09329 0 0 0 -2.02297 0 -0.630437 -3.30089 0 -16.2847 2.00688 0 25.6141 0 0 0 3.33641 0 1.03703 
0 0 -0.364212 1.80942 3.62037 -36.2755 0 0 0 0 0 0 -1.42256 0 -9.03388 -0.319523 0 9.08033 0 0 0 -2.02297 0 -0.630437 -3.30089 0 -16.3083 2.00688 0 25.5976 0 0 0 3.33641 0 1.03703 
0 0 -0.364212 1.80942 3.62037 -36.2755 0 0 0 0 0 0 -1.42256 0 -9.03388 -0.319523 0 9.08033 0 0 0 -2.02297 0 -0.630437 -3.30089 0 -16.3083 2.00688 0 25.5976 0 0 0 3.33641 0 1.03703 
0 0 -0.495581 6.97961 3.8872 48.3195 0 0 0 0 0 0 -0.564764 0 6.80872 -0.705121 0 0.577474 0 0 0 -1.82898 0 -0.566942 -3.18211 0 -7.83241 1.80487 0 19.8813 0 0 0 3.21205 0 0.999719 
0 0 -0.4944 6.97961 3.8872 48.3155 0 0 0 0 0 0 -0.564764 0 6.79843 -0.705121 0 0.558207 0 0 0 -1.82898 0 -0.566942 -3.18211 0 -7.86742 1.80487 0 19.8566 0 0 0 3.21205 0 0.999719 
0 0 -0.4944 6.97961 3.8872 48.3155 0 0 0 0 0 0 -0.564764 0 6.79843 -0.705121 0 0.558207 0 0 0 -1.82898 0 -0.566942 -3.18211 0 -7.86742 1.80487 0 19.8566 0 0 0 3.21205 0 0.999719 
0 0 -0.4944 6.97961 3.8872 48.3155 0 0 0 0 0 0 -0.564764 0 6.79843 -0.705121 0 0.558207 0 0 0 -1.82898 0 -0.566942 -3.18211 0 -7.86742 1.80487 0 19.8566 0 0 0 3.21205 0 0.999719 
0 0 -0.549036 2.11109 3.39808 -31.9921 0 0 0 0 0 0 -1.22318 0 -5.62201 -0.0239924 0 14.3987 0 0 0 -1.99819 0 -0.622436 -3.37413 0 -11.614 1.98142 0 28.8551 0 0 0 3.41279 0 1.06004 
0 0 -0.547303 2.11109 3.39808 -31.9978 0 0 0 0 0 0 -1.22318 0 -5.6368 -0.0239924 0 14.3709 0 0 0 -1.99819 0 -0.622436 -3.37413 0 -11.6646 1.98142 0 28.8195 0 0 0 3.41279 0 1.06004 
0 0 -0.547303 2.11109 3.39808 -31.9978 0 0 0 0 0 0 -1.22318 0 -5.6368 -0.0239924 0 14.3709 0 0 0 -1.99819 0 -0.622436 -3.37413 0 -11.6646 1.98142 0 28.8195 0 0 0 3.41279 0 1.06004 
0 0 -0.705656 7.31704 3.62945 52.84 0 0 0 0 0 0 -0.405212 0 9.32268 -0.35124 0 6.59719 0 0 0 -1.82565 0 -0.565975 -3.27824 0 -2.33866 1.80179 0 24.9105 0 0 0 3.31235 0 1.02992 
0 0 -0.703753 7.31704 3.62945 52.8337 0 0 0 0 0 0 -0.405212 0 9.30622 -0.35124 0 6.56636 0 0 0 -1.82565 0 -0.565975 -3.27824 0 -2.39468 1.80179 0 24.8709 0 0 0 3.31235 0 1.02992 
0 0 -0.703753 7.31704 3.62945 52.8337 0 0 0 0 0 0 -0.405212 0 9.30622 -0.35124 0 6.56636 0 0 0 -1.82565 0 -0.565975 -3.27824 0 -2.39468 1.80179 0 24.8709 0 0 0 3.31235 0 1.02992 
0 0 -0.75812 2.58464 3.15543 -25.9753 0 0 0 0 0 0 -0.939405 0 -1.22607 0.291304 0 19.6806 0 0 0 -1.94819 0 -0.606158 -3.44677 0 -4.70068 1.92963 0 32.8899 0 0 0 3.48856 0 1.08285 
0 0 -0.755285 2.58464 3.15543 -25.9846 0 0 0 0 0 0 -0.939405 0 -1.2502 0.291304 0 19.6352 0 0 0 -1.94819 0 -0.606158 -3.44677 0 -4.78308 1.92963 0 32.8318 0 0 0 3.48856 0 1.08285 
0 0 -0.755285 2.58464 3.15543 -25.9846 0 0 0 0 0 0 -0.939405 0 -1.2502 0.291304 0 19.6352 0 0 0 -1.94819 0 -0.606158 -3.44677 0 -4.78308 1.92963 0 32.8318 0 0 0 3.48856 0 1.08285 
0 0 -0.755285 2.58464 3.15543 -25.9846 0 0 0 0 0 0 -0.939405 0 -1.2502 0.291304 0 19.6352 0 0 0 -1.94819 0 -0.606158 -3.44677 0 -4.78308 1.92963 0 32.8318 0 0 0 3.48856 0 1.08285 
0 0 -0.93022 7.71247 3.3227 57.5158 0 0 0 0 0 0 -0.178124 0 12.4498 0.0544672 0 13.7572 0 0 0 -1.81142 0 -0.561412 -3.3772 0 4.19409 1.78726 0 30.9538 0 0 0 3.41565 0 1.061 
0 0 -0.927253 7.71247 3.3227 57.5061 0 0 0 0 0 0 -0.178124 0 12.4244 0.0544672 0 13.7095 0 0 0 -1.81142 0 -0.561412 -3.3772 0 4.10747 1.78726 0 30.8927 0 0 0 3.41565 0 1.061 
0 0 -0.927253 7.71247 3.3227 57.5061 0 0 0 0 0 0 -0.178124 0 12.4244 0.0544672 0 13.7095 0 0 0 -1.81142 0 -0.561412 -3.3772 0 4.10747 1.78726 0 30.8927 0 0 0 3.41565 0 1.061 
0 0 -0.977792 3.12783 2.87813 -19.1268 0 0 0 0 0 0 -0.574574 0 4.08972 0.615881 0 25.314 0 0 0 -1.8895 0 -0.587013 -3.49404 0 4.08206 1.86871 0 37.8417 0 0 0 3.53783 0 1.0977 
0 0 -0.973661 3.12783 2.87813 -19.1402 0 0 0 0 0 0 -0.574574 0 4.05484 0.615881 0 25.2484 0 0 0 -1.8895 0 -0.587013 -3.49404 0 3.96292 1.86871 0 37.7576 0 0 0 3.53783 0 1.0977 
0 0 -0.973661 3.12783 2.87813 -19.1402 0 0 0 0 0 0 -0.574574 0 4.05484 0.615881 0 25.2484 0 0 0 -1.8895 0 -0.587013 -3.49404 0 3.96292 1.86871 0 37.7576 0 0 0 3.53783 0 1.0977 
0 0 -1.14723 8.10978 2.95069 62.2966 0 0 0 0 0 0 0.113817 0 16.1141 0.505424 0 21.8709 0 0 0 -1.80585 0 -0.559658 -3.45614 0 11.5844 1.78168 0 38.0092 0 0 0 3.49807 0 1.08579 
0 0 -1.1429 8.10978 2.95069 62.2826 0 0 0 0 0 0 0.113817 0 16.0774 0.505424 0 21.8021 0 0 0 -1.80585 0 -0.559658 -3.45614 0 11.4593 1.78168 0 37.921 0 0 0 3.49807 0 1.08579 
0 0 -1.1429 8.10978 2.95069 62.2826 0 0 0 0 0 0 0.113817 0 16.0774 0.505424 0 21.8021 0 0 0 -1.80585 0 -0.559658 -3.45614 0 11.4593 1.78168 0 37.921 0 0 0 3.49807 0 1.08579 
0 0 -1.1429 8.10978 2.95069 62.2826 0 0 0 0 0 0 0.113817 0 16.0774 0.505424 0 21.8021 0 0 0 -1.80585 0 -0.559658 -3.45614 0 11.4593 1.78168 0 37.921 0 0 0 3.49807 0 1.08579 
0 0 -1.1856 3.68206 2.53082 -11.6579 0 0 0 0 0 0 -0.128081 0 10.2145 0.976667 0 31.4277 0 0 0 -1.84391 0 -0.572125 -3.5075 0 14.038 1.82134 0 43.5585 0 0 0 3.55179 0 1.10192 
0 0 -1.17995 3.68206 2.53082 -11.6759 0 0 0 0 0 0 -0.128081 0 10.1675 0.976667 0 31.3392 0 0 0 -1.84391 0 -0.572125 -3.5075 0 13.8772 1.82134 0 43.4451 0 0 0 3.55179 0 1.10192 
0 0 -1.17995 3.68206 2.53082 -11.6759 0 0 0 0 0 0 -0.128081 0 10.1675 0.976667 0 31.3392 0 0 0 -1.84391 0 -0.572125 -3.5075 0 13.8772 1.82134 0 43.4451 0 0 0 3.55179 0 1.10192 
0 0 -1.31967 4.30661 2.70528 18.1493 0 0 0 0 0 0 0.471161 0 20.3147 0.747704 0 27.1552 0 0 0 -1.76149 0 -0.545152 -3.453 0 20.9547 1.73553 0 44.6027 0 0 0 3.49469 0 1.0848 
0 0 -1.31339 4.30661 2.70528 18.1297 0 0 0 0 0 0 0.471161 0 20.263 0.747704 0 27.0581 0 0 0 -1.76149 0 -0.545152 -3.453 0 20.7783 1.73553 0 44.4782 0 0 0 3.49469 0 1.0848 
0 0 -1.31339 4.30661 2.70528 18.1297 0 0 0 0 0 0 0.471161 0 20.263 0.747704 0 27.0581 0 0 0 -1.76149 0 -0.545152 -3.453 0 20.7783 1.73553 0 44.4782 0 0 0 3.49469 0 1.0848 
0 0 -1.36709 1.36787 2.31439 -15.852 0 0 0 0 0 0 0.377815 0 16.7785 1.17042 0 37.0794 0 0 0 -1.72241 0 -0.532397 -3.48482 0 23.7406 1.69495 0 48.4858 0 0 0 3.52789 0 1.0948 
0 0 -1.35959 1.36787 2.31439 -15.875 0 0 0 0 0 0 0.377815 0 16.718 1.17042 0 36.9655 0 0 0 -1.72241 0 -0.532397 -3.48482 0 23.5334 1.69495 0 48.3397 0 0 0 3.52789 0 1.0948 
0 0 -1.35959 1.36787 2.31439 -15.875 0 0 0 0 0 0 0.377815 0 16.718 1.17042 0 36.9655 0 0 0 -1.72241 0 -0.532397 -3.48482 0 23.5334 1.69495 0 48.3397 0 0 0 3.52789 0 1.0948 
0 0 -1.35959 1.36787 2.31439 -15.875 0 0 0 0 0 0 0.377815 0 16.718 1.17042 0 36.9655 0 0 0 -1.72241 0 -0.532397 -3.48482 0 23.5334 1.69495 0 48.3397 0 0 0 3.52789 0 1.0948 
0 0 -1.49756 7.79696 2.37902 73.186 0 0 0 0 0 0 0.876065 0 24.8809 1.11938 0 35.8459 0 0 0 -1.70226 0 -0.525829 -3.49841 0 29.1267 1.67404 0 52.4719 0 0 0 3.54202 0 1.09906 
0 0 -1.48969 7.79696 2.37902 73.1622 0 0 0 0 0 0 0.876065 0 24.8181 1.11938 0 35.7275 0 0 0 -1.70226 0 -0.525829 -3.49841 0 28.9112 1.67404 0 52.3199 0 0 0 3.54202 0 1.09906 
0 0 -1.48969 7.79696 2.37902 73.1622 0 0 0 0 0 0 0.876065 0 24.8181 1.11938 0 35.7275 0 0 0 -1.70226 0 -0.525829 -3.49841 0 28.9112 1.67404 0 52.3199 0 0 0 3.54202 0 1.09906 
0 0 -1.47161 4.97224 2.01679 10.03 0 0 0 0 0 0 0.848148 0 23.0203 1.46769 0 43.4635 0 0 0 -1.64519 0 -0.507094 -3.48448 0 34.4463 1.61445 0 55.4061 0 0 0 3.52749 0 1.09469 
0 0 -1.46217 4.97224 2.01679 10.0022 0 0 0 0 0 0 0.848148 0 22.9468 1.46769 0 43.3249 0 0 0 -1.64519 0 -0.507094 -3.48448 0 34.194 1.61445 0 55.2283 0 0 0 3.52749 0 1.09469 
0 0 -1.46217 4.97224 2.01679 10.0022 0 0 0 0 0 0 0.848148 0 22.9468 1.46769 0 43.3249 0 0 0 -1.64519 0 -0.507094 -3.48448 0 34.194 1.61445 0 55.2283 0 0 0 3.52749 0 1.09469 
0.424901 -2.92928 17.1536 0 0 0 0 0 0 -5.1686 -3.58462 0.471837 1.25237 0 27.8983 0 0 0 0 0 0 -1.70518 0 -0.526729 0 0 0 1.67691 0 60.0568 -1.6482 3.47873e-16 -0.488143 3.61211 0 1.37219 
0.424901 -2.92928 17.1578 0 0 0 0 0 0 -5.1686 -14.284 36.4408 1.25237 0 27.8665 0 0 0 0 0 0 -1.70518 0 -0.526729 0 0 0 1.67691 0 59.9798 -1.6482 19.1029 -2.57679 3.61211 0.0887631 1.34481 
0.424901 -2.92928 17.1578 0 0 0 0 0 0 -5.1686 -21.659 61.2333 1.25237 0 27.8665 0 0 0 0 0 0 -1.70518 0 -0.526729 0 0 0 1.67691 0 59.9798 -1.6482 31.9746 -3.98414 3.61211 0.177527 1.31744 
0.424901 -2.92928 17.1578 0 0 0 0 0 0 -5.1686 -27.9788 82.478 1.25237 0 27.8665 0 0 0 0 0 0 -1.70518 0 -0.526729 0 0 0 1.67691 0 59.9798 -1.6482 42.7539 -5.16271 3.61211 0.266291 1.29006 
3.68993 -3.34897 56.3994 0 0 0 0 0 0 -12.3288 -37.1893 45.3402 1.57555 0 32.3939 0 0 0 0 0 0 -1.79668 0 -0.557069 0 0 0 1.77341 0 69.2057 3.5114 52.079 12.0939 1.58171 0.355056 0.651852 
3.68993 -3.34897 56.4052 0 0 0 0 0 0 -12.3288 -42.092 62.774 1.57555 0 32.3521 0 0 0 0 0 0 -1.79668 0 -0.557069 0 0 0 1.77341 0 69.1041 3.5114 59.9903 11.2282 1.58171 0.434326 0.626462 
3.68993 -3.34897 56.4052 0 0 0 0 0 0 -12.3288 -46.2979 77.726 1.57555 0 32.3521 0 0 0 0 0 0 -1.79668 0 -0.557069 0 0 0 1.77341 0 69.1041 3.5114 66.4926 10.5167 1.58171 0.521194 0.598639 
4.96967 -2.92366 52.7968 0 0 0 0 0 0 -17.5071 -50.5851 80.8922 1.17851 0 29.6148 0 0 0 0 0 0 -1.76855 0 -0.548188 0 0 0 1.74515 0 74.5802 11.5435 71.39 19.856 -2.28441 0.608062 -0.600854 
4.96967 -2.92366 52.8057 0 0 0 0 0 0 -17.5071 -52.9166 89.0768 1.17851 0 29.5545 0 0 0 0 0 0 -1.76855 0 -0.548188 0 0 0 1.74515 0 74.4329 11.5435 74.4719 19.5197 -2.28441 0.694935 -0.630429 
4.96967 -2.92366 52.8057 0 0 0 0 0 0 -17.5071 -54.091 93.1952 1.17851 0 29.5545 0 0 0 0 0 0 -1.76855 0 -0.548188 0 0 0 1.74515 0 74.4329 11.5435 75.4107 19.4173 -2.28441 0.781807 -0.660005 
7.6229 -3.03757 76.9776 0 0 0 0 0 0 -26.1848 -57.4723 49.3209 1.51594 0 41.9001 0 0 0 0 0 0 -1.55397 0 -0.477921 0 0 0 1.52161 0 80.029 22.4263 75.3393 29.1575 -7.3979 0.86868 -2.2502 
7.6229 -3.03757 76.9871 0 0 0 0 0 0 -26.1848 -58.2018 51.8693 1.51594 0 41.8411 0 0 0 0 0 0 -1.55397 0 -0.477921 0 0 0 1.52161 0 79.8838 22.4263 75.3746 29.1537 -7.3979 0.963261 -2.28469 
7.6229 -3.03757 76.9871 0 0 0 0 0 0 -26.1848 -58.8997 54.3074 1.51594 0 41.8411 0 0 0 0 0 0 -1.55397 0 -0.477921 0 0 0 1.52161 0 79.8838 22.4263 75.48 29.1423 -7.3979 1.05084 -2.31662 
7.6229 -3.03757 76.9871 0 0 0 0 0 0 -26.1848 -59.6046 56.7699 1.51594 0 41.8411 0 0 0 0 0 0 -1.55397 0 -0.477921 0 0 0 1.52161 0 79.8838 22.4263 75.5942 29.1298 -7.3979 1.13842 -2.34855 
7.91988 -2.9023 62.0619 0 0 0 0 0 0 -30.9222 -60.5157 64.0332 1.7904 0 46.1142 0 0 0 0 0 0 -1.15661 0 -0.349124 0 0 0 1.11183 0 81.8497 32.0101 75.6646 24.7017 -11.77 1.226 -3.7267 
7.91988 -2.9023 62.0734 0 0 0 0 0 0 -30.9222 -61.6405 67.7675 1.7904 0 46.048 0 0 0 0 0 0 -1.15661 0 -0.349124 0 0 0 1.11183 0 81.6859 32.0101 75.4444 24.7255 -11.77 1.354 -3.7757 
7.91988 -2.9023 62.0734 0 0 0 0 0 0 -30.9222 -62.1585 69.4931 1.7904 0 46.048 0 0 0 0 0 0 -1.15661 0 -0.349124 0 0 0 1.11183 0 81.6859 32.0101 75.2603 24.7454 -11.77 1.44428 -3.81027 
11.4689 -3.14727 102.226 0 0 0 0 0 0 -40.6699 -66.4077 21.4031 2.00804 0 49.8872 0 0 0 0 0 0 -1.18025 0 -0.357729 0 0 0 1.13914 0 96.6254 42.0008 74.8747 26.1836 -15.606 1.53457 -5.04121 
11.4689 -3.14727 102.237 0 0 0 0 0 0 -40.6699 -67.4705 24.9381 2.00804 0 49.8362 0 0 0 0 0 0 -1.18025 0 -0.357729 0 0 0 1.13914 0 96.4972 42.0008 73.7922 26.3002 -15.606 1.72342 -5.11613 
11.4689 -3.14727 102.237 0 0 0 0 0 0 -40.6699 -67.4768 24.9818 2.00804 0 49.8362 0 0 0 0 0 0 -1.18025 0 -0.357729 0 0 0 1.13914 0 96.4972 42.0008 72.8218 26.4046 -15.606 1.81919 -5.15413 
13.2358 -3.35264 98.6183 0 0 0 0 0 0 -46.8392 -69.3053 36.0403 2.18388 0 51.8161 0 0 0 0 0 0 -1.20725 0 -0.367018 0 0 0 1.16865 0 102.991 49.3736 71.4727 17.62 -18.0471 1.91498 -5.9913 
13.2358 -3.35264 98.6335 0 0 0 0 0 0 -46.8392 -69.8896 38.0024 2.18388 0 51.7446 0 0 0 0 0 0 -1.20725 0 -0.367018 0 0 0 1.16865 0 102.81 49.3736 68.849 17.901 -18.0471 2.20804 -6.10954 
13.2358 -3.35264 98.6335 0 0 0 0 0 0 -46.8392 -68.9827 35.1644 2.18388 0 51.7446 0 0 0 0 0 0 -1.20725 0 -0.367018 0 0 0 1.16865 0 102.81 49.3736 66.4888 18.1538 -18.0471 2.31324 -6.15199 
13.2358 -3.35264 98.6335 0 0 0 0 0 0 -46.8392 -67.6724 31.0469 2.18388 0 51.7446 0 0 0 0 0 0 -1.20725 0 -0.367018 0 0 0 1.16865 0 102.81 49.3736 63.4748 18.4765 -18.0471 2.41845 -6.19443 
15.7316 -3.90473 121.055 0 0 0 0 0 0 -54.0928 -69.0255 11.2821 2.32006 0 53.8 0 0 0 0 0 0 -1.60954 0 -0.497766 0 0 0 1.58461 0 118.438 54.9471 59.6552 12.7985 -19.2206 2.52366 -6.66807 
15.7316 -3.90473 121.07 0 0 0 0 0 0 -54.0928 -67.5988 6.93668 2.32006 0 53.7352 0 0 0 0 0 0 -1.60954 0 -0.497766 0 0 0 1.58461 0 118.273 54.9471 53.4547 13.4574 -19.2206 2.92778 -6.8318 
15.7316 -3.90473 121.07 0 0 0 0 0 0 -54.0928 -64.2767 -3.51936 2.32006 0 53.7352 0 0 0 0 0 0 -1.60954 0 -0.497766 0 0 0 1.58461 0 118.273 54.9471 47.1039 14.1323 -19.2206 3.045 -6.8793 
14.8921 -4.42639 95.3867 0 0 0 0 0 0 -55.5212 -59.5337 22.1745 2.42894 0 54.4323 0 0 0 0 0 0 -2.00834 0 -0.627505 0 0 0 1.99742 0 126.46 57.1586 38.5433 3.56391 -19.1026 3.16223 -6.96951 
14.8921 -4.42639 95.4044 0 0 0 0 0 0 -55.5212 -52.5326 1.13821 2.42894 0 54.3521 0 0 0 0 0 0 -2.00834 0 -0.627505 0 0 0 1.99742 0 126.257 57.1586 22.2478 5.2799 -19.1026 3.65001 -7.1654 
14.8921 -4.42639 95.4044 0 0 0 0 0 0 -55.5212 -40.5882 -35.1264 2.42894 0 54.3521 0 0 0 0 0 0 -2.00834 0 -0.627505 0 0 0 1.99742 0 126.257 57.1586 0 7.62271 -19.1026 3.78055 -7.21783 
10.2561 -4.93794 45.5449 0 0 0 0 0 0 -50.7832 -36.3854 18.8044 2.51671 0 54.6524 0 0 0 0 0 0 -2.41524 0 -0.760694 0 0 0 2.42125 0 134.306 54.4278 -9.54166e-15 -7.83153 -16.5563 3.91112 -6.47845 
10.2561 -4.93794 45.562 0 0 0 0 0 0 -50.7832 -37.5427 22.3972 2.51671 0 54.5701 0 0 0 0 0 0 -2.41524 0 -0.760694 0 0 0 2.42125 0 134.099 54.4278 0 -7.83153 -16.5563 4.30554 -6.63276 
10.2561 -4.93794 45.562 0 0 0 0 0 0 -50.7832 -37.181 21.4703 2.51671 0 54.5701 0 0 0 0 0 0 -2.41524 0 -0.760694 0 0 0 2.42125 0 134.099 54.4278 -3.18055e-15 -7.83153 -16.5563 4.4447 -6.6872 
10.2561 -4.93794 45.562 0 0 0 0 0 0 -50.7832 -36.7784 20.4273 2.51671 0 54.5701 0 0 0 0 0 0 -2.41524 0 -0.760694 0 0 0 2.42125 0 134.099 54.4278 9.54166e-15 -7.83153 -16.5563 4.58389 -6.74166 
7.89286 -6.08259 58.5248 0 0 0 0 0 0 -49.9337 -35.1312 -4.48702 2.58365 0 57.5801 0 0 0 0 0 0 -3.45213 0 -1.09926 0 0 0 3.49903 0 159.479 49.637 0 -13.8691 -12.4827 4.72311 -5.44641 
7.89286 -6.08259 58.5394 0 0 0 0 0 0 -49.9337 -35.5465 -3.13103 2.58365 0 57.514 0 0 0 0 0 0 -3.45213 0 -1.09926 0 0 0 3.49903 0 159.311 49.637 0 -13.8691 -12.4827 4.91289 -5.51779 
7.89286 -6.08259 58.5394 0 0 0 0 0 0 -49.9337 -35.0629 -4.46551 2.58365 0 57.514 0 0 0 0 0 0 -3.45213 0 -1.09926 0 0 0 3.49903 0 159.311 49.637 3.18055e-15 -13.8691 -12.4827 5.05362 -5.57072 
3.41697 -7.28354 28.134 0 0 0 0 0 0 -44.8633 -31.2772 23.8237 2.63871 0 61.2863 0 0 0 0 0 0 -4.5544 0 -1.45904 0 0 0 4.64495 0 176.525 43.2259 -3.18055e-15 -19.9248 -8.43432 5.19438 -4.25765 
3.41697 -7.28354 28.1532 0 0 0 0 0 0 -44.8633 -31.2603 23.7756 2.63871 0 61.1918 0 0 0 0 0 0 -4.5544 0 -1.45904 0 0 0 4.64495 0 176.287 43.2259 3.18055e-15 -19.9248 -8.43432 5.19818 -4.25902 
3.41697 -7.28354 28.1532 0 0 0 0 0 0 -44.8633 -30.8081 22.5103 2.63871 0 61.1918 0 0 0 0 0 0 -4.5544 0 -1.45904 0 0 0 4.64495 0 176.287 43.2259 -3.18055e-15 -19.9248 -8.43432 5.33537 -4.30825 
-2.74332 -8.60841 -7.25325 0 0 0 0 0 0 -37.3655 -25.4068 43.7091 2.68378 0 68.6359 0 0 0 0 0 0 -5.78485 0 -1.86062 0 0 0 5.9248 0 198.981 36.1696 0 -22.3159 -4.41793 5.47258 -2.99131 
-2.74332 -8.60841 -7.29401 0 0 0 0 0 0 -37.3655 -25.0346 42.462 2.68378 0 68.4228 0 0 0 0 0 0 -5.78485 0 -1.86062 0 0 0 5.9248 0 198.579 36.1696 -1.59028e-15 -22.3159 -4.41793 5.24613 -2.91392 
-2.74332 -8.60841 -7.29401 0 0 0 0 0 0 -37.3655 -24.6601 41.4178 2.68378 0 68.4228 0 0 0 0 0 0 -5.78485 0 -1.86062 0 0 0 5.9248 0 198.579 36.1696 0 -22.3159 -4.41793 5.37445 -2.95778 
-2.74332 -8.60841 -7.29401 0 0 0 0 0 0 -37.3655 -24.3278 40.5 2.68378 0 68.4228 0 0 0 0 0 0 -5.78485 0 -1.86062 0 0 0 5.9248 0 198.579 36.1696 -1.59028e-15 -22.3159 -4.41793 5.50281 -3.00164 
-2.94054 -10.3376 38.5208 0 0 0 0 0 0 -36.9059 -25.6168 -13.8916 2.72174 0 72.4967 0 0 0 0 0 0 -7.40741 0 -2.39092 0 0 0 7.61618 0 224.635 31.0128 -1.59028e-15 -16.8276 -1.28225 5.63119 -1.9862 
-2.94054 -10.3376 38.5992 0 0 0 0 0 0 -36.9059 -24.9337 -16.232 2.72174 0 72.4817 0 0 0 0 0 0 -7.40741 0 -2.39092 0 0 0 7.61618 0 224.473 31.0128 0 -16.8276 -1.28225 5.13158 -1.82162 
-2.94054 -10.3376 38.5992 0 0 0 0 0 0 -36.9059 -24.6865 -16.9502 2.72174 0 72.4817 0 0 0 0 0 0 -7.40741 0 -2.39092 0 0 0 7.61618 0 224.473 31.0128 0 -16.8276 -1.28225 5.24593 -1.85929 
-7.3985 -11.8435 3.02324 0 0 0 0 0 0 -30.8089 -21.7889 30.4927 2.75061 0 77.5567 0 0 0 0 0 0 -8.82579 0 -2.85352 0 0 0 9.09317 0 240.227 24.748 0 -21.099 1.84596 5.3603 -0.862031 
-7.3985 -11.8435 3.04978 0 0 0 0 0 0 -30.8089 -21.0108 27.8549 2.75061 0 77.4174 0 0 0 0 0 0 -8.82579 0 -2.85352 0 0 0 9.09317 0 239.877 24.748 0 -21.099 1.84596 4.74709 -0.667449 
-7.3985 -11.8435 3.04978 0 0 0 0 0 0 -30.8089 -20.8435 27.3812 2.75061 0 77.4174 0 0 0 0 0 0 -8.82579 0 -2.85352 0 0 0 9.09317 0 239.877 24.748 -3.18055e-15 -21.099 1.84596 4.84622 -0.698905 
-8.59781 -13.6265 24.9726 0 0 0 0 0 0 -29.2194 -21.3767 3.16651 2.77377 0 82.5101 0 0 0 0 0 0 -10.517 0 -3.40411 0 0 0 10.853 0 265.164 20.4235 -1.59028e-15 -15.1094 3.9169 4.94537 -0.0643322 
-8.59781 -13.6265 24.9992 0 0 0 0 0 0 -29.2194 -20.5579 0.397196 2.77377 0 82.372 0 0 0 0 0 0 -10.517 0 -3.40411 0 0 0 10.853 0 264.817 20.4235 -1.59028e-15 -15.1094 3.9169 4.26319 0.147569 
-8.59781 -13.6265 24.9992 0 0 0 0 0 0 -29.2194 -20.4669 0.128559 2.77377 0 82.372 0 0 0 0 0 0 -10.517 0 -3.40411 0 0 0 10.853 0 264.817 20.4235 6.36111e-15 -15.1094 3.9169 4.34694 0.121554 
-8.59781 -13.6265 24.9992 0 0 0 0 0 0 -29.2194 -20.4083 -0.0372139 2.77377 0 82.372 0 0 0 0 0 0 -10.517 0 -3.40411 0 0 0 10.853 0 264.817 20.4235 1.59028e-15 -15.1094 3.9169 4.4307 0.0955364 
-10.339 -15.2781 27.491 0 0 0 0 0 0 -26.9774 -20.7368 9.79701 2.79244 0 85.7689 0 0 0 0 0 0 -12.0883 0 -3.91439 0 0 0 12.4859 0 280.795 16.6807 0 -13.4798 5.37896 4.51447 0.527511 
-10.339 -15.2781 27.5214 0 0 0 0 0 0 -26.9774 -20.0394 7.42694 2.79244 0 85.6146 0 0 0 0 0 0 -12.0883 0 -3.91439 0 0 0 12.4859 0 280.405 16.6807 -1.59028e-15 -13.4798 5.37896 3.77009 0.756246 
-10.339 -15.2781 27.5214 0 0 0 0 0 0 -26.9774 -20.125 7.71373 2.79244 0 85.6146 0 0 0 0 0 0 -12.0883 0 -3.91439 0 0 0 12.4859 0 280.405 16.6807 0 -13.4798 5.37896 3.83873 0.735152 
-6.59874 -16.9203 46.2317 0 0 0 0 0 0 -35.3128 -23.5804 -74.4179 2.81258 0 69.8443 0 0 0 0 0 0 -13.6669 0 -4.42124 0 0 0 14.1086 0 269.693 24.8129 4.77083e-15 29.3229 0.655592 3.90739 -0.753484 
-6.59874 -16.9203 46.2548 0 0 0 0 0 0 -35.3128 -23.0949 -76.1172 2.81258 0 69.7052 0 0 0 0 0 0 -13.6669 0 -4.42124 0 0 0 14.1086 0 269.346 24.8129 -1.59028e-15 29.3229 0.655592 3.41206 -0.587163 
-6.59874 -16.9203 46.2548 0 0 0 0 0 0 -35.3128 -23.1749 -75.8355 2.81258 0 69.7052 0 0 0 0 0 0 -13.6669 0 -4.42124 0 0 0 14.1086 0 269.346 24.8129 0 29.3229 0.655592 3.47096 -0.606941 
-12.1168 -17.9429 -1.695 0 0 0 0 0 0 -29.9506 -18.923 10.2386 2.82391 0 74.8614 0 0 0 0 0 0 -14.6435 0 -4.73656 0 0 0 15.1198 0 275.255 25.5758 6.36111e-15 2.89157 -0.821577 3.52986 -1.04919 
0 0 -9.01927 31.6249 34.1317 4.49717 0 0 0 0 0 0 2.82391 0 75.3862 -25.6167 0 -35.2209 0 0 0 -14.6435 0 -4.73656 0.214178 -8.73941 313.046 15.1198 0 271.741 0 0 0 -0.821577 0 -0.0756331 
0 0 0 31.6249 25.3923 36.7559 12.5377 8.73339 33.1347 0 0 0 0 0 0 -25.6167 0 -25.6199 -2.82407 7.95139e-15 -3.30526 -14.6435 0 -4.48446 0.214178 0 264.223 0 0 0 0 0 0 -0.821577 0 -0.0756331 
0 0 0 31.6249 25.3923 36.7559 12.5377 1.07066 56.5471 0 0 0 0 0 0 -25.6167 0 -25.6199 -2.82407 13.3904 -4.65953 -14.6435 0.004375 -4.4861 0.214178 0 264.223 0 0 0 0 0 0 -0.821577 0 -0.0756331 
0 0 0 20.048 20.2227 -45.0079 19.8235 2.25204 86.091 0 0 0 0 0 0 -19.92 0 61.6672 -1.20235 22.9667 -1.10372 -16.9236 0.00875001 -5.23191 -0.308485 0 224.437 0 0 0 0 0 0 -0.208742 0 0.0897761 
0 0 0 20.048 20.2227 -45.0678 19.8235 -2.51451 99.5362 0 0 0 0 0 0 -19.92 0 61.4131 -1.20235 30.7376 -1.89023 -16.9236 0.0119782 -5.23314 -0.308485 0 223.737 0 0 0 0 0 0 -0.208742 0 0.0897761 
0 0 0 20.048 20.2227 -45.0678 19.8235 -6.59891 111.058 0 0 0 0 0 0 -19.92 0 61.4131 -1.20235 37.3998 -2.56453 -16.9236 0.0159711 -5.23468 -0.308485 0 223.737 0 0 0 0 0 0 -0.208742 0 0.0897761 
0 0 0 17.7661 18.2342 33.5216 17.2806 -11.8621 65.752 0 0 0 0 0 0 -18.2151 0 44.6608 3.21972 43.4835 4.88053 -20.7654 0.0199641 -6.46843 -0.0228529 0 247.843 0 0 0 0 0 0 -0.482732 0 0.000187705 
0 0 0 17.7661 18.2342 33.4504 17.2806 -15.4567 76.8657 0 0 0 0 0 0 -18.2151 0 44.2194 3.21972 49.1871 4.29996 -20.7654 0.0108535 -6.46481 -0.0228529 0 247.158 0 0 0 0 0 0 -0.482732 0 0.000187705 
0 0 0 17.7661 18.2342 33.4504 17.2806 -18.8034 87.218 0 0 0 0 0 0 -18.2151 0 44.2194 3.21972 54.3679 3.7726 -20.7654 0.0126625 -6.46553 -0.0228529 0 247.158 0 0 0 0 0 0 -0.482732 0 0.000187705 
0 0 0 11.0765 14.4207 -24.8592 15.4062 -18.6912 72.1262 0 0 0 0 0 0 -13.9989 0 89.8361 14.3708 59.1455 23.696 -27.1048 0.014471 -8.47544 -0.423615 0 234.319 0 0 0 0 0 0 -0.0164739 0 0.12714 
0 0 0 11.0765 14.4207 -24.9103 15.4062 -21.5703 80.5832 0 0 0 0 0 0 -13.9989 0 89.5438 14.3708 63.5687 23.2413 -27.1048 -0.0171635 -8.46222 -0.423615 0 233.774 0 0 0 0 0 0 -0.0164739 0 0.12714 
0 0 0 11.0765 14.4207 -24.9103 15.4062 -24.3681 88.8209 0 0 0 0 0 0 -13.9989 0 89.5438 14.3708 67.5279 22.8343 -27.1048 -0.0190705 -8.46142 -0.423615 0 233.774 0 0 0 0 0 0 -0.0164739 0 0.12714 
0 0 0 11.0765 14.4207 -24.9103 15.4062 -26.9795 96.5097 0 0 0 0 0 0 -13.9989 0 89.5438 14.3708 71.0563 22.4716 -27.1048 -0.0209774 -8.46063 -0.423615 0 233.774 0 0 0 0 0 0 -0.0164739 0 0.12714 
0 0 0 9.09127 11.535 5.95903 9.121 -30.4773 63.0268 0 0 0 0 0 0 -10.6269 0 102.193 25.0875 74.1293 21.3521 -32.7453 -0.0228848 -10.1956 -0.909144 0 230.596 0 0 0 0 0 0 0.522461 0 0.2805 
0 0 0 9.09127 11.535 5.908 9.121 -33.4484 72.0025 0 0 0 0 0 0 -10.6269 0 101.9 25.0875 76.9847 21.0555 -32.7453 -0.0969586 -10.1636 -0.909144 0 230.053 0 0 0 0 0 0 0.522461 0 0.2805 
0 0 0 9.09127 11.535 5.908 9.121 -35.3877 77.8855 0 0 0 0 0 0 -10.6269 0 101.9 25.0875 79.0151 20.8446 -32.7453 -0.104417 -10.1604 -0.909144 0 230.053 0 0 0 0 0 0 0.522461 0 0.2805 
0 0 0 6.82918 9.10447 3.93694 2.07557 -37.2035 57.7115 0 0 0 0 0 0 -7.93056 0 111.825 37.4339 80.4828 26.4469 -38.3636 -0.111875 -11.8454 -1.17467 0 233.821 0 0 0 0 0 0 0.805917 0 0.364189 
0 0 0 6.82918 9.10447 3.88979 2.07557 -40.0466 66.3909 0 0 0 0 0 0 -7.93056 0 111.553 37.4339 81.531 26.3371 -38.3636 -0.220458 -11.7976 -1.17467 0 233.318 0 0 0 0 0 0 0.805917 0 0.364189 
0 0 0 6.82918 9.10447 3.88979 2.07557 -41.0339 69.4184 0 0 0 0 0 0 -7.93056 0 111.553 37.4339 81.6987 26.3195 -38.3636 -0.234237 -11.7915 -1.17467 0 233.318 0 0 0 0 0 0 0.805917 0 0.364189 
0 0 0 6.44162 7.23545 19.4896 -6.88367 -43.4685 47.2656 0 0 0 0 0 0 -5.77403 0 118.171 48.9221 81.7242 24.3983 -42.7139 -0.248016 -13.0322 -1.46204 0 229.949 0 0 0 0 0 0 1.10264 0 0.454619 
0 0 0 6.44162 7.23545 19.4385 -6.88367 -46.5205 57.0898 0 0 0 0 0 0 -5.77403 0 117.875 48.9221 81.5552 24.4161 -42.7139 -0.394886 -12.967 -1.46204 0 229.401 0 0 0 0 0 0 1.10264 0 0.454619 
0 0 0 6.44162 7.23545 19.4385 -6.88367 -47.3542 59.781 0 0 0 0 0 0 -5.77403 0 117.875 48.9221 81.5018 24.4217 -42.7139 -0.41567 -12.9578 -1.46204 0 229.401 0 0 0 0 0 0 1.10264 0 0.454619 
0 0 0 6.44162 7.23545 19.4385 -6.88367 -48.1838 62.4591 0 0 0 0 0 0 -5.77403 0 117.875 48.9221 81.4407 24.4281 -42.7139 -0.436454 -12.9486 -1.46204 0 229.401 0 0 0 0 0 0 1.10264 0 0.454619 
0 0 0 3.56086 5.47596 0.671996 -14.4296 -47.7776 46.4793 0 0 0 0 0 0 -4.04833 0 122.711 60.7485 81.3641 26.5493 -46.2851 -0.457238 -13.9545 -1.4284 0 234.055 0 0 0 0 0 0 1.04526 0 0.44365 
0 0 0 3.56086 5.47596 0.624362 -14.4296 -50.9558 56.7641 0 0 0 0 0 0 -4.04833 0 122.435 60.7485 80.1187 26.6807 -46.2851 -0.62662 -13.8793 -1.4284 0 233.542 0 0 0 0 0 0 1.04526 0 0.44365 
0 0 0 3.56086 5.47596 0.624362 -14.4296 -51.6368 58.9714 0 0 0 0 0 0 -4.04833 0 122.435 60.7485 79.8892 26.705 -46.2851 -0.653865 -13.8672 -1.4284 0 233.542 0 0 0 0 0 0 1.04526 0 0.44365 
0 0 0 4.92332 3.98051 35.445 -25.9033 -55.0751 12.314 0 0 0 0 0 0 -2.66594 0 125.132 70.1942 79.6233 20.3201 -47.2923 -0.681111 -14.0182 -1.31526 0 231.679 0 0 0 0 0 0 0.915866 0 0.407824 
0 0 0 4.92332 3.98051 35.3974 -25.9033 -57.9055 21.832 0 0 0 0 0 0 -2.66594 0 124.879 70.1942 76.879 20.609 -47.2923 -0.892436 -13.9245 -1.31526 0 231.179 0 0 0 0 0 0 0.915866 0 0.407824 
0 0 0 4.92332 3.98051 35.3974 -25.9033 -58.3671 23.3841 0 0 0 0 0 0 -2.66594 0 124.879 70.1942 76.4106 20.6583 -47.2923 -0.926763 -13.9093 -1.31526 0 231.179 0 0 0 0 0 0 0.915866 0 0.407824 
0 0 0 0.427093 2.51731 -12.858 -31.8158 -55.5226 40.1586 0 0 0 0 0 0 -1.57907 0 126.858 79.302 75.8845 21.0031 -47.8672 -0.961091 -14.0381 -0.940063 0 234.288 0 0 0 0 0 0 0.501596 0 0.28914 
0 0 0 0.427093 2.51731 -12.9075 -31.8158 -57.5113 46.8966 0 0 0 0 0 0 -1.57907 0 126.564 79.302 71.1761 21.5023 -47.8672 -1.09633 -13.9782 -0.940063 0 233.774 0 0 0 0 0 0 0.501596 0 0.28914 
0 0 0 0.427093 2.51731 -12.9075 -31.8158 -57.6884 47.4904 0 0 0 0 0 0 -1.57907 0 126.564 79.302 70.4001 21.5845 -47.8672 -1.13414 -13.9615 -0.940063 0 233.774 0 0 0 0 0 0 0.501596 0 0.28914 
0 0 0 0.427093 2.51731 -12.9075 -31.8158 -57.806 47.8819 0 0 0 0 0 0 -1.57907 0 126.564 79.302 69.541 21.6756 -47.8672 -1.17195 -13.9447 -0.940063 0 233.774 0 0 0 0 0 0 0.501596 0 0.28914 
0 0 0 -0.0112923 1.21848 7.90564 -41.3447 -58.479 -2.92838 0 0 0 0 0 0 -0.689993 0 126.151 85.5302 68.5891 13.9312 -45.4456 -1.20976 -13.0671 -0.530174 0 230.307 0 0 0 0 0 0 0.0572375 0 0.159552 
0 0 0 -0.0112923 1.21848 7.85144 -41.3447 -58.7185 -2.11016 0 0 0 0 0 0 -0.689993 0 125.859 85.5302 61.2379 14.7138 -45.4456 -1.39869 -12.9833 -0.530174 0 229.77 0 0 0 0 0 0 0.0572375 0 0.159552 
0 0 0 -0.0112923 1.21848 7.85144 -41.3447 -58.4473 -3.06761 0 0 0 0 0 0 -0.689993 0 125.859 85.5302 59.9307 14.853 -45.4456 -1.44108 -12.9645 -0.530174 0 229.77 0 0 0 0 0 0 0.0572375 0 0.159552 
0 0 0 -1.61911 -0.0528485 -2.07378 -48.025 -57.4987 -10.2961 0 0 0 0 0 0 0.0190875 0 124.828 89.9923 58.4865 9.90981 -42.4755 -1.48347 -12.0483 0.0317316 0 230.241 0 0 0 0 0 0 -0.566746 0 -0.0186137 
0 0 0 -1.61911 -0.0528485 -2.1254 -48.025 -55.588 -17.0828 0 0 0 0 0 0 0.0190875 0 124.56 89.9923 47.6325 11.0872 -42.4755 -1.56256 -12.0132 0.0317316 0 229.749 0 0 0 0 0 0 -0.566746 0 -0.0186137 
0 0 0 -1.61911 -0.0528485 -2.1254 -48.025 -54.7565 -20.0359 0 0 0 0 0 0 0.0190875 0 124.56 89.9923 45.5665 11.3113 -42.4755 -1.60598 -11.9939 0.0317316 0 229.749 0 0 0 0 0 0 -0.566746 0 -0.0186137 
0 0 0 -2.22544 -1.24837 -0.043428 -54.023 -54.0278 -33.825 0 0 0 0 0 0 0.589165 0 122.77 91.9865 43.2438 4.32508 -37.9959 -1.6494 -10.6516 0.657121 0 228.301 0 0 0 0 0 0 -1.26601 0 -0.217312 
0 0 0 -2.22544 -1.24837 -0.0966361 -54.023 -47.3564 -57.9439 0 0 0 0 0 0 0.589165 0 122.504 91.9865 24.176 6.42446 -37.9959 -1.64385 -10.654 0.657121 0 227.815 0 0 0 0 0 0 -1.26601 0 -0.217312 
0 0 0 -2.22544 -1.24837 -0.0966361 -54.023 -44.7369 -67.4052 0 0 0 0 0 0 0.589165 0 122.504 91.9865 19.0207 6.99206 -37.9959 -1.68601 -10.6354 0.657121 0 227.815 0 0 0 0 0 0 -1.26601 0 -0.217312 
0 0 0 -2.22544 -1.24837 -0.0966361 -54.023 -40.6539 -82.157 0 0 0 0 0 0 0.589165 0 122.504 91.9865 11.1479 7.85886 -37.9959 -1.72818 -10.6168 0.657121 0 227.815 0 0 0 0 0 0 -1.26601 0 -0.217312 
0 0 0 -1.6917 -2.47646 11.963 -57.8014 -36.3509 -91.3574 0 0 0 0 0 0 1.04334 0 120.511 90.7143 6.36111e-15 -2.11226 -33.0022 -1.77034 -9.23718 1.43073 0 229.164 0 0 0 0 0 0 -2.12918 0 -0.463445 
0 0 0 -1.6917 -2.47646 11.9114 -57.8014 -39.289 -80.7191 0 0 0 0 0 0 1.04334 0 120.265 90.7143 1.27222e-14 -2.11226 -33.0022 -1.58937 -9.31557 1.43073 0 228.716 0 0 0 0 0 0 -2.12918 0 -0.463445 
0 0 0 -1.6917 -2.47646 11.9114 -57.8014 -39.2151 -80.9732 0 0 0 0 0 0 1.04334 0 120.265 90.7143 -1.90833e-14 -2.11226 -33.0022 -1.62635 -9.29955 1.43073 0 228.716 0 0 0 0 0 0 -2.12918 0 -0.463445 
0 0 0 -2.96134 -3.92181 10.3655 -57.9905 -39.5069 -48.786 0 0 0 0 0 0 1.40681 0 118.539 86.8463 -1.27222e-14 -10.7808 -27.6442 -1.66332 -7.85203 2.51215 0 236.26 0 0 0 0 0 0 -3.33017 0 -0.808032 
0 0 0 -2.96134 -3.92181 10.3129 -57.9905 -42.1225 -39.7359 0 0 0 0 0 0 1.40681 0 118.3 86.8463 -1.27222e-14 -10.7808 -27.6442 -1.29245 -8.00621 2.51215 0 235.828 0 0 0 0 0 0 -3.33017 0 -0.808032 
0 0 0 -2.96134 -3.92181 10.3129 -57.9905 -41.9068 -40.4836 0 0 0 0 0 0 1.40681 0 118.3 86.8463 0 -10.7808 -27.6442 -1.32055 -7.99453 2.51215 0 235.828 0 0 0 0 0 0 -3.33017 0 -0.808032 
0 0 0 -4.25706 -5.38891 17.2669 -58.6039 -42.3168 -36.6048 0 0 0 0 0 0 1.69981 0 115.698 81.0449 0 -13.6479 -20.9299 -1.34865 -5.98094 3.68641 0 239.031 0 0 0 0 0 0 -4.62584 0 -1.18285 
0 0 0 -4.25706 -5.38891 17.2018 -58.6039 -44.5327 -29.2778 0 0 0 0 0 0 1.69981 0 115.417 81.0449 -6.36111e-15 -13.6479 -20.9299 -0.914014 -6.15024 3.68641 0 238.525 0 0 0 0 0 0 -4.62584 0 -1.18285 
0 0 0 -4.25706 -5.38891 17.2018 -58.6039 -44.1858 -30.4475 0 0 0 0 0 0 1.69981 0 115.417 81.0449 -6.36111e-15 -13.6479 -20.9299 -0.932669 -6.14297 3.68641 0 238.525 0 0 0 0 0 0 -4.62584 0 -1.18285 
0 0 0 -4.25706 -5.38891 17.2018 -58.6039 -43.8078 -31.7227 0 0 0 0 0 0 1.69981 0 115.417 81.0449 -1.27222e-14 -13.6479 -20.9299 -0.951324 -6.13571 3.68641 0 238.525 0 0 0 0 0 0 -4.62584 0 -1.18285 
0 0 0 0.889752 -6.77044 98.8369 -66.1508 -50.3808 -87.4398 0 0 0 0 0 0 1.93309 0 111.698 74.0618 -6.36111e-15 -13.7851 -13.6961 -0.969979 -3.84439 4.835 0 238.53 0 0 0 0 0 0 -5.89689 0 -1.55058 
0 0 0 0.889752 -6.77044 98.7603 -66.1508 -52.1686 -81.5235 0 0 0 0 0 0 1.93309 0 111.38 74.0618 -6.36111e-15 -13.7851 -13.6961 -0.470059 -4.02256 4.835 0 237.961 0 0 0 0 0 0 -5.89689 0 -1.55058 
0 0 0 0.889752 -6.77044 98.7603 -66.1508 -51.6726 -83.178 0 0 0 0 0 0 1.93309 0 111.38 74.0618 0 -13.7851 -13.6961 -0.478928 -4.0194 4.835 0 237.961 0 0 0 0 0 0 -5.89689 0 -1.55058 
0 0 0 -0.138175 -7.98144 63.7466 -64.9647 -51.8231 -8.94327 0 0 0 0 0 0 2.11895 0 106.985 65.1894 0 -17.6295 -6.65015 -0.487798 -1.68972 5.86021 0 234.958 0 0 0 0 0 0 -7.04339 0 -1.88024 
0 0 0 -0.138175 -7.98144 63.6651 -64.9647 -53.4252 -3.78087 0 0 0 0 0 0 2.11895 0 106.657 65.1894 6.36111e-15 -17.6295 -6.65015 0.154984 -1.89262 5.86021 0 234.372 0 0 0 0 0 0 -7.04339 0 -1.88024 
0 0 0 -0.138175 -7.98144 63.6651 -64.9647 -52.888 -5.53253 0 0 0 0 0 0 2.11895 0 106.657 65.1894 -6.36111e-15 -17.6295 -6.65015 0.157751 -1.8935 5.86021 0 234.372 0 0 0 0 0 0 -7.04339 0 -1.88024 
0 0 0 -2.77789 -9.19837 45.0188 -62.8286 -51.1262 1.71226 0 0 0 0 0 0 2.26741 0 101.647 56.5252 0 -13.9303 0.538847 0.160519 0.594861 6.92897 0 234.841 0 0 0 0 0 0 -8.23327 0 -2.22463 
0 0 0 -2.77789 -9.19837 44.9339 -62.8286 -52.3862 5.68575 0 0 0 0 0 0 2.26741 0 101.317 56.5252 0 -13.9303 0.538847 0.798139 0.421928 6.92897 0 234.257 0 0 0 0 0 0 -8.23327 0 -2.22463 
0 0 0 -2.77789 -9.19837 44.9339 -62.8286 -51.7268 3.58387 0 0 0 0 0 0 2.26741 0 101.317 56.5252 6.36111e-15 -13.9303 0.538847 0.811667 0.418259 6.92897 0 234.257 0 0 0 0 0 0 -8.23327 0 -2.22463 
0 0 0 -2.77789 -9.19837 44.9339 -62.8286 -51.0432 1.40458 0 0 0 0 0 0 2.26741 0 101.317 56.5252 -6.36111e-15 -13.9303 0.538847 0.825196 0.41459 6.92897 0 234.257 0 0 0 0 0 0 -8.23327 0 -2.22463 
0 0 0 -5.6777 -10.2869 25.3215 -60.1545 -48.3382 2.72657 0 0 0 0 0 0 2.38591 0 95.6775 47.9006 -1.27222e-14 -11.8871 7.77518 0.838725 3.00668 7.89947 0 231.051 0 0 0 0 0 0 -9.32547 0 -2.53894 
0 0 0 -5.6777 -10.2869 25.2272 -60.1545 -49.2439 5.54408 0 0 0 0 0 0 2.38591 0 95.3067 47.9006 -1.27222e-14 -11.8871 7.77518 1.45067 2.86988 7.89947 0 230.391 0 0 0 0 0 0 -9.32547 0 -2.53894 
0 0 0 -5.6777 -10.2869 25.2272 -60.1545 -48.5017 3.21013 0 0 0 0 0 0 2.38591 0 95.3067 47.9006 6.36111e-15 -11.8871 7.77518 1.4737 2.86474 7.89947 0 230.391 0 0 0 0 0 0 -9.32547 0 -2.53894 
0 0 0 -2.52254 -11.4263 82.0368 -64.4791 -8.95048 -181.864 0 0 0 0 0 0 2.48061 0 89.392 38.8545 0 -11.8776 15.0119 0 5.79639 8.94457 0 230.292 0 0 0 0 0 0 -10.4744 0 -2.8768 
0 0 0 -2.52254 -11.4263 81.967 -64.4791 -8.95048 -181.864 0 0 0 0 0 0 2.48061 0 89.103 38.8545 0 -11.8776 15.0119 0 5.79639 8.94457 0 229.771 0 0 0 0 0 0 -10.4744 0 -2.8768 
0 0 0 -2.52254 -11.4263 81.967 -64.4791 -8.95048 -181.864 0 0 0 0 0 0 2.48061 0 89.103 38.8545 0 -11.8776 15.0119 0 5.79639 8.94457 0 229.771 0 0 0 0 0 0 -10.4744 0 -2.8768 
0 0 0 -5.55791 -12.4888 14.5173 -57.7191 -5.87153 -104.115 0 0 0 0 0 0 2.556 0 84.8091 30.4378 0 -10.2709 19.7856 0 7.6458 9.93183 0 229.595 0 0 0 0 0 0 -11.5852 0 -3.19851 
0 0 0 -5.55791 -12.4888 14.4468 -57.7191 -5.87153 -104.115 0 0 0 0 0 0 2.556 0 84.5655 30.4378 0 -10.2709 19.7856 0 7.6458 9.93183 0 229.177 0 0 0 0 0 0 -11.5852 0 -3.19851 
0 0 0 -5.55791 -12.4888 14.4468 -57.7191 -5.87153 -104.115 0 0 0 0 0 0 2.556 0 84.5655 30.4378 0 -10.2709 19.7856 0 7.6458 9.93183 0 229.177 0 0 0 0 0 0 -11.5852 0 -3.19851 
0 0 0 -5.55791 -12.4888 14.4468 -57.7191 -5.87153 -104.115 0 0 0 0 0 0 2.556 0 84.5655 30.4378 0 -10.2709 19.7856 0 7.6458 9.93183 0 229.177 0 0 0 0 0 0 -11.5852 0 -3.19851 
0 0 0 -4.55059 -13.8405 59.8759 -57.5994 -7.95773 -139.947 0 0 0 0 0 0 2.61604 0 81.0789 23.7224 0 -6.16396 22.6208 0 8.82295 11.2238 0 240.134 0 0 0 0 0 0 -13.0174 0 -3.61947 
0 0 0 -4.55059 -13.8405 59.8127 -57.5994 -7.95773 -139.947 0 0 0 0 0 0 2.61604 0 80.8309 23.7224 0 -6.16396 22.6208 0 8.82295 11.2238 0 239.692 0 0 0 0 0 0 -13.0174 0 -3.61947 
0 0 0 -4.55059 -13.8405 59.8127 -57.5994 -7.95773 -139.947 0 0 0 0 0 0 2.61604 0 80.8309 23.7224 0 -6.16396 22.6208 0 8.82295 11.2238 0 239.692 0 0 0 0 0 0 -13.0174 0 -3.61947 
0 0 0 -10.6305 -15.1415 -12.8316 -47.8569 -3.20525 -61.0079 0 0 0 0 0 0 2.66363 0 77.0033 18.372 0 -3.32572 23.7479 0 9.39279 12.4775 0 243.926 0 0 0 0 0 0 -14.4242 0 -4.03093 
0 0 0 -10.6305 -15.1415 -12.8977 -47.8569 -3.20525 -61.0079 0 0 0 0 0 0 2.66363 0 76.7433 18.372 0 -3.32572 23.7479 0 9.39279 12.4775 0 243.463 0 0 0 0 0 0 -14.4242 0 -4.03093 
0 0 0 -10.6305 -15.1415 -12.8977 -47.8569 -3.20525 -61.0079 0 0 0 0 0 0 2.66363 0 76.7433 18.372 0 -3.32572 23.7479 0 9.39279 12.4775 0 243.463 0 0 0 0 0 0 -14.4242 0 -4.03093 
0 0 0 -10.8663 -16.3941 29.2964 -46.2389 -4.17779 -101.894 0 0 0 0 0 0 2.70138 0 72.5606 14.1048 0 -1.2732 23.8967 0 9.59796 13.6925 0 247.335 0 0 0 0 0 0 -15.7911 0 -4.43178 
0 0 0 -10.8663 -16.3941 29.2255 -46.2389 -4.17779 -101.894 0 0 0 0 0 0 2.70138 0 72.2796 14.1048 0 -1.2732 23.8967 0 9.59796 13.6925 0 246.834 0 0 0 0 0 0 -15.7911 0 -4.43178 
0 0 0 -10.8663 -16.3941 29.2255 -46.2389 -4.17779 -101.894 0 0 0 0 0 0 2.70138 0 72.2796 14.1048 0 -1.2732 23.8967 0 9.59796 13.6925 0 246.834 0 0 0 0 0 0 -15.7911 0 -4.43178 
0 0 0 -10.8663 -16.3941 29.2255 -46.2389 -4.17779 -101.894 0 0 0 0 0 0 2.70138 0 72.2796 14.1048 0 -1.2732 23.8967 0 9.59796 13.6925 0 246.834 0 0 0 0 0 0 -15.7911 0 -4.43178 
0 0 0 -15.6919 -17.3489 -38.5354 -36.001 0.324235 -36.6542 0 0 0 0 0 0 2.73114 0 68.2032 10.7016 0 0.0733488 22.8903 0 9.36017 14.6177 0 243.879 0 0 0 0 0 0 -16.869 0 -4.7418 
0 0 0 -15.6919 -17.3489 -38.5981 -36.001 0.324235 -36.6542 0 0 0 0 0 0 2.73114 0 67.9497 10.7016 0 0.0733488 22.8903 0 9.36017 14.6177 0 243.425 0 0 0 0 0 0 -16.869 0 -4.7418 
0 0 0 -15.6919 -17.3489 -38.5981 -36.001 0.324235 -36.6542 0 0 0 0 0 0 2.73114 0 67.9497 10.7016 0 0.0733488 22.8903 0 9.36017 14.6177 0 243.425 0 0 0 0 0 0 -16.869 0 -4.7418 
0 0 0 -14.6277 -18.2916 8.3398 -34.2698 -1.03074 -77.2598 0 0 0 0 0 0 2.75461 0 64.8144 7.98728 0 0.931772 21.3612 0 8.86914 15.537 0 247.358 0 0 0 0 0 0 -17.9467 0 -5.05197 
0 0 0 -14.6277 -18.2916 8.28716 -34.2698 -1.03074 -77.2598 0 0 0 0 0 0 2.75461 0 64.5964 7.98728 0 0.931772 21.3612 0 8.86914 15.537 0 246.966 0 0 0 0 0 0 -17.9467 0 -5.05197 
0 0 0 -14.6277 -18.2916 8.28716 -34.2698 -1.03074 -77.2598 0 0 0 0 0 0 2.75461 0 64.5964 7.98728 0 0.931772 21.3612 0 8.86914 15.537 0 246.966 0 0 0 0 0 0 -17.9467 0 -5.05197 
0 0 0 -19.8576 -19.2232 -60.0932 -23.549 3.64962 -5.78742 0 0 0 0 0 0 2.77726 0 62.856 5.82259 0 1.3113 19.0888 0 8.03827 16.4482 0 252.336 0 0 0 0 0 0 -19.027 0 -5.36235 
0 0 0 -19.8576 -19.2232 -60.126 -23.549 3.64962 -5.78742 0 0 0 0 0 0 2.77726 0 62.716 5.82259 0 1.3113 19.0888 0 8.03827 16.4482 0 252.083 0 0 0 0 0 0 -19.027 0 -5.36235 
0 0 0 -19.8576 -19.2232 -60.126 -23.549 3.64962 -5.78742 0 0 0 0 0 0 2.77726 0 62.716 5.82259 0 1.3113 19.0888 0 8.03827 16.4482 0 252.083 0 0 0 0 0 0 -19.027 0 -5.36235 
0 0 0 -19.8576 -19.2232 -60.126 -23.549 3.64962 -5.78742 0 0 0 0 0 0 2.77726 0 62.716 5.82259 0 1.3113 19.0888 0 8.03827 16.4482 0 252.083 0 0 0 0 0 0 -19.027 0 -5.36235 
0 0 0 -18.2413 -20.0218 -9.30147 -21.725 1.99262 -50.836 0 0 0 0 0 0 2.79146 0 60.9449 4.09347 0 1.38161 16.5315 0 7.05148 17.2327 0 254.561 0 0 0 0 0 0 -19.9833 0 -5.63377 
0 0 0 -18.2413 -20.0218 -9.33605 -21.725 1.99262 -50.836 0 0 0 0 0 0 2.79146 0 60.7948 4.09347 0 1.38161 16.5315 0 7.05148 17.2327 0 254.289 0 0 0 0 0 0 -19.9833 0 -5.63377 
0 0 0 -18.2413 -20.0218 -9.33605 -21.725 1.99262 -50.836 0 0 0 0 0 0 2.79146 0 60.7948 4.09347 0 1.38161 16.5315 0 7.05148 17.2327 0 254.289 0 0 0 0 0 0 -19.9833 0 -5.63377 
0 0 0 -31.2832 -21.4479 -64.2188 -15.5054 9.30234 9.0265 0 0 0 0 0 0 2.79175 0 53.8472 2.67315 0 1.77231 16.1567 0 7.34141 18.6526 0 250.292 0 0 0 0 0 0 -21.4121 0 -6.09279 
0 0 0 -31.2832 -21.4479 -64.2182 -15.5054 9.30234 9.0265 0 0 0 0 0 0 2.79175 0 53.8506 2.67315 0 1.77231 16.1567 0 7.34141 18.6526 0 250.298 0 0 0 0 0 0 -21.4121 0 -6.09279 
0 0 0 -31.2832 -21.4479 -64.2182 -15.5054 9.30234 9.0265 0 0 0 0 0 0 2.79175 0 53.8506 2.67315 0 1.77231 16.1567 0 7.34141 18.6526 0 250.298 0 0 0 0 0 0 -21.4121 0 -6.09279 
0 0 0 -26.2706 -21.6069 -15.3402 -18.7102 5.42244 -60.7672 0 0 0 0 0 0 2.80347 0 51.1978 1.54478 0 2.09641 14.2473 0 7.15247 18.8011 0 224.244 0 0 0 0 0 0 -21.5513 0 -6.14117 
0 0 0 -26.2706 -21.6069 -15.3808 -18.7102 5.42244 -60.7672 0 0 0 0 0 0 2.80347 0 51.029 1.54478 0 2.09641 14.2473 0 7.15247 18.8011 0 223.941 0 0 0 0 0 0 -21.5513 0 -6.14117 
0 0 0 -26.2706 -21.6069 -15.3808 -18.7102 5.42244 -60.7672 0 0 0 0 0 0 2.80347 0 51.029 1.54478 0 2.09641 14.2473 0 7.15247 18.8011 0 223.941 0 0 0 0 0 0 -21.5513 0 -6.14117 
0 0 0 -26.2706 -21.6069 -15.3808 -18.7102 5.42244 -60.7672 0 0 0 0 0 0 2.80347 0 51.029 1.54478 0 2.09641 14.2473 0 7.15247 18.8011 0 223.941 0 0 0 0 0 0 -21.5513 0 -6.14117 
0 0 0 -22.2425 -21.6313 -36.9125 -13.2872 -32.1156 58.9397 0 0 0 0 0 0 2.81606 0 51.9749 0.651658 -3.18055e-15 1.87588 11.0398 11.2239 4.71955 18.8156 0 222.196 0 0 0 0 0 0 -21.5614 0 -6.14679 
0 0 0 -22.2425 -21.6313 -36.9097 -13.2872 -33.8273 64.6594 0 0 0 0 0 0 2.81606 0 51.9861 0.651658 -3.18055e-15 1.87588 11.0398 12.9605 4.47224 18.8156 0 222.216 0 0 0 0 0 0 -21.5614 0 -6.14679 
0 0 0 -22.2425 -21.6313 -36.9097 -13.2872 -33.9562 65.088 0 0 0 0 0 0 2.81606 0 51.9861 0.651658 3.18055e-15 1.87588 11.0398 13.0886 4.45401 18.8156 0 222.216 0 0 0 0 0 0 -21.5614 0 -6.14679 
0 0 0 -20.7059 -21.8839 34.7472 -20.1197 -37.5825 36.8829 0 0 0 0 0 0 2.82126 0 56.0017 -0.054843 0 2.24769 11.9521 13.2167 4.97132 19.063 0 236.014 0 0 0 0 0 0 -21.9206 0 -6.24018 
0 0 0 -20.7059 -21.8839 34.741 -20.1197 -38.0374 38.5239 0 0 0 0 0 0 2.82126 0 55.9769 -0.054843 1.27222e-14 2.24769 11.9521 13.6618 4.91138 19.063 0 235.97 0 0 0 0 0 0 -21.9206 0 -6.24018 
0 0 0 -20.7059 -21.8839 34.741 -20.1197 -38.1679 38.9987 0 0 0 0 0 0 2.82126 0 55.9769 -0.054843 9.54166e-15 2.24769 11.9521 13.7933 4.89368 19.063 0 235.97 0 0 0 0 0 0 -21.9206 0 -6.24018 
0 0 0 -24.2654 -21.7262 -31.6582 -16.7992 -35.106 84.8317 0 0 0 0 0 0 2.82691 0 53.1233 -0.61741 -6.36111e-15 2.47332 13.0406 13.9248 5.37281 18.9006 0 223.502 0 0 0 0 0 0 -21.8853 0 -6.20338 
0 0 0 -24.2654 -21.7262 -31.6802 -16.7992 -35.2722 85.4086 0 0 0 0 0 0 2.82691 0 53.0311 -0.61741 0 2.47332 13.0406 14.0884 5.35184 18.9006 0 223.336 0 0 0 0 0 0 -21.8853 0 -6.20338 
0 0 0 -24.2654 -21.7262 -31.6802 -16.7992 -35.4016 85.8624 0 0 0 0 0 0 2.82691 0 53.0311 -0.61741 -6.36111e-15 2.47332 13.0406 14.2204 5.33492 18.9006 0 223.336 0 0 0 0 0 0 -21.8853 0 -6.20338 
0 0 0 -24.2654 -21.7262 -31.6802 -16.7992 -35.5311 86.3165 0 0 0 0 0 0 2.82691 0 53.0311 -0.61741 3.18055e-15 2.47332 13.0406 14.3524 5.318 18.9006 0 223.336 0 0 0 0 0 0 -21.8853 0 -6.20338 
0 0 0 -20.0444 -21.4439 23.8164 -22.4363 -39.2672 37.5121 0 0 0 0 0 0 2.83046 0 50.3315 -1.06558 3.18055e-15 2.73007 14.3865 14.4845 5.78168 18.6151 0 215.129 0 0 0 0 0 0 -21.7219 0 -6.12608 
10.2712 21.2461 -18.8389 0 0 0 0 0 0 20.8959 28.3341 -63.2645 1.0641 0 15.9201 0 0 0 0 0 0 14.3865 0 7.3045 0 0 0 -22.3466 0 -99.1009 -2.83088 0 1.02991 -21.7219 0 -5.87397 
10.2712 21.2461 -18.8704 0 0 0 0 0 0 20.8959 21.1876 -37.0181 1.0641 0 15.4945 0 0 0 0 0 0 14.3865 0 7.3045 0 0 0 -22.3466 0 -100.041 -2.83088 13.3098 -0.468857 -21.7219 -0.0797479 -5.84027 
13.8535 23.898 -89.6067 0 0 0 0 0 0 22.6462 17.4161 33.1534 -7.99719 0 -31.2833 0 0 0 0 0 0 9.7133 0 5.22268 0 0 0 -15.8947 0 12.6809 -2.83763 21.7152 -1.36353 -22.6098 -0.159496 -6.03689 
13.8535 23.898 -89.6563 0 0 0 0 0 0 22.6462 16.2752 37.2778 -7.99719 0 -31.2525 0 0 0 0 0 0 9.7133 0 5.22268 0 0 0 -15.8947 0 12.8152 -2.83763 25.1648 -1.74883 -22.6098 -0.239244 -6.00293 
13.8535 23.898 -89.6563 0 0 0 0 0 0 22.6462 12.842 49.6472 -7.99719 0 -31.2525 0 0 0 0 0 0 9.7133 0 5.22268 0 0 0 -15.8947 0 12.8152 -2.83763 31.6865 -2.47728 -22.6098 -0.318993 -5.96898 
16.4047 24.1421 -22.1006 0 0 0 0 0 0 13.1054 4.99337 -19.8786 -12.1098 0 -36.4597 0 0 0 0 0 0 6.94157 0 3.96399 0 0 0 -12.0222 0 23.0964 0.942656 37.4761 9.20969 -23.1071 -0.398743 -5.91854 
16.4047 24.1421 -22.1385 0 0 0 0 0 0 13.1054 2.596 -10.3831 -12.1098 0 -36.4827 0 0 0 0 0 0 6.94157 0 3.96399 0 0 0 -12.0222 0 23.0538 0.942656 42.2024 8.68389 -23.1071 -0.509786 -5.87081 
16.4047 24.1421 -22.1385 0 0 0 0 0 0 13.1054 0.0545982 -0.338775 -12.1098 0 -36.4827 0 0 0 0 0 0 6.94157 0 3.96399 0 0 0 -12.0222 0 23.0538 0.942656 47.1811 8.13003 -23.1071 -0.594754 -5.83429 
16.4047 24.1421 -22.1385 0 0 0 0 0 0 13.1054 -2.29113 8.93652 -12.1098 0 -36.4827 0 0 0 0 0 0 6.94157 0 3.96399 0 0 0 -12.0222 0 23.0538 0.942656 51.8111 7.61496 -23.1071 -0.679722 -5.79777 
27.635 24.2016 112.246 0 0 0 0 0 0 -8.00455 -18.1405 -104.852 -15.2065 0 -48.3615 0 0 0 0 0 0 4.62016 0 2.98235 0 0 0 -8.98303 0 32.3142 9.68816 56.1282 22.4227 -27.055 -0.764692 -6.88047 
27.635 24.2016 112.276 0 0 0 0 0 0 -8.00455 -19.3521 -99.6578 -15.2065 0 -48.3937 0 0 0 0 0 0 4.62016 0 2.98235 0 0 0 -8.98303 0 32.213 9.68816 59.379 22.067 -27.055 -0.849664 -6.8433 
27.635 24.2016 112.276 0 0 0 0 0 0 -8.00455 -21.2537 -91.5381 -15.2065 0 -48.3937 0 0 0 0 0 0 4.62016 0 2.98235 0 0 0 -8.98303 0 32.213 9.68816 63.1642 21.6529 -27.055 -0.934638 -6.80614 
26.2188 25.4493 -14.7293 0 0 0 0 0 0 -4.04432 -18.5792 95.1302 -18.606 0 -63.9204 0 0 0 0 0 0 3.01663 0 2.28295 0 0 0 -6.83149 0 34.3306 13.5074 66.6597 5.6378 -29.4551 -1.01961 -7.54055 
26.2188 25.4493 -14.7384 0 0 0 0 0 0 -4.04432 -21.1675 105.73 -18.606 0 -63.9332 0 0 0 0 0 0 3.01663 0 2.28295 0 0 0 -6.83149 0 34.2873 13.5074 70.7644 5.19406 -29.4551 -1.03773 -7.53257 
26.2188 25.4493 -14.7384 0 0 0 0 0 0 -4.04432 -22.6724 111.939 -18.606 0 -63.9332 0 0 0 0 0 0 3.01663 0 2.28295 0 0 0 -6.83149 0 34.2873 13.5074 73.6287 4.88441 -29.4551 -1.11757 -7.49744 
33.3907 25.4605 44.97 0 0 0 0 0 0 -12.302 -28.7789 -4.3532 -19.3973 0 -62.4534 0 0 0 0 0 0 2.40859 0 2.02757 0 0 0 -6.0507 0 26.252 21.6331 76.1955 17.6174 -33.9161 -1.19741 -8.87723 
33.3907 25.4605 44.9728 0 0 0 0 0 0 -12.302 -31.0157 4.57088 -19.3973 0 -62.4634 0 0 0 0 0 0 2.40859 0 2.02757 0 0 0 -6.0507 0 26.2193 21.6331 79.2387 17.2943 -33.9161 -1.19599 -8.87785 
33.3907 25.4605 44.9728 0 0 0 0 0 0 -12.302 -32.1829 9.25449 -19.3973 0 -62.4634 0 0 0 0 0 0 2.40859 0 2.02757 0 0 0 -6.0507 0 26.2193 21.6331 81.1381 17.0926 -33.9161 -1.27076 -8.84471 
33.3907 25.4605 44.9728 0 0 0 0 0 0 -12.302 -33.241 13.503 -19.3973 0 -62.4634 0 0 0 0 0 0 2.40859 0 2.02757 0 0 0 -6.0507 0 26.2193 21.6331 82.6948 16.9273 -33.9161 -1.34552 -8.81156 
34.9103 25.8499 36.9636 0 0 0 0 0 0 -17.5436 -34.3709 32.0928 -20.791 0 -69.9432 0 0 0 0 0 0 1.58808 0 1.70277 0 0 0 -5.04607 0 34.0629 31.2022 83.8854 21.1138 -38.4398 -1.42028 -10.2494 
34.9103 25.8499 36.9653 0 0 0 0 0 0 -17.5436 -36.8994 42.0658 -20.791 0 -69.9486 0 0 0 0 0 0 1.58808 0 1.70277 0 0 0 -5.04607 0 34.0451 31.2022 85.8753 20.906 -38.4398 -1.36558 -10.2737 
34.9103 25.8499 36.9653 0 0 0 0 0 0 -17.5436 -37.6489 45.0546 -20.791 0 -69.9486 0 0 0 0 0 0 1.58808 0 1.70277 0 0 0 -5.04607 0 34.0451 31.2022 86.4389 20.8471 -38.4398 -1.43388 -10.2434 
38.3565 26.5554 83.3416 0 0 0 0 0 0 -27.2989 -42.0947 -14.1641 -22.8466 0 -79.6415 0 0 0 0 0 0 0.424517 0 1.27001 0 0 0 -3.69453 0 45.8504 41.5927 87.0159 23.5811 -42.7347 -1.50217 -11.6791 
38.3565 26.5554 83.3455 0 0 0 0 0 0 -27.2989 -45.7371 0.283244 -22.8466 0 -79.6535 0 0 0 0 0 0 0.424517 0 1.27001 0 0 0 -3.69453 0 45.8095 41.5927 89.3552 23.3394 -42.7347 -1.36972 -11.7378 
38.3565 26.5554 83.3455 0 0 0 0 0 0 -27.2989 -46.4786 3.25526 -22.8466 0 -79.6535 0 0 0 0 0 0 0.424517 0 1.27001 0 0 0 -3.69453 0 45.8095 41.5927 89.8887 23.2843 -42.7347 -1.42928 -11.7114 
37.3769 27.6094 26.816 0 0 0 0 0 0 -26.8096 -44.252 68.4504 -24.9782 0 -87.975 0 0 0 0 0 0 -0.539707 0 0.925316 0 0 0 -2.61512 0 49.4753 48.437 90.4249 13.3177 -45.6642 -1.48885 -12.8305 
37.3769 27.6094 26.8195 0 0 0 0 0 0 -26.8096 -48.8845 86.1057 -24.9782 0 -87.9865 0 0 0 0 0 0 -0.539707 0 0.925316 0 0 0 -2.61512 0 49.4358 48.437 92.9242 13.0583 -45.6642 -1.24156 -12.9399 
37.3769 27.6094 26.8195 0 0 0 0 0 0 -26.8096 -49.601 88.8686 -24.9782 0 -87.9865 0 0 0 0 0 0 -0.539707 0 0.925316 0 0 0 -2.61512 0 49.4358 48.437 93.3826 13.0107 -45.6642 -1.28932 -12.9188 
37.3769 27.6094 26.8195 0 0 0 0 0 0 -26.8096 -50.3173 91.6304 -24.9782 0 -87.9865 0 0 0 0 0 0 -0.539707 0 0.925316 0 0 0 -2.61512 0 49.4358 48.437 93.8335 12.9639 -45.6642 -1.33709 -12.8977 
37.6581 28.5106 32.6774 0 0 0 0 0 0 -30.8633 -50.3577 43.5314 -26.8774 0 -94.2319 0 0 0 0 0 0 -1.45315 0 0.607373 0 0 0 -1.61723 0 54.2514 57.3981 94.2732 19.9931 -49.0219 -1.38485 -14.111 
37.6581 28.5106 32.6812 0 0 0 0 0 0 -30.8633 -54.8536 60.3207 -26.8774 0 -94.2457 0 0 0 0 0 0 -1.45315 0 0.607373 0 0 0 -1.61723 0 54.2036 57.3981 96.1582 19.7979 -49.0219 -1.13167 -14.2226 
37.6581 28.5106 32.6812 0 0 0 0 0 0 -30.8633 -55.5247 62.857 -26.8774 0 -94.2457 0 0 0 0 0 0 -1.45315 0 0.607373 0 0 0 -1.61723 0 54.2036 57.3981 96.4999 19.7625 -49.0219 -1.1694 -14.2059 
39.2119 28.4893 73.0467 0 0 0 0 0 0 -38.8331 -59.2391 16.0765 -27.4899 0 -93.2651 0 0 0 0 0 0 -2.05016 0 0.405281 0 0 0 -0.982946 0 53.9921 65.1354 96.82 16.3442 -51.2954 -1.20713 -15.1376 
39.2119 28.4893 72.9618 0 0 0 0 0 0 -38.8331 -64.3881 35.3774 -27.4899 0 -93.2591 0 0 0 0 0 0 -2.05016 0 0.405281 0 0 0 -0.982946 0 53.9694 65.1354 98.3493 16.1844 -51.2954 -0.877647 -15.2827 
39.2119 28.4893 72.9618 0 0 0 0 0 0 -38.8331 -64.9834 37.6356 -27.4899 0 -93.2591 0 0 0 0 0 0 -2.05016 0 0.405281 0 0 0 -0.982946 0 53.9694 65.1354 98.5447 16.164 -51.2954 -0.904245 -15.271 
39.7097 30.7575 -13.2622 0 0 0 0 0 0 -36.1896 -61.1947 110.168 -31.1224 0 -112.975 0 0 0 0 0 0 -3.2716 0 -0.0299584 0 0 0 0.382371 0 68.3913 70.1058 98.708 7.33719 -52.4603 -0.930843 -15.9376 
39.7097 30.7575 -13.1646 0 0 0 0 0 0 -36.1896 -66.4623 128.42 -31.1224 0 -113.01 0 0 0 0 0 0 -3.2716 0 -0.0299584 0 0 0 0.382371 0 68.3278 70.1058 99.5311 7.25055 -52.4603 -0.509936 -16.1235 
39.7097 30.7575 -13.1646 0 0 0 0 0 0 -36.1896 -66.9487 130.122 -31.1224 0 -113.01 0 0 0 0 0 0 -3.2716 0 -0.0299584 0 0 0 0.382371 0 68.3278 70.1058 99.5529 7.24826 -52.4603 -0.524101 -16.1172 
39.7097 30.7575 -13.1646 0 0 0 0 0 0 -36.1896 -67.4123 131.745 -31.1224 0 -113.01 0 0 0 0 0 0 -3.2716 0 -0.0299584 0 0 0 0.382371 0 68.3278 70.1058 99.5322 7.25043 -52.4603 -0.538266 -16.111 
40.8542 31.56 15.5613 0 0 0 0 0 0 -43.2401 -68.1798 42.2542 -32.7921 0 -114.342 0 0 0 0 0 0 -4.04467 0 -0.305085 0 0 0 1.24252 0 66.5915 76.3719 99.4652 11.2907 -51.0954 -0.552431 -15.6995 
40.8542 31.56 15.5639 0 0 0 0 0 0 -43.2401 -72.5883 57.345 -32.7921 0 -114.356 0 0 0 0 0 0 -4.04467 0 -0.305085 0 0 0 1.24252 0 66.5423 76.3719 99.3442 11.3031 -51.0954 -0.333315 -15.7964 
40.8542 31.56 15.5639 0 0 0 0 0 0 -43.2401 -72.8949 58.4015 -32.7921 0 -114.356 0 0 0 0 0 0 -4.04467 0 -0.305085 0 0 0 1.24252 0 66.5423 76.3719 99.1206 11.3262 -51.0954 -0.341648 -15.7927 
45.0482 32.5842 76.4228 0 0 0 0 0 0 -55.5734 -78.8511 -0.207247 -35.3318 0 -125.778 0 0 0 0 0 0 -5.32086 0 -0.790966 0 0 0 2.75798 0 79.4184 81.4567 98.84 6.37555 -49.2941 -0.349981 -15.3887 
45.0482 32.5842 76.4249 0 0 0 0 0 0 -55.5734 -83.1632 14.8344 -35.3318 0 -125.792 0 0 0 0 0 0 -5.32086 0 -0.790966 0 0 0 2.75798 0 79.3699 81.4567 97.8079 6.48134 -49.2941 -0.0546805 -15.5198 
45.0482 32.5842 76.4249 0 0 0 0 0 0 -55.5734 -83.2691 15.2057 -35.3318 0 -125.792 0 0 0 0 0 0 -5.32086 0 -0.790966 0 0 0 2.75798 0 79.3699 81.4567 97.3561 6.52766 -49.2941 -0.0559521 -15.5192 
44.6931 33.4501 47.7314 0 0 0 0 0 0 -60.6226 -83.1413 54.0661 -37.4295 0 -132.364 0 0 0 0 0 0 -6.37107 0 -1.18523 0 0 0 3.98955 0 82.6843 84.0851 96.8358 -1.59132 -46.4667 -0.0572238 -14.8586 
44.6931 33.4501 47.7335 0 0 0 0 0 0 -60.6226 -86.8178 66.7373 -37.4295 0 -132.38 0 0 0 0 0 0 -6.37107 0 -1.18523 0 0 0 3.98955 0 82.6271 84.0851 94.8112 -1.38532 -46.4667 0.284106 -15.0102 
44.6931 33.4501 47.7335 0 0 0 0 0 0 -60.6226 -86.688 66.283 -37.4295 0 -132.38 0 0 0 0 0 0 -6.37107 0 -1.18523 0 0 0 3.98955 0 82.6271 84.0851 94.1102 -1.31399 -46.4667 0.290283 -15.0129 
44.6931 33.4501 47.7335 0 0 0 0 0 0 -60.6226 -86.5006 65.628 -37.4295 0 -132.38 0 0 0 0 0 0 -6.37107 0 -1.18523 0 0 0 3.98955 0 82.6271 84.0851 93.3278 -1.23439 -46.4667 0.296459 -15.0156 
49.1886 34.4876 51.8013 0 0 0 0 0 0 -67.3937 -88.9821 43.2306 -39.6784 0 -140.663 0 0 0 0 0 0 -7.39527 0 -1.57291 0 0 0 5.20043 0 87.3869 85.8316 92.4587 -3.9527 -43.196 0.302635 -14.1529 
49.1886 34.4876 51.8025 0 0 0 0 0 0 -67.3937 -91.4367 51.4237 -39.6784 0 -140.676 0 0 0 0 0 0 -7.39527 0 -1.57291 0 0 0 5.20043 0 87.3386 85.8316 89.4823 -3.65478 -43.196 0.573897 -14.2726 
49.1886 34.4876 51.8025 0 0 0 0 0 0 -67.3937 -90.975 49.8782 -39.6784 0 -140.676 0 0 0 0 0 0 -7.39527 0 -1.57291 0 0 0 5.20043 0 87.3386 85.8316 88.4074 -3.5472 -43.196 0.585375 -14.2777 
47.5793 35.0717 0.555305 0 0 0 0 0 0 -69.8397 -86.3918 58.025 -41.1158 0 -143.662 0 0 0 0 0 0 -8.13276 0 -1.84489 0 0 0 6.051 0 87.5026 86.0256 87.2277 -5.94908 -37.1198 0.596854 -12.268 
47.5793 35.0717 0.556041 0 0 0 0 0 0 -69.8397 -87.6546 62.1224 -41.1158 0 -143.675 0 0 0 0 0 0 -8.13276 0 -1.84489 0 0 0 6.051 0 87.4561 86.0256 83.4885 -5.58436 -37.1198 0.627774 -12.2814 
47.5793 35.0717 0.556041 0 0 0 0 0 0 -69.8397 -86.884 59.6191 -41.1158 0 -143.675 0 0 0 0 0 0 -8.13276 0 -1.84489 0 0 0 6.051 0 87.4561 86.0256 82.0687 -5.44587 -37.1198 0.639619 -12.2866 
51.3347 35.7279 43.4598 0 0 0 0 0 0 -80.0078 -89.4496 -15.3645 -43.3398 0 -153.135 0 0 0 0 0 0 -9.41786 0 -2.34715 0 0 0 7.61884 0 100.425 85.1377 80.5174 -8.75278 -30.1579 0.651464 -9.96333 
51.3347 35.7279 43.4601 0 0 0 0 0 0 -80.0078 -89.747 -14.3988 -43.3398 0 -153.145 0 0 0 0 0 0 -9.41786 0 -2.34715 0 0 0 7.61884 0 100.388 85.1377 75.7466 -8.29359 -30.1579 0.572139 -9.92976 
51.3347 35.7279 43.4601 0 0 0 0 0 0 -80.0078 -88.6154 -18.1069 -43.3398 0 -153.145 0 0 0 0 0 0 -9.41786 0 -2.34715 0 0 0 7.61884 0 100.388 85.1377 73.8872 -8.11463 -30.1579 0.582356 -9.93408 
51.3347 35.7279 43.4601 0 0 0 0 0 0 -80.0078 -87.373 -22.1784 -43.3398 0 -153.145 0 0 0 0 0 0 -9.41786 0 -2.34715 0 0 0 7.61884 0 100.388 85.1377 71.8526 -7.9188 -30.1579 0.592573 -9.93841 
48.2568 35.9736 20.7628 0 0 0 0 0 0 -83.8841 -83.5929 -7.93445 -45.0619 0 -158.162 0 0 0 0 0 0 -10.6276 0 -2.81941 0 0 0 9.09634 0 106.254 82.3597 69.6239 -12.7252 -22.5789 0.60279 -7.40685 
48.2568 35.9736 20.7628 0 0 0 0 0 0 -83.8841 -82.5741 -11.3511 -45.0619 0 -158.176 0 0 0 0 0 0 -10.6276 0 -2.81941 0 0 0 9.09634 0 106.203 82.3597 63.5024 -12.1383 -22.5789 0.462783 -7.35022 
48.2568 35.9736 20.7628 0 0 0 0 0 0 -83.8841 -80.8366 -17.2154 -45.0619 0 -158.176 0 0 0 0 0 0 -10.6276 0 -2.81941 0 0 0 9.09634 0 106.203 82.3597 60.7555 -11.875 -22.5789 0.470496 -7.35334 
49.8985 36.3159 32.6845 0 0 0 0 0 0 -88.4722 -80.7209 -31.4705 -46.9407 0 -165.126 0 0 0 0 0 0 -11.8707 0 -3.31016 0 0 0 10.6347 0 113.248 79.0006 57.7054 -15.0752 -16.6902 0.478209 -5.42714 
49.8985 36.3159 32.6841 0 0 0 0 0 0 -88.4722 -78.3659 -39.4511 -46.9407 0 -165.138 0 0 0 0 0 0 -11.8707 0 -3.31016 0 0 0 10.6347 0 113.204 79.0006 49.9843 -14.3347 -16.6902 0.380662 -5.38989 
49.8985 36.3159 32.6841 0 0 0 0 0 0 -88.4722 -75.8388 -48.0177 -46.9407 0 -165.138 0 0 0 0 0 0 -11.8707 0 -3.31016 0 0 0 10.6347 0 113.204 79.0006 45.9333 -13.9462 -16.6902 0.386704 -5.39219 
45.3997 36.1027 -17.3603 0 0 0 0 0 0 -85.536 -68.137 -14.1334 -47.7311 0 -165.205 0 0 0 0 0 0 -12.7013 0 -3.62923 0 0 0 11.6395 0 112.78 75.0003 41.2313 -14.1194 -11.2983 0.392747 -3.59735 
45.3997 36.1027 -17.361 0 0 0 0 0 0 -85.536 -63.3142 -30.3907 -47.7311 0 -165.218 0 0 0 0 0 0 -12.7013 0 -3.62923 0 0 0 11.6395 0 112.735 75.0003 30.2152 -13.0601 -11.2983 0.22125 -3.53563 
45.3997 36.1027 -17.361 0 0 0 0 0 0 -85.536 -58.6156 -46.2686 -47.7311 0 -165.218 0 0 0 0 0 0 -12.7013 0 -3.62923 0 0 0 11.6395 0 112.735 75.0003 22.1559 -12.2851 -11.2983 0.224602 -3.53683 
45.3997 36.1027 -17.361 0 0 0 0 0 0 -85.536 -51.0102 -71.9698 -47.7311 0 -165.218 0 0 0 0 0 0 -12.7013 0 -3.62923 0 0 0 11.6395 0 112.735 75.0003 8.55169 -10.9769 -11.2983 0.227954 -3.53804 
46.1044 35.6474 -1.34469 0 0 0 0 0 0 -85.6961 -47.0775 -101.929 -48.4218 0 -166.546 0 0 0 0 0 0 -13.6419 0 -3.99292 0 0 0 12.7853 0 118.161 71.7218 -3.18055e-15 -9.0339 -8.58194 0.231307 -2.63783 
46.1044 35.6474 -1.34533 0 0 0 0 0 0 -85.6961 -47.3654 -100.96 -48.4218 0 -166.555 0 0 0 0 0 0 -13.6419 0 -3.99292 0 0 0 12.7853 0 118.133 71.7218 -2.22639e-14 -9.0339 -8.58194 0.103656 -2.59371 
46.1044 35.6474 -1.34533 0 0 0 0 0 0 -85.6961 -46.8756 -102.599 -48.4218 0 -166.555 0 0 0 0 0 0 -13.6419 0 -3.99292 0 0 0 12.7853 0 118.133 71.7218 -9.54166e-15 -9.0339 -8.58194 0.105137 -2.59422 
43.1342 34.5727 -13.6607 0 0 0 0 0 0 -82.2055 -44.9849 -74.0226 -48.2848 0 -163.162 0 0 0 0 0 0 -14.4226 0 -4.28974 0 0 0 13.7218 0 118.968 70.9701 9.54166e-15 -1.91262 -9.613 0.106617 -2.94149 
43.1342 34.5727 -13.6616 0 0 0 0 0 0 -82.2055 -44.4274 -75.8742 -48.2848 0 -163.171 0 0 0 0 0 0 -14.4226 0 -4.28974 0 0 0 13.7218 0 118.94 70.9701 -6.36111e-15 -1.91262 -9.613 0.0605048 -2.92542 
43.1342 34.5727 -13.6616 0 0 0 0 0 0 -82.2055 -43.9172 -77.5713 -48.2848 0 -163.171 0 0 0 0 0 0 -14.4226 0 -4.28974 0 0 0 13.7218 0 118.94 70.9701 -1.27222e-14 -1.91262 -9.613 0.0613337 -2.92571 
41.9453 33.0471 26.485 0 0 0 0 0 0 -82.4873 -46.2637 -100.379 -47.8121 0 -158.696 0 0 0 0 0 0 -15.2819 0 -4.62241 0 0 0 14.7733 0 126.307 69.7426 0 -3.70752 -10.8047 0.0621625 -3.33081 
41.9453 33.0471 26.4844 0 0 0 0 0 0 -82.4873 -45.7031 -102.282 -47.8121 0 -158.702 0 0 0 0 0 0 -15.2819 0 -4.62241 0 0 0 14.7733 0 126.288 69.7426 -1.90833e-14 -3.70752 -10.8047 0.0758771 -3.33561 
41.9453 33.0471 26.4844 0 0 0 0 0 0 -82.4873 -45.2001 -103.988 -47.8121 0 -158.702 0 0 0 0 0 0 -15.2819 0 -4.62241 0 0 0 14.7733 0 126.288 69.7426 1.27222e-14 -3.70752 -10.8047 0.0768754 -3.33596 
41.9453 33.0471 26.4844 0 0 0 0 0 0 -82.4873 -44.7029 -105.676 -47.8121 0 -158.702 0 0 0 0 0 0 -15.2819 0 -4.62241 0 0 0 14.7733 0 126.288 69.7426 6.36111e-15 -3.70752 -10.8047 0.0778738 -3.33631 
35.0103 30.9139 -7.32832 0 0 0 0 0 0 -76.4766 -41.4898 -60.8007 -46.0956 0 -147.688 0 0 0 0 0 0 -15.6556 0 -4.7533 0 0 0 15.1896 0 125.909 67.7775 -6.36111e-15 -5.91179 -11.4673 0.0788722 -3.56383 
35.0103 30.9139 -7.32951 0 0 0 0 0 0 -76.4766 -41.0133 -62.436 -46.0956 0 -147.698 0 0 0 0 0 0 -15.6556 0 -4.7533 0 0 0 15.1896 0 125.88 67.7775 -1.27222e-14 -5.91179 -11.4673 0.0844604 -3.56578 
35.0103 30.9139 -7.32951 0 0 0 0 0 0 -76.4766 -40.5418 -64.0527 -46.0956 0 -147.698 0 0 0 0 0 0 -15.6556 0 -4.7533 0 0 0 15.1896 0 125.88 67.7775 -1.27222e-14 -5.91179 -11.4673 0.0855162 -3.56615 
33.6675 28.9613 -7.81572 0 0 0 0 0 0 -72.0054 -39.8372 -49.5468 -43.7592 0 -137.29 0 0 0 0 0 0 -15.3985 0 -4.63088 0 0 0 14.8076 0 117.976 66.1625 -6.36111e-15 -5.46577 -13.4382 0.086572 -4.24185 
33.6675 28.9613 -7.81676 0 0 0 0 0 0 -72.0054 -39.318 -51.2814 -43.7592 0 -137.297 0 0 0 0 0 0 -15.3985 0 -4.63088 0 0 0 14.8076 0 117.953 66.1625 1.59028e-14 -5.46577 -13.4382 0.115397 -4.25205 
33.6675 28.9613 -7.81676 0 0 0 0 0 0 -72.0054 -38.885 -52.7256 -43.7592 0 -137.297 0 0 0 0 0 0 -15.3985 0 -4.63088 0 0 0 14.8076 0 117.953 66.1625 -3.18055e-15 -5.46577 -13.4382 0.116788 -4.25254 
32.592 26.4162 -3.02092 0 0 0 0 0 0 -69.8047 -38.7213 -61.052 -40.2651 0 -121.768 0 0 0 0 0 0 -14.7052 0 -4.32919 0 0 0 13.8608 0 110.718 63.5042 -3.18055e-15 -5.91462 -13.388 0.118178 -4.23688 
32.592 26.4162 -3.0214 0 0 0 0 0 0 -69.8047 -38.1511 -62.9442 -40.2651 0 -121.772 0 0 0 0 0 0 -14.7052 0 -4.32919 0 0 0 13.8608 0 110.707 63.5042 1.27222e-14 -5.91462 -13.388 -0.0363341 -4.18215 
32.592 26.4162 -3.0214 0 0 0 0 0 0 -69.8047 -37.7548 -64.2489 -40.2651 0 -121.772 0 0 0 0 0 0 -14.7052 0 -4.32919 0 0 0 13.8608 0 110.707 63.5042 -1.59028e-14 -5.91462 -13.388 -0.0367566 -4.182 
32.592 26.4162 -3.0214 0 0 0 0 0 0 -69.8047 -37.3716 -65.5104 -40.2651 0 -121.772 0 0 0 0 0 0 -14.7052 0 -4.32919 0 0 0 13.8608 0 110.707 63.5042 -6.36111e-15 -5.91462 -13.388 -0.037179 -4.18185 
25.8585 23.3237 -42.4556 0 0 0 0 0 0 -61.4809 -32.4488 -17.7128 -35.7553 0 -105.061 0 0 0 0 0 0 -13.6398 0 -3.87719 0 0 0 12.4459 0 99.3104 61.0364 -2.54444e-14 -5.86394 -14.0055 -0.0376015 -4.39753 
25.8585 23.3237 -42.4557 0 0 0 0 0 0 -61.4809 -32.0553 -18.987 -35.7553 0 -105.062 0 0 0 0 0 0 -13.6398 0 -3.87719 0 0 0 12.4459 0 99.3083 61.0364 -9.54166e-15 -5.86394 -14.0055 -0.0126089 -4.40642 
25.8585 23.3237 -42.4557 0 0 0 0 0 0 -61.4809 -31.7143 -20.0884 -35.7553 0 -105.062 0 0 0 0 0 0 -13.6398 0 -3.87719 0 0 0 12.4459 0 99.3083 61.0364 -2.22639e-14 -5.86394 -14.0055 -0.012749 -4.40637 
25.6144 20.2036 5.31987 0 0 0 0 0 0 -60.7166 -33.2185 -60.1746 -30.9159 0 -88.7168 0 0 0 0 0 0 -12.3189 0 -3.32762 0 0 0 10.7292 0 89.1179 58.0151 -3.18055e-15 -7.54411 -13.8243 -0.0128891 -4.34241 
25.6144 20.2036 5.32038 0 0 0 0 0 0 -60.7166 -32.7958 -61.544 -30.9159 0 -88.7115 0 0 0 0 0 0 -12.3189 0 -3.32762 0 0 0 10.7292 0 89.1323 58.0151 1.59028e-14 -7.54411 -13.8243 -0.117246 -4.30543 
25.6144 20.2036 5.32038 0 0 0 0 0 0 -60.7166 -32.4919 -62.5261 -30.9159 0 -88.7115 0 0 0 0 0 0 -12.3189 0 -3.32762 0 0 0 10.7292 0 89.1323 58.0151 6.36111e-15 -7.54411 -13.8243 -0.118506 -4.30498 
22.0269 17.5026 3.00353 0 0 0 0 0 0 -55.7895 -31.0554 -21.4323 -26.6369 0 -76.0029 0 0 0 0 0 0 -11.0921 0 -2.82212 0 0 0 9.15251 0 81.5858 54.4022 9.54166e-15 -8.78305 -13.9528 -0.119767 -4.34916 
22.0269 17.5026 3.00452 0 0 0 0 0 0 -55.7895 -30.7535 -22.3909 -26.6369 0 -75.9917 0 0 0 0 0 0 -11.0921 0 -2.82212 0 0 0 9.15251 0 81.6152 54.4022 1.27222e-14 -8.78305 -13.9528 -0.0922066 -4.35892 
22.0269 17.5026 3.00452 0 0 0 0 0 0 -55.7895 -30.488 -23.2387 -26.6369 0 -75.9917 0 0 0 0 0 0 -11.0921 0 -2.82212 0 0 0 9.15251 0 81.6152 54.4022 -6.36111e-15 -8.78305 -13.9528 -0.0931671 -4.35858 
22.0269 17.5026 3.00452 0 0 0 0 0 0 -55.7895 -30.2339 -24.0502 -26.6369 0 -75.9917 0 0 0 0 0 0 -11.0921 0 -2.82212 0 0 0 9.15251 0 81.6152 54.4022 -1.90833e-14 -8.78305 -13.9528 -0.0941276 -4.35824 
14.4548 14.0766 -35.1203 0 0 0 0 0 0 -48.0082 -25.4491 -5.12996 -21.0248 0 -56.2082 0 0 0 0 0 0 -9.38767 0 -2.12043 0 0 0 6.96933 0 66.6863 50.6971 9.54166e-15 -8.61124 -12.8013 -0.095088 -3.95969 
14.4548 14.0766 -35.1192 0 0 0 0 0 0 -48.0082 -25.0277 -6.46379 -21.0248 0 -56.1934 0 0 0 0 0 0 -9.38767 0 -2.12043 0 0 0 6.96933 0 66.724 50.6971 3.18055e-15 -8.61124 -12.8013 -0.281651 -3.89434 
