alexis-jensen/Push-Recovery/PushRecovery/log/torques201.txt
q0 qdot0 tau0 q1 qdot1 tau1 q2 qdot2 tau2 q3 qdot3 tau3 q4 qdot4 tau4 q5 qdot5 tau5 q6 qdot6 tau6 q7 qdot7 tau7 q8 qdot8 tau8 q9 qdot9 tau9 q10 qdot10 tau10 q11 qdot11 tau11 
0 0 0 0 0 0 0 0 0 0 0 0 0 0 0 0 0 0 0 0 0 0 0 0 0 0 0 0 0 0 0 0 0 0 0 0 
0 0 0 0 0 0 0 0 0 0 0 0 0 0 0 0 0 0 0 0 0 0 0 0 0 0 0 0 0 0 0 0 0 0 0 0 
0 0 0 0 0 0 0 0 0 0 0 0 0 0 0 0 0 0 0 0 0 0 0 0 0 0 0 0 0 0 0 0 0 0 0 0 
0 0 0 0 0 0 0 0 0 0 0 0 0 0 0 0 0 0 0 0 0 0 0 0 0 0 0 0 0 0 0 0 0 0 0 0 
0 0 0 0 0 0 0 0 0 0 0 0 0 0 0 0 0 0 0 0 0 0 0 0 0 0 0 0 0 0 0 0 0 0 0 0 
0 0 0.962841 0.415361 1.39358 -4.26573 0 0 0 0 0 0 0.536233 0 10.6892 0.499484 0 7.85564 0 0 0 0.837629 0 0.266157 -1.89346 0 -39.8953 -0.846986 0 -12.5252 0 0 0 1.90692 0 0.594718 
0 0 0.911516 0.415361 1.39358 -4.2011 0 0 0 0 0 0 0.536233 0 10.6962 0.499484 0 8.08899 0 0 0 0.837629 0 0.266157 -1.89346 0 -39.5298 -0.846986 0 -12.3922 0 0 0 1.90692 0 0.594718 
0 0 0.911516 0.415361 1.39358 -4.2011 0 0 0 0 0 0 0.536233 0 10.6962 0.499484 0 8.08899 0 0 0 0.837629 0 0.266157 -1.89346 0 -39.5298 -0.846986 0 -12.3922 0 0 0 1.90692 0 0.594718 
0 0 1.75289 5.70112 3.31473 41.8131 0 0 0 0 0 0 -0.699816 0 -6.08931 -0.705488 0 -10.8794 0 0 0 0.794487 0 0.256091 -2.60976 0 -24.5943 -0.814833 0 5.45357 0 0 0 2.63845 0 0.819705 
0 0 1.68979 5.70112 3.31473 41.8737 0 0 0 0 0 0 -0.699816 0 -6.13585 -0.705488 0 -10.6896 0 0 0 0.794487 0 0.256091 -2.60976 0 -24.3207 -0.814833 0 5.47943 0 0 0 2.63845 0 0.819705 
0 0 1.68979 5.70112 3.31473 41.8737 0 0 0 0 0 0 -0.699816 0 -6.13585 -0.705488 0 -10.6896 0 0 0 0.794487 0 0.256091 -2.60976 0 -24.3207 -0.814833 0 5.47943 0 0 0 2.63845 0 0.819705 
0 0 1.68979 5.70112 3.31473 41.8737 0 0 0 0 0 0 -0.699816 0 -6.13585 -0.705488 0 -10.6896 0 0 0 0.794487 0 0.256091 -2.60976 0 -24.3207 -0.814833 0 5.47943 0 0 0 2.63845 0 0.819705 
0 0 2.45471 3.67553 5.0155 -20.0977 0 0 0 0 0 0 -2.19037 0 -14.5177 -2.02639 0 -19.8569 0 0 0 0.553042 0 0.182952 -2.98964 0 -22.8658 -0.581947 0 11.4697 0 0 0 3.02884 0 0.939042 
0 0 2.38331 3.67553 5.0155 -20.0452 0 0 0 0 0 0 -2.19037 0 -14.6123 -2.02639 0 -19.7201 0 0 0 0.553042 0 0.182952 -2.98964 0 -22.6999 -0.581947 0 11.3887 0 0 0 3.02884 0 0.939042 
0 0 2.38331 3.67553 5.0155 -20.0452 0 0 0 0 0 0 -2.19037 0 -14.6123 -2.02639 0 -19.7201 0 0 0 0.553042 0 0.182952 -2.98964 0 -22.6999 -0.581947 0 11.3887 0 0 0 3.02884 0 0.939042 
0 0 -1.08613 8.83036 6.53902 43.2014 0 0 0 0 0 0 -2.88602 0 -17.8828 -3.36159 0 -21.8076 0 0 0 0.38618 0 0.133149 -3.17799 0 -15.3982 -0.423307 0 5.48866 0 0 0 3.22281 0 0.998244 
0 0 -1.05071 8.83036 6.53902 43.1709 0 0 0 0 0 0 -2.88602 0 -17.8594 -3.36159 0 -21.9077 0 0 0 0.38618 0 0.133149 -3.17799 0 -15.54 -0.423307 0 5.48 0 0 0 3.22281 0 0.998244 
0 0 -1.05071 8.83036 6.53902 43.1709 0 0 0 0 0 0 -2.88602 0 -17.8594 -3.36159 0 -21.9077 0 0 0 0.38618 0 0.133149 -3.17799 0 -15.54 -0.423307 0 5.48 0 0 0 3.22281 0 0.998244 
0 0 -0.013618 3.40902 6.89924 -51.0607 0 0 0 0 0 0 -4.25165 0 -28.1001 -3.27486 0 -12.5301 0 0 0 0.0477965 0 0.0275619 -3.6249 0 -25.7379 -0.0872207 0 11.6686 0 0 0 3.68364 0 1.13861 
0 0 -0.0120783 3.40902 6.89924 -51.0638 0 0 0 0 0 0 -4.25165 0 -28.1067 -3.27486 0 -12.5452 0 0 0 0.0477965 0 0.0275619 -3.6249 0 -25.7646 -0.0872207 0 11.6513 0 0 0 3.68364 0 1.13861 
0 0 -0.0120783 3.40902 6.89924 -51.0638 0 0 0 0 0 0 -4.25165 0 -28.1067 -3.27486 0 -12.5452 0 0 0 0.0477965 0 0.0275619 -3.6249 0 -25.7646 -0.0872207 0 11.6513 0 0 0 3.68364 0 1.13861 
0 0 -0.0120783 3.40902 6.89924 -51.0638 0 0 0 0 0 0 -4.25165 0 -28.1067 -3.27486 0 -12.5452 0 0 0 0.0477965 0 0.0275619 -3.6249 0 -25.7646 -0.0872207 0 11.6513 0 0 0 3.68364 0 1.13861 
0 0 -0.112671 8.29824 7.78132 30.8839 0 0 0 0 0 0 -3.59901 0 -10.925 -4.12511 0 -24.5034 0 0 0 0.225458 0 0.0883043 -3.65667 0 -19.1879 -0.280224 0 2.1423 0 0 0 3.7162 0 1.14863 
0 0 -0.11215 8.29824 7.78132 30.8821 0 0 0 0 0 0 -3.59901 0 -10.9303 -4.12511 0 -24.513 0 0 0 0.225458 0 0.0883043 -3.65667 0 -19.2055 -0.280224 0 2.12941 0 0 0 3.7162 0 1.14863 
0 0 -0.11215 8.29824 7.78132 30.8821 0 0 0 0 0 0 -3.59901 0 -10.9303 -4.12511 0 -24.513 0 0 0 0.225458 0 0.0883043 -3.65667 0 -19.2055 -0.280224 0 2.12941 0 0 0 3.7162 0 1.14863 
0 0 -0.0690787 4.11442 7.9821 -46.3006 0 0 0 0 0 0 -4.66364 0 -27.9272 -4.06142 0 -16.9746 0 0 0 -0.117011 0 -0.0196306 -3.92112 0 -24.9586 0.0632773 0 12.7941 0 0 0 3.99002 0 1.2317 
0 0 -0.0695057 4.11442 7.9821 -46.2993 0 0 0 0 0 0 -4.66364 0 -27.9237 -4.06142 0 -16.9679 0 0 0 -0.117011 0 -0.0196306 -3.92112 0 -24.9466 0.0632773 0 12.8026 0 0 0 3.99002 0 1.2317 
0 0 -0.0695057 4.11442 7.9821 -46.2993 0 0 0 0 0 0 -4.66364 0 -27.9237 -4.06142 0 -16.9679 0 0 0 -0.117011 0 -0.0196306 -3.92112 0 -24.9466 0.0632773 0 12.8026 0 0 0 3.99002 0 1.2317 
0 0 -0.241706 9.5205 8.54416 37.4189 0 0 0 0 0 0 -3.8395 0 -11.114 -4.58513 0 -24.3246 0 0 0 0.0785096 0 0.04675 -3.95943 0 -21.427 -0.147629 0 2.72548 0 0 0 4.02953 0 1.24376 
0 0 -0.241124 9.5205 8.54416 37.4171 0 0 0 0 0 0 -3.8395 0 -11.1187 -4.58513 0 -24.3334 0 0 0 0.0785096 0 0.04675 -3.95943 0 -21.4431 -0.147629 0 2.71413 0 0 0 4.02953 0 1.24376 
0 0 -0.241124 9.5205 8.54416 37.4171 0 0 0 0 0 0 -3.8395 0 -11.1187 -4.58513 0 -24.3334 0 0 0 0.0785096 0 0.04675 -3.95943 0 -21.4431 -0.147629 0 2.71413 0 0 0 4.02953 0 1.24376 
0 0 -0.241124 9.5205 8.54416 37.4171 0 0 0 0 0 0 -3.8395 0 -11.1187 -4.58513 0 -24.3334 0 0 0 0.0785096 0 0.04675 -3.95943 0 -21.4431 -0.147629 0 2.71413 0 0 0 4.02953 0 1.24376 
0 0 -0.199332 4.57857 8.26252 -49.8769 0 0 0 0 0 0 -4.95459 0 -29.673 -3.98081 0 -12.0186 0 0 0 -0.253902 0 -0.0591552 -4.28211 0 -28.366 0.18933 0 13.5086 0 0 0 4.36495 0 1.34508 
0 0 -0.200214 4.57857 8.26252 -49.8742 0 0 0 0 0 0 -4.95459 0 -29.6658 -3.98081 0 -12.0049 0 0 0 -0.253902 0 -0.0591552 -4.28211 0 -28.3413 0.18933 0 13.5262 0 0 0 4.36495 0 1.34508 
0 0 -0.200214 4.57857 8.26252 -49.8742 0 0 0 0 0 0 -4.95459 0 -29.6658 -3.98081 0 -12.0049 0 0 0 -0.253902 0 -0.0591552 -4.28211 0 -28.3413 0.18933 0 13.5262 0 0 0 4.36495 0 1.34508 
0 0 -0.356297 10.2289 8.70537 42.2091 0 0 0 0 0 0 -3.7841 0 -8.50178 -4.47242 0 -23.1118 0 0 0 0.0720604 0 0.0494131 -4.2333 0 -21.4663 -0.155721 0 0.915584 0 0 0 4.31408 0 1.32978 
0 0 -0.356236 10.2289 8.70537 42.2089 0 0 0 0 0 0 -3.7841 0 -8.50245 -4.47242 0 -23.1129 0 0 0 0.0720604 0 0.0494131 -4.2333 0 -21.4685 -0.155721 0 0.913993 0 0 0 4.31408 0 1.32978 
0 0 -0.356236 10.2289 8.70537 42.2089 0 0 0 0 0 0 -3.7841 0 -8.50245 -4.47242 0 -23.1129 0 0 0 0.0720604 0 0.0494131 -4.2333 0 -21.4685 -0.155721 0 0.913993 0 0 0 4.31408 0 1.32978 
0 0 -0.2793 5.08056 8.24943 -47.7019 0 0 0 0 0 0 -4.68845 0 -26.6817 -3.72333 0 -9.04964 0 0 0 -0.204686 0 -0.0392459 -4.52646 0 -29.0401 0.126315 0 12.6099 0 0 0 4.61941 0 1.42182 
0 0 -0.280546 5.08056 8.24943 -47.6979 0 0 0 0 0 0 -4.68845 0 -26.6713 -3.72333 0 -9.02992 0 0 0 -0.204686 0 -0.0392459 -4.52646 0 -29.0043 0.126315 0 12.6352 0 0 0 4.61941 0 1.42182 
0 0 -0.280546 5.08056 8.24943 -47.6979 0 0 0 0 0 0 -4.68845 0 -26.6713 -3.72333 0 -9.02992 0 0 0 -0.204686 0 -0.0392459 -4.52646 0 -29.0043 0.126315 0 12.6352 0 0 0 4.61941 0 1.42182 
0 0 -0.280546 5.08056 8.24943 -47.6979 0 0 0 0 0 0 -4.68845 0 -26.6713 -3.72333 0 -9.02992 0 0 0 -0.204686 0 -0.0392459 -4.52646 0 -29.0043 0.126315 0 12.6352 0 0 0 4.61941 0 1.42182 
0 0 -0.444449 10.5588 8.60819 44.1192 0 0 0 0 0 0 -3.40387 0 -5.69789 -4.19075 0 -20.8777 0 0 0 0.132916 0 0.0728369 -4.41776 0 -20.9632 -0.229889 0 0.739679 0 0 0 4.50613 0 1.38771 
0 0 -0.444686 10.5588 8.60819 44.1199 0 0 0 0 0 0 -3.40387 0 -5.6962 -4.19075 0 -20.8743 0 0 0 0.132916 0 0.0728369 -4.41776 0 -20.9572 -0.229889 0 0.743835 0 0 0 4.50613 0 1.38771 
0 0 -0.444686 10.5588 8.60819 44.1199 0 0 0 0 0 0 -3.40387 0 -5.6962 -4.19075 0 -20.8743 0 0 0 0.132916 0 0.0728369 -4.41776 0 -20.9572 -0.229889 0 0.743835 0 0 0 4.50613 0 1.38771 
0 0 -0.357921 5.29789 8.10991 -45.693 0 0 0 0 0 0 -4.26114 0 -23.974 -3.45593 0 -7.17524 0 0 0 -0.16665 0 -0.0240224 -4.65429 0 -28.1521 0.0781412 0 13.1498 0 0 0 4.75272 0 1.46197 
0 0 -0.359173 5.29789 8.10991 -45.6889 0 0 0 0 0 0 -4.26114 0 -23.9633 -3.45593 0 -7.15502 0 0 0 -0.16665 0 -0.0240224 -4.65429 0 -28.1153 0.0781412 0 13.1757 0 0 0 4.75272 0 1.46197 
0 0 -0.359173 5.29789 8.10991 -45.6889 0 0 0 0 0 0 -4.26114 0 -23.9633 -3.45593 0 -7.15502 0 0 0 -0.16665 0 -0.0240224 -4.65429 0 -28.1153 0.0781412 0 13.1757 0 0 0 4.75272 0 1.46197 
0 0 -0.506058 10.4355 8.40663 42.9449 0 0 0 0 0 0 -3.07004 0 -4.50124 -3.89602 0 -18.5948 0 0 0 0.113889 0 0.0690739 -4.51088 0 -20.2643 -0.217706 0 2.19366 0 0 0 4.60318 0 1.41696 
0 0 -0.506162 10.4355 8.40663 42.9452 0 0 0 0 0 0 -3.07004 0 -4.50063 -3.89602 0 -18.5935 0 0 0 0.113889 0 0.0690739 -4.51088 0 -20.262 -0.217706 0 2.19518 0 0 0 4.60318 0 1.41696 
0 0 -0.506162 10.4355 8.40663 42.9452 0 0 0 0 0 0 -3.07004 0 -4.50063 -3.89602 0 -18.5935 0 0 0 0.113889 0 0.0690739 -4.51088 0 -20.262 -0.217706 0 2.19518 0 0 0 4.60318 0 1.41696 
0 0 -0.506162 10.4355 8.40663 42.9452 0 0 0 0 0 0 -3.07004 0 -4.50063 -3.89602 0 -18.5935 0 0 0 0.113889 0 0.0690739 -4.51088 0 -20.262 -0.217706 0 2.19518 0 0 0 4.60318 0 1.41696 
0 0 -0.410546 5.14286 7.926 -45.4268 0 0 0 0 0 0 -3.98158 0 -22.7554 -3.23403 0 -6.15254 0 0 0 -0.219361 0 -0.0393973 -4.69224 0 -26.8345 0.127181 0 14.4034 0 0 0 4.79235 0 1.47389 
0 0 -0.411559 5.14286 7.926 -45.4234 0 0 0 0 0 0 -3.98158 0 -22.7465 -3.23403 0 -6.13589 0 0 0 -0.219361 0 -0.0393973 -4.69224 0 -26.8042 0.127181 0 14.4248 0 0 0 4.79235 0 1.47389 
0 0 -0.411559 5.14286 7.926 -45.4234 0 0 0 0 0 0 -3.98158 0 -22.7465 -3.23403 0 -6.13589 0 0 0 -0.219361 0 -0.0393973 -4.69224 0 -26.8042 0.127181 0 14.4248 0 0 0 4.79235 0 1.47389 
0 0 -0.530631 10.108 8.20413 41.2548 0 0 0 0 0 0 -2.88965 0 -4.15853 -3.67599 0 -17.1581 0 0 0 0.0287929 0 0.0428324 -4.52838 0 -19.592 -0.134141 0 3.58072 0 0 0 4.62142 0 1.42246 
0 0 -0.530458 10.108 8.20413 41.2542 0 0 0 0 0 0 -2.88965 0 -4.16025 -3.67599 0 -17.1612 0 0 0 0.0287929 0 0.0428324 -4.52838 0 -19.5978 -0.134141 0 3.5766 0 0 0 4.62142 0 1.42246 
0 0 -0.530458 10.108 8.20413 41.2542 0 0 0 0 0 0 -2.88965 0 -4.16025 -3.67599 0 -17.1612 0 0 0 0.0287929 0 0.0428324 -4.52838 0 -19.5978 -0.134141 0 3.5766 0 0 0 4.62142 0 1.42246 
0 0 -0.428502 4.89205 7.7587 -45.4519 0 0 0 0 0 0 -3.83939 0 -22.1949 -3.08179 0 -5.68167 0 0 0 -0.306693 0 -0.0667629 -4.67715 0 -25.8546 0.214288 0 15.2546 0 0 0 4.77662 0 1.46916 
0 0 -0.429291 4.89205 7.7587 -45.4492 0 0 0 0 0 0 -3.83939 0 -22.1878 -3.08179 0 -5.66847 0 0 0 -0.306693 0 -0.0667629 -4.67715 0 -25.8306 0.214288 0 15.2716 0 0 0 4.77662 0 1.46916 
0 0 -0.429291 4.89205 7.7587 -45.4492 0 0 0 0 0 0 -3.83939 0 -22.1878 -3.08179 0 -5.66847 0 0 0 -0.306693 0 -0.0667629 -4.67715 0 -25.8306 0.214288 0 15.2716 0 0 0 4.77662 0 1.46916 
0 0 -0.429291 4.89205 7.7587 -45.4492 0 0 0 0 0 0 -3.83939 0 -22.1878 -3.08179 0 -5.66847 0 0 0 -0.306693 0 -0.0667629 -4.67715 0 -25.8306 0.214288 0 15.2716 0 0 0 4.77662 0 1.46916 
0 0 -0.534474 9.89446 8.04828 41.0525 0 0 0 0 0 0 -2.77569 0 -3.73161 -3.54136 0 -16.4733 0 0 0 -0.051786 0 0.0175047 -4.50713 0 -19.1556 -0.0535314 0 4.18323 0 0 0 4.59922 0 1.41579 
0 0 -0.534118 9.89446 8.04828 41.0512 0 0 0 0 0 0 -2.77569 0 -3.73493 -3.54136 0 -16.4794 0 0 0 -0.051786 0 0.0175047 -4.50713 0 -19.1668 -0.0535314 0 4.17525 0 0 0 4.59922 0 1.41579 
0 0 -0.534118 9.89446 8.04828 41.0512 0 0 0 0 0 0 -2.77569 0 -3.73493 -3.54136 0 -16.4794 0 0 0 -0.051786 0 0.0175047 -4.50713 0 -19.1668 -0.0535314 0 4.17525 0 0 0 4.59922 0 1.41579 
0 0 -0.43208 4.78847 7.62485 -44.6415 0 0 0 0 0 0 -3.72916 0 -21.6178 -2.97464 0 -5.25003 0 0 0 -0.37181 0 -0.0872737 -4.65042 0 -25.4443 0.279566 0 15.5662 0 0 0 4.74874 0 1.46077 
0 0 -0.432765 4.78847 7.62485 -44.6391 0 0 0 0 0 0 -3.72916 0 -21.6116 -2.97464 0 -5.23839 0 0 0 -0.37181 0 -0.0872737 -4.65042 0 -25.4231 0.279566 0 15.5812 0 0 0 4.74874 0 1.46077 
0 0 -0.432765 4.78847 7.62485 -44.6391 0 0 0 0 0 0 -3.72916 0 -21.6116 -2.97464 0 -5.23839 0 0 0 -0.37181 0 -0.0872737 -4.65042 0 -25.4231 0.279566 0 15.5812 0 0 0 4.74874 0 1.46077 
0 0 -0.534219 9.87043 7.92249 42.0871 0 0 0 0 0 0 -2.6559 0 -3.05029 -3.4362 0 -15.8799 0 0 0 -0.0992146 0 0.00266897 -4.48649 0 -19.0322 -0.00630729 0 4.31551 0 0 0 4.57768 0 1.40932 
0 0 -0.533807 9.87043 7.92249 42.0856 0 0 0 0 0 0 -2.6559 0 -3.05414 -3.4362 0 -15.8871 0 0 0 -0.0992146 0 0.00266897 -4.48649 0 -19.0452 -0.00630729 0 4.30628 0 0 0 4.57768 0 1.40932 
0 0 -0.533807 9.87043 7.92249 42.0856 0 0 0 0 0 0 -2.6559 0 -3.05414 -3.4362 0 -15.8871 0 0 0 -0.0992146 0 0.00266897 -4.48649 0 -19.0452 -0.00630729 0 4.30628 0 0 0 4.57768 0 1.40932 
0 0 -0.533807 9.87043 7.92249 42.0856 0 0 0 0 0 0 -2.6559 0 -3.05414 -3.4362 0 -15.8871 0 0 0 -0.0992146 0 0.00266897 -4.48649 0 -19.0452 -0.00630729 0 4.30628 0 0 0 4.57768 0 1.40932 
0 0 -0.433283 4.81916 7.50058 -43.3477 0 0 0 0 0 0 -3.60358 0 -20.9175 -2.86454 0 -4.56786 0 0 0 -0.407006 0 -0.0982822 -4.63625 0 -25.3699 0.314609 0 15.6876 0 0 0 4.73395 0 1.45633 
0 0 -0.433949 4.81916 7.50058 -43.3453 0 0 0 0 0 0 -3.60358 0 -20.9114 -2.86454 0 -4.55642 0 0 0 -0.407006 0 -0.0982822 -4.63625 0 -25.3491 0.314609 0 15.7024 0 0 0 4.73395 0 1.45633 
0 0 -0.433949 4.81916 7.50058 -43.3453 0 0 0 0 0 0 -3.60358 0 -20.9114 -2.86454 0 -4.55642 0 0 0 -0.407006 0 -0.0982822 -4.63625 0 -25.3491 0.314609 0 15.7024 0 0 0 4.73395 0 1.45633 
0 0 -0.534039 9.91577 7.79257 43.2336 0 0 0 0 0 0 -2.52024 0 -2.28529 -3.31348 0 -15.0772 0 0 0 -0.124577 0 -0.00522425 -4.47927 0 -19.0247 0.0188219 0 4.40707 0 0 0 4.57012 0 1.40705 
0 0 -0.53362 9.91577 7.79257 43.2321 0 0 0 0 0 0 -2.52024 0 -2.28922 -3.31348 0 -15.0845 0 0 0 -0.124577 0 -0.00522425 -4.47927 0 -19.038 0.0188219 0 4.39764 0 0 0 4.57012 0 1.40705 
0 0 -0.53362 9.91577 7.79257 43.2321 0 0 0 0 0 0 -2.52024 0 -2.28922 -3.31348 0 -15.0845 0 0 0 -0.124577 0 -0.00522425 -4.47927 0 -19.038 0.0188219 0 4.39764 0 0 0 4.57012 0 1.40705 
0 0 -0.433878 4.85968 7.36331 -42.2263 0 0 0 0 0 0 -3.46446 0 -20.1677 -2.73263 0 -3.73229 0 0 0 -0.429077 0 -0.105247 -4.63087 0 -25.277 0.336773 0 15.8577 0 0 0 4.72833 0 1.45464 
0 0 -0.434535 4.85968 7.36331 -42.224 0 0 0 0 0 0 -3.46446 0 -20.1616 -2.73263 0 -3.72093 0 0 0 -0.429077 0 -0.105247 -4.63087 0 -25.2564 0.336773 0 15.8723 0 0 0 4.72833 0 1.45464 
0 0 -0.434535 4.85968 7.36331 -42.224 0 0 0 0 0 0 -3.46446 0 -20.1616 -2.73263 0 -3.72093 0 0 0 -0.429077 0 -0.105247 -4.63087 0 -25.2564 0.336773 0 15.8723 0 0 0 4.72833 0 1.45464 
0 0 -0.434535 4.85968 7.36331 -42.224 0 0 0 0 0 0 -3.46446 0 -20.1616 -2.73263 0 -3.72093 0 0 0 -0.429077 0 -0.105247 -4.63087 0 -25.2564 0.336773 0 15.8723 0 0 0 4.72833 0 1.45464 
0 0 -0.533368 9.92061 7.6438 43.9533 0 0 0 0 0 0 -2.37758 0 -1.52729 -3.17014 0 -14.1761 0 0 0 -0.146236 0 -0.0121671 -4.47384 0 -18.9142 0.040906 0 4.61371 0 0 0 4.56442 0 1.40535 
0 0 -0.532925 9.92061 7.6438 43.9517 0 0 0 0 0 0 -2.37758 0 -1.53147 -3.17014 0 -14.1838 0 0 0 -0.146236 0 -0.0121671 -4.47384 0 -18.9283 0.040906 0 4.60369 0 0 0 4.56442 0 1.40535 
0 0 -0.532925 9.92061 7.6438 43.9517 0 0 0 0 0 0 -2.37758 0 -1.53147 -3.17014 0 -14.1838 0 0 0 -0.146236 0 -0.0121671 -4.47384 0 -18.9283 0.040906 0 4.60369 0 0 0 4.56442 0 1.40535 
0 0 -0.433997 4.83952 7.20703 -41.4717 0 0 0 0 0 0 -3.32043 0 -19.4191 -2.58822 0 -2.90772 0 0 0 -0.45417 0 -0.11344 -4.61899 0 -25.0163 0.362825 0 16.1369 0 0 0 4.71591 0 1.45091 
0 0 -0.434614 4.83952 7.20703 -41.4695 0 0 0 0 0 0 -3.32043 0 -19.4133 -2.58822 0 -2.89699 0 0 0 -0.45417 0 -0.11344 -4.61899 0 -24.9968 0.362825 0 16.1508 0 0 0 4.71591 0 1.45091 
0 0 -0.434614 4.83952 7.20703 -41.4695 0 0 0 0 0 0 -3.32043 0 -19.4133 -2.58822 0 -2.89699 0 0 0 -0.45417 0 -0.11344 -4.61899 0 -24.9968 0.362825 0 16.1508 0 0 0 4.71591 0 1.45091 
0 0 -0.531807 9.85928 7.47596 44.328 0 0 0 0 0 0 -2.23158 0 -0.775663 -3.02022 0 -13.3134 0 0 0 -0.176368 0 -0.022131 -4.4559 0 -18.6511 0.0725717 0 4.93152 0 0 0 4.54564 0 1.39972 
0 0 -0.531301 9.85928 7.47596 44.3262 0 0 0 0 0 0 -2.23158 0 -0.780407 -3.02022 0 -13.3222 0 0 0 -0.176368 0 -0.022131 -4.4559 0 -18.6671 0.0725717 0 4.92015 0 0 0 4.54564 0 1.39972 
0 0 -0.531301 9.85928 7.47596 44.3262 0 0 0 0 0 0 -2.23158 0 -0.780407 -3.02022 0 -13.3222 0 0 0 -0.176368 0 -0.022131 -4.4559 0 -18.6671 0.0725717 0 4.92015 0 0 0 4.54564 0 1.39972 
0 0 -0.531301 9.85928 7.47596 44.3262 0 0 0 0 0 0 -2.23158 0 -0.780407 -3.02022 0 -13.3222 0 0 0 -0.176368 0 -0.022131 -4.4559 0 -18.6671 0.0725717 0 4.92015 0 0 0 4.54564 0 1.39972 
0 0 -0.434433 4.755 7.03111 -40.9856 0 0 0 0 0 0 -3.17439 0 -18.6963 -2.44051 0 -2.12602 0 0 0 -0.491841 0 -0.125969 -4.59077 0 -24.6294 0.40264 0 16.5214 0 0 0 4.68641 0 1.44206 
0 0 -0.434981 4.755 7.03111 -40.9836 0 0 0 0 0 0 -3.17439 0 -18.6912 -2.44051 0 -2.11645 0 0 0 -0.491841 0 -0.125969 -4.59077 0 -24.612 0.40264 0 16.5337 0 0 0 4.68641 0 1.44206 
0 0 -0.434981 4.755 7.03111 -40.9836 0 0 0 0 0 0 -3.17439 0 -18.6912 -2.44051 0 -2.11645 0 0 0 -0.491841 0 -0.125969 -4.59077 0 -24.612 0.40264 0 16.5337 0 0 0 4.68641 0 1.44206 
0 0 -0.529287 9.74449 7.28826 44.534 0 0 0 0 0 0 -2.08189 0 -0.0189441 -2.86892 0 -12.5023 0 0 0 -0.22126 0 -0.0371384 -4.41949 0 -18.2897 0.120252 0 5.33014 0 0 0 4.50755 0 1.38829 
0 0 -0.528694 9.74449 7.28826 44.5319 0 0 0 0 0 0 -2.08189 0 -0.0244526 -2.86892 0 -12.5125 0 0 0 -0.22126 0 -0.0371384 -4.41949 0 -18.3083 0.120252 0 5.31693 0 0 0 4.50755 0 1.38829 
0 0 -0.528694 9.74449 7.28826 44.5319 0 0 0 0 0 0 -2.08189 0 -0.0244526 -2.86892 0 -12.5125 0 0 0 -0.22126 0 -0.0371384 -4.41949 0 -18.3083 0.120252 0 5.31693 0 0 0 4.50755 0 1.38829 
0 0 -0.434839 4.61859 6.8328 -40.6759 0 0 0 0 0 0 -3.02551 0 -17.9989 -2.289 0 -1.35184 0 0 0 -0.546268 0 -0.144155 -4.54396 0 -24.1868 0.460431 0 16.9909 0 0 0 4.63746 0 1.42737 
0 0 -0.435304 4.61859 6.8328 -40.6742 0 0 0 0 0 0 -3.02551 0 -17.9945 -2.289 0 -1.34369 0 0 0 -0.546268 0 -0.144155 -4.54396 0 -24.172 0.460431 0 17.0014 0 0 0 4.63746 0 1.42737 
0 0 -0.435304 4.61859 6.8328 -40.6742 0 0 0 0 0 0 -3.02551 0 -17.9945 -2.289 0 -1.34369 0 0 0 -0.546268 0 -0.144155 -4.54396 0 -24.172 0.460431 0 17.0014 0 0 0 4.63746 0 1.42737 
0 0 -0.435304 4.61859 6.8328 -40.6742 0 0 0 0 0 0 -3.02551 0 -17.9945 -2.289 0 -1.34369 0 0 0 -0.546268 0 -0.144155 -4.54396 0 -24.172 0.460431 0 17.0014 0 0 0 4.63746 0 1.42737 
0 0 -0.524536 9.58381 7.07734 44.6113 0 0 0 0 0 0 -1.92731 0 0.747579 -2.71304 0 -11.7123 0 0 0 -0.283214 0 -0.0578835 -4.36444 0 -17.8801 0.186162 0 5.78833 0 0 0 4.44992 0 1.37101 
0 0 -0.523849 9.58381 7.07734 44.6088 0 0 0 0 0 0 -1.92731 0 0.741257 -2.71304 0 -11.7241 0 0 0 -0.283214 0 -0.0578835 -4.36444 0 -17.9015 0.186162 0 5.77317 0 0 0 4.44992 0 1.37101 
0 0 -0.523849 9.58381 7.07734 44.6088 0 0 0 0 0 0 -1.92731 0 0.741257 -2.71304 0 -11.7241 0 0 0 -0.283214 0 -0.0578835 -4.36444 0 -17.9015 0.186162 0 5.77317 0 0 0 4.44992 0 1.37101 
0 0 -0.432739 4.43528 6.61007 -40.5128 0 0 0 0 0 0 -2.87182 0 -17.3099 -2.13107 0 -0.581992 0 0 0 -0.618094 0 -0.168145 -4.47915 0 -23.7173 0.53667 0 17.5228 0 0 0 4.56966 0 1.40703 
0 0 -0.433121 4.43528 6.61007 -40.5115 0 0 0 0 0 0 -2.87182 0 -17.3063 -2.13107 0 -0.575278 0 0 0 -0.618094 0 -0.168145 -4.47915 0 -23.7051 0.53667 0 17.5315 0 0 0 4.56966 0 1.40703 
0 0 -0.433121 4.43528 6.61007 -40.5115 0 0 0 0 0 0 -2.87182 0 -17.3063 -2.13107 0 -0.575278 0 0 0 -0.618094 0 -0.168145 -4.47915 0 -23.7051 0.53667 0 17.5315 0 0 0 4.56966 0 1.40703 
0 0 -0.514782 9.37644 6.84241 44.5266 0 0 0 0 0 0 -1.76755 0 1.51714 -2.55062 0 -10.9422 0 0 0 -0.362081 0 -0.0842453 -4.29193 0 -17.4485 0.269924 0 6.29572 0 0 0 4.37399 0 1.34825 
0 0 -0.514004 9.37644 6.84241 44.5239 0 0 0 0 0 0 -1.76755 0 1.51005 -2.55062 0 -10.9554 0 0 0 -0.362081 0 -0.0842453 -4.29193 0 -17.4725 0.269924 0 6.2787 0 0 0 4.37399 0 1.34825 
0 0 -0.514004 9.37644 6.84241 44.5239 0 0 0 0 0 0 -1.76755 0 1.51005 -2.55062 0 -10.9554 0 0 0 -0.362081 0 -0.0842453 -4.29193 0 -17.4725 0.269924 0 6.2787 0 0 0 4.37399 0 1.34825 
0 0 -0.514004 9.37644 6.84241 44.5239 0 0 0 0 0 0 -1.76755 0 1.51005 -2.55062 0 -10.9554 0 0 0 -0.362081 0 -0.0842453 -4.29193 0 -17.4725 0.269924 0 6.2787 0 0 0 4.37399 0 1.34825 
0 0 -0.424885 4.20749 6.36549 -40.4804 0 0 0 0 0 0 -2.71335 0 -16.6256 -1.96822 0 0.144412 0 0 0 -0.70614 0 -0.197482 -4.39741 0 -23.2304 0.629912 0 18.0984 0 0 0 4.4841 0 1.38137 
0 0 -0.425189 4.20749 6.36549 -40.4793 0 0 0 0 0 0 -2.71335 0 -16.6227 -1.96822 0 0.149797 0 0 0 -0.70614 0 -0.197482 -4.39741 0 -23.2206 0.629912 0 18.1054 0 0 0 4.4841 0 1.38137 
0 0 -0.425189 4.20749 6.36549 -40.4793 0 0 0 0 0 0 -2.71335 0 -16.6227 -1.96822 0 0.149797 0 0 0 -0.70614 0 -0.197482 -4.39741 0 -23.2206 0.629912 0 18.1054 0 0 0 4.4841 0 1.38137 
0 0 -0.497179 9.12469 6.58809 44.2671 0 0 0 0 0 0 -1.60509 0 2.26616 -2.38459 0 -10.221 0 0 0 -0.456321 0 -0.115647 -4.20362 0 -17.0193 0.369715 0 6.84284 0 0 0 4.28149 0 1.32053 
0 0 -0.496318 9.12469 6.58809 44.2641 0 0 0 0 0 0 -1.60509 0 2.25837 -2.38459 0 -10.2355 0 0 0 -0.456321 0 -0.115647 -4.20362 0 -17.0457 0.369715 0 6.82415 0 0 0 4.28149 0 1.32053 
0 0 -0.496318 9.12469 6.58809 44.2641 0 0 0 0 0 0 -1.60509 0 2.25837 -2.38459 0 -10.2355 0 0 0 -0.456321 0 -0.115647 -4.20362 0 -17.0457 0.369715 0 6.82415 0 0 0 4.28149 0 1.32053 
0 0 -0.409317 3.943 6.10641 -40.5492 0 0 0 0 0 0 -2.5538 0 -15.9667 -1.80573 0 0.78057 0 0 0 -0.808107 0 -0.231351 -4.3008 0 -22.7465 0.737573 0 18.6963 0 0 0 4.38294 0 1.35104 
0 0 -0.409551 3.943 6.10641 -40.5484 0 0 0 0 0 0 -2.5538 0 -15.9644 -1.80573 0 0.784795 0 0 0 -0.808107 0 -0.231351 -4.3008 0 -22.7388 0.737573 0 18.7018 0 0 0 4.38294 0 1.35104 
0 0 -0.409551 3.943 6.10641 -40.5484 0 0 0 0 0 0 -2.5538 0 -15.9644 -1.80573 0 0.784795 0 0 0 -0.808107 0 -0.231351 -4.3008 0 -22.7388 0.737573 0 18.7018 0 0 0 4.38294 0 1.35104 
0 0 -0.409551 3.943 6.10641 -40.5484 0 0 0 0 0 0 -2.5538 0 -15.9644 -1.80573 0 0.784795 0 0 0 -0.808107 0 -0.231351 -4.3008 0 -22.7388 0.737573 0 18.7018 0 0 0 4.38294 0 1.35104 
0 0 -0.470896 8.83956 6.32478 43.8583 0 0 0 0 0 0 -1.46979 0 2.68486 -2.22273 0 -9.59672 0 0 0 -0.574479 0 -0.154831 -4.10216 0 -16.5957 0.494256 0 7.67994 0 0 0 4.1752 0 1.28867 
0 0 -0.469996 8.83956 6.32478 43.8552 0 0 0 0 0 0 -1.46979 0 2.67679 -2.22273 0 -9.61176 0 0 0 -0.574479 0 -0.154831 -4.10216 0 -16.623 0.494256 0 7.66056 0 0 0 4.1752 0 1.28867 
0 0 -0.469996 8.83956 6.32478 43.8552 0 0 0 0 0 0 -1.46979 0 2.67679 -2.22273 0 -9.61176 0 0 0 -0.574479 0 -0.154831 -4.10216 0 -16.623 0.494256 0 7.66056 0 0 0 4.1752 0 1.28867 
0 0 -0.385811 3.65673 5.84344 -40.6718 0 0 0 0 0 0 -2.41637 0 -15.401 -1.64993 0 1.30709 0 0 0 -0.928733 0 -0.271257 -4.19363 0 -22.3196 0.864439 0 19.2996 0 0 0 4.2707 0 1.3174 
0 0 -0.385951 3.65673 5.84344 -40.6712 0 0 0 0 0 0 -2.41637 0 -15.3995 -1.64993 0 1.30975 0 0 0 -0.928733 0 -0.271257 -4.19363 0 -22.3147 0.864439 0 19.3031 0 0 0 4.2707 0 1.3174 
0 0 -0.385951 3.65673 5.84344 -40.6712 0 0 0 0 0 0 -2.41637 0 -15.3995 -1.64993 0 1.30975 0 0 0 -0.928733 0 -0.271257 -4.19363 0 -22.3147 0.864439 0 19.3031 0 0 0 4.2707 0 1.3174 
0 0 -0.439126 8.53945 6.06208 43.385 0 0 0 0 0 0 -1.35984 0 2.9365 -2.06931 0 -9.07512 0 0 0 -0.70838 0 -0.199078 -3.99287 0 -16.2388 0.634915 0 8.54053 0 0 0 4.0607 0 1.25436 
0 0 -0.438209 8.53945 6.06208 43.3819 0 0 0 0 0 0 -1.35984 0 2.92834 -2.06931 0 -9.09033 0 0 0 -0.70838 0 -0.199078 -3.99287 0 -16.2665 0.634915 0 8.52093 0 0 0 4.0607 0 1.25436 
0 0 -0.438209 8.53945 6.06208 43.3819 0 0 0 0 0 0 -1.35984 0 2.92834 -2.06931 0 -9.09033 0 0 0 -0.70838 0 -0.199078 -3.99287 0 -16.2665 0.634915 0 8.52093 0 0 0 4.0607 0 1.25436 
0 0 -0.438209 8.53945 6.06208 43.3819 0 0 0 0 0 0 -1.35984 0 2.92834 -2.06931 0 -9.09033 0 0 0 -0.70838 0 -0.199078 -3.99287 0 -16.2665 0.634915 0 8.52093 0 0 0 4.0607 0 1.25436 
0 0 -0.356898 3.36565 5.58598 -40.8142 0 0 0 0 0 0 -2.29933 0 -14.9176 -1.50475 0 1.71734 0 0 0 -1.05944 0 -0.314365 -4.08133 0 -21.973 1.00151 0 19.8482 0 0 0 4.15309 0 1.28214 
0 0 -0.35696 3.36565 5.58598 -40.814 0 0 0 0 0 0 -2.29933 0 -14.9168 -1.50475 0 1.71868 0 0 0 -1.05944 0 -0.314365 -4.08133 0 -21.9706 1.00151 0 19.85 0 0 0 4.15309 0 1.28214 
0 0 -0.35696 3.36565 5.58598 -40.814 0 0 0 0 0 0 -2.29933 0 -14.9168 -1.50475 0 1.71868 0 0 0 -1.05944 0 -0.314365 -4.08133 0 -21.9706 1.00151 0 19.85 0 0 0 4.15309 0 1.28214 
0 0 -0.404361 8.24158 5.80899 42.9041 0 0 0 0 0 0 -1.2662 0 3.11832 -1.92787 0 -8.6602 0 0 0 -0.846712 0 -0.244662 -3.8812 0 -15.9695 0.779844 0 9.31119 0 0 0 3.94375 0 1.2193 
0 0 -0.403449 8.24158 5.80899 42.901 0 0 0 0 0 0 -1.2662 0 3.11025 -1.92787 0 -8.67526 0 0 0 -0.846712 0 -0.244662 -3.8812 0 -15.9969 0.779844 0 9.29179 0 0 0 3.94375 0 1.2193 
0 0 -0.403449 8.24158 5.80899 42.901 0 0 0 0 0 0 -1.2662 0 3.11025 -1.92787 0 -8.67526 0 0 0 -0.846712 0 -0.244662 -3.8812 0 -15.9969 0.779844 0 9.29179 0 0 0 3.94375 0 1.2193 
0 0 -0.325824 3.08479 5.34253 -40.95 0 0 0 0 0 0 -2.19755 0 -14.5118 -1.37342 0 2.01463 0 0 0 -1.19031 0 -0.357423 -3.96921 0 -21.7129 1.13843 0 20.3061 0 0 0 4.03569 0 1.24694 
0 0 -0.325834 3.08479 5.34253 -40.9499 0 0 0 0 0 0 -2.19755 0 -14.5115 -1.37342 0 2.01509 0 0 0 -1.19031 0 -0.357423 -3.96921 0 -21.712 1.13843 0 20.3067 0 0 0 4.03569 0 1.24694 
0 0 -0.325834 3.08479 5.34253 -40.9499 0 0 0 0 0 0 -2.19755 0 -14.5115 -1.37342 0 2.01509 0 0 0 -1.19031 0 -0.357423 -3.96921 0 -21.712 1.13843 0 20.3067 0 0 0 4.03569 0 1.24694 
0 0 -0.325834 3.08479 5.34253 -40.9499 0 0 0 0 0 0 -2.19755 0 -14.5115 -1.37342 0 2.01509 0 0 0 -1.19031 0 -0.357423 -3.96921 0 -21.712 1.13843 0 20.3067 0 0 0 4.03569 0 1.24694 
0 0 -0.369607 7.96232 5.5739 42.4777 0 0 0 0 0 0 -1.18475 0 3.24893 -1.80188 0 -8.35445 0 0 0 -0.980456 0 -0.288631 -3.7721 0 -15.7877 0.919654 0 9.95563 0 0 0 3.82953 0 1.18504 
0 0 -0.36872 7.96232 5.5739 42.4747 0 0 0 0 0 0 -1.18475 0 3.24111 -1.80188 0 -8.36905 0 0 0 -0.980456 0 -0.288631 -3.7721 0 -15.8142 0.919654 0 9.93683 0 0 0 3.82953 0 1.18504 
0 0 -0.36872 7.96232 5.5739 42.4747 0 0 0 0 0 0 -1.18475 0 3.24111 -1.80188 0 -8.36905 0 0 0 -0.980456 0 -0.288631 -3.7721 0 -15.8142 0.919654 0 9.93683 0 0 0 3.82953 0 1.18504 
0 0 -0.295561 2.8292 5.12024 -41.0341 0 0 0 0 0 0 -2.10813 0 -14.1722 -1.25818 0 2.21499 0 0 0 -1.3138 0 -0.397963 -3.86215 0 -21.5435 1.26736 0 20.6565 0 0 0 3.92365 0 1.21332 
0 0 -0.295545 2.8292 5.12024 -41.0341 0 0 0 0 0 0 -2.10813 0 -14.1721 -1.25818 0 2.21501 0 0 0 -1.3138 0 -0.397963 -3.86215 0 -21.5435 1.26736 0 20.6566 0 0 0 3.92365 0 1.21332 
0 0 -0.295545 2.8292 5.12024 -41.0341 0 0 0 0 0 0 -2.10813 0 -14.1721 -1.25818 0 2.21501 0 0 0 -1.3138 0 -0.397963 -3.86215 0 -21.5435 1.26736 0 20.6566 0 0 0 3.92365 0 1.21332 
0 0 -0.337394 7.71558 5.36268 42.1567 0 0 0 0 0 0 -1.11321 0 3.34149 -1.69263 0 -8.13997 0 0 0 -1.10353 0 -0.329009 -3.67013 0 -15.6918 1.04806 0 10.4681 0 0 0 3.72283 0 1.15301 
0 0 -0.336551 7.71558 5.36268 42.1539 0 0 0 0 0 0 -1.11321 0 3.33406 -1.69263 0 -8.15383 0 0 0 -1.10353 0 -0.329009 -3.67013 0 -15.717 1.04806 0 10.4503 0 0 0 3.72283 0 1.15301 
0 0 -0.336551 7.71558 5.36268 42.1539 0 0 0 0 0 0 -1.11321 0 3.33406 -1.69263 0 -8.15383 0 0 0 -1.10353 0 -0.329009 -3.67013 0 -15.717 1.04806 0 10.4503 0 0 0 3.72283 0 1.15301 
0 0 -0.336551 7.71558 5.36268 42.1539 0 0 0 0 0 0 -1.11321 0 3.33406 -1.69263 0 -8.15383 0 0 0 -1.10353 0 -0.329009 -3.67013 0 -15.717 1.04806 0 10.4503 0 0 0 3.72283 0 1.15301 
0 0 -0.268212 2.60909 4.92306 -41.044 0 0 0 0 0 0 -2.02966 0 -13.8922 -1.15877 0 2.34847 0 0 0 -1.42542 0 -0.434539 -3.76437 0 -21.4629 1.3837 0 20.907 0 0 0 3.82138 0 1.18261 
0 0 -0.268192 2.60909 4.92306 -41.0441 0 0 0 0 0 0 -2.02966 0 -13.8922 -1.15877 0 2.34841 0 0 0 -1.42542 0 -0.434539 -3.76437 0 -21.463 1.3837 0 20.907 0 0 0 3.82138 0 1.18261 
0 0 -0.268192 2.60909 4.92306 -41.0441 0 0 0 0 0 0 -2.02966 0 -13.8922 -1.15877 0 2.34841 0 0 0 -1.42542 0 -0.434539 -3.76437 0 -21.463 1.3837 0 20.907 0 0 0 3.82138 0 1.18261 
0 0 -0.309167 7.50765 5.1775 41.9502 0 0 0 0 0 0 -1.05043 0 3.40559 -1.59873 0 -7.98676 0 0 0 -1.21276 0 -0.36478 -3.57883 0 -15.673 1.16182 0 10.8602 0 0 0 3.62739 0 1.12434 
0 0 -0.308382 7.50765 5.1775 41.9476 0 0 0 0 0 0 -1.05043 0 3.39866 -1.59873 0 -7.99969 0 0 0 -1.21276 0 -0.36478 -3.57883 0 -15.6965 1.16182 0 10.8435 0 0 0 3.62739 0 1.12434 
0 0 -0.308382 7.50765 5.1775 41.9476 0 0 0 0 0 0 -1.05043 0 3.39866 -1.59873 0 -7.99969 0 0 0 -1.21276 0 -0.36478 -3.57883 0 -15.6965 1.16182 0 10.8435 0 0 0 3.62739 0 1.12434 
0 0 -0.244728 2.42634 4.75147 -40.9924 0 0 0 0 0 0 -1.96135 0 -13.6653 -1.07296 0 2.44527 0 0 0 -1.52319 0 -0.466523 -3.67858 0 -21.4561 1.48543 0 21.0747 0 0 0 3.73171 0 1.15566 
0 0 -0.24472 2.42634 4.75147 -40.9923 0 0 0 0 0 0 -1.96135 0 -13.6652 -1.07296 0 2.44539 0 0 0 -1.52319 0 -0.466523 -3.67858 0 -21.4559 1.48543 0 21.0749 0 0 0 3.73171 0 1.15566 
0 0 -0.24472 2.42634 4.75147 -40.9923 0 0 0 0 0 0 -1.96135 0 -13.6652 -1.07296 0 2.44539 0 0 0 -1.52319 0 -0.466523 -3.67858 0 -21.4559 1.48543 0 21.0749 0 0 0 3.73171 0 1.15566 
0 0 -0.24472 2.42634 4.75147 -40.9923 0 0 0 0 0 0 -1.96135 0 -13.6652 -1.07296 0 2.44539 0 0 0 -1.52319 0 -0.466523 -3.67858 0 -21.4559 1.48543 0 21.0749 0 0 0 3.73171 0 1.15566 
0 0 -0.285349 7.33755 5.01759 41.842 0 0 0 0 0 0 -0.995774 0 3.44873 -1.51773 0 -7.87075 0 0 0 -1.30724 0 -0.395673 -3.49992 0 -15.7098 1.26008 0 11.1535 0 0 0 3.54496 0 1.09955 
0 0 -0.284628 7.33755 5.01759 41.8395 0 0 0 0 0 0 -0.995774 0 3.44234 -1.51773 0 -7.88266 0 0 0 -1.30724 0 -0.395673 -3.49992 0 -15.7314 1.26008 0 11.1382 0 0 0 3.54496 0 1.09955 
0 0 -0.284628 7.33755 5.01759 41.8395 0 0 0 0 0 0 -0.995774 0 3.44234 -1.51773 0 -7.88266 0 0 0 -1.30724 0 -0.395673 -3.49992 0 -15.7314 1.26008 0 11.1382 0 0 0 3.54496 0 1.09955 
0 0 -0.225171 2.27741 4.60354 -40.9008 0 0 0 0 0 0 -1.90202 0 -13.4781 -0.998077 0 2.528 0 0 0 -1.60687 0 -0.493866 -3.60553 0 -21.5007 1.57242 0 21.178 0 0 0 3.65543 0 1.13272 
0 0 -0.225185 2.27741 4.60354 -40.9007 0 0 0 0 0 0 -1.90202 0 -13.4778 -0.998077 0 2.52847 0 0 0 -1.60687 0 -0.493866 -3.60553 0 -21.4998 1.57242 0 21.1786 0 0 0 3.65543 0 1.13272 
0 0 -0.225185 2.27741 4.60354 -40.9007 0 0 0 0 0 0 -1.90202 0 -13.4778 -0.998077 0 2.52847 0 0 0 -1.60687 0 -0.493866 -3.60553 0 -21.4998 1.57242 0 21.1786 0 0 0 3.65543 0 1.13272 
0 0 -0.265704 7.2007 4.88024 41.8129 0 0 0 0 0 0 -0.948312 0 3.47815 -1.44704 0 -7.77477 0 0 0 -1.38774 0 -0.421967 -3.43325 0 -15.7766 1.34372 0 11.3769 0 0 0 3.47537 0 1.07861 
0 0 -0.265049 7.2007 4.88024 41.8107 0 0 0 0 0 0 -0.948312 0 3.47233 -1.44704 0 -7.78561 0 0 0 -1.38774 0 -0.421967 -3.43325 0 -15.7963 1.34372 0 11.3629 0 0 0 3.47537 0 1.07861 
0 0 -0.265049 7.2007 4.88024 41.8107 0 0 0 0 0 0 -0.948312 0 3.47233 -1.44704 0 -7.78561 0 0 0 -1.38774 0 -0.421967 -3.43325 0 -15.7963 1.34372 0 11.3629 0 0 0 3.47537 0 1.07861 
0 0 -0.265049 7.2007 4.88024 41.8107 0 0 0 0 0 0 -0.948312 0 3.47233 -1.44704 0 -7.78561 0 0 0 -1.38774 0 -0.421967 -3.43325 0 -15.7963 1.34372 0 11.3629 0 0 0 3.47537 0 1.07861 
0 0 -0.209166 2.15663 4.47575 -40.7863 0 0 0 0 0 0 -1.84994 0 -13.3145 -0.931406 0 2.61458 0 0 0 -1.67771 0 -0.516994 -3.54441 0 -21.5741 1.64599 0 21.2379 0 0 0 3.59163 0 1.11352 
0 0 -0.209204 2.15663 4.47575 -40.7861 0 0 0 0 0 0 -1.84994 0 -13.314 -0.931406 0 2.61543 0 0 0 -1.67771 0 -0.516994 -3.54441 0 -21.5725 1.64599 0 21.239 0 0 0 3.59163 0 1.11352 
0 0 -0.209204 2.15663 4.47575 -40.7861 0 0 0 0 0 0 -1.84994 0 -13.314 -0.931406 0 2.61543 0 0 0 -1.67771 0 -0.516994 -3.54441 0 -21.5725 1.64599 0 21.239 0 0 0 3.59163 0 1.11352 
0 0 -0.249705 7.09064 4.76131 41.8419 0 0 0 0 0 0 -0.906646 0 3.50081 -1.38391 0 -7.68286 0 0 0 -1.45632 0 -0.444358 -3.37745 0 -15.851 1.41494 0 11.561 0 0 0 3.41715 0 1.06108 
0 0 -0.249114 7.09064 4.76131 41.8399 0 0 0 0 0 0 -0.906646 0 3.49554 -1.38391 0 -7.69269 0 0 0 -1.45632 0 -0.444358 -3.37745 0 -15.8689 1.41494 0 11.5484 0 0 0 3.41715 0 1.06108 
0 0 -0.249114 7.09064 4.76131 41.8399 0 0 0 0 0 0 -0.906646 0 3.49554 -1.38391 0 -7.69269 0 0 0 -1.45632 0 -0.444358 -3.37745 0 -15.8689 1.41494 0 11.5484 0 0 0 3.41715 0 1.06108 
0 0 -0.196203 2.05698 4.36348 -40.6647 0 0 0 0 0 0 -1.80314 0 -13.1608 -0.870137 0 2.7195 0 0 0 -1.73802 0 -0.536688 -3.4934 0 -21.6564 1.70864 0 21.2766 0 0 0 3.5384 0 1.0975 
0 0 -0.196261 2.05698 4.36348 -40.6645 0 0 0 0 0 0 -1.80314 0 -13.1601 -0.870137 0 2.72066 0 0 0 -1.73802 0 -0.536688 -3.4934 0 -21.6543 1.70864 0 21.2782 0 0 0 3.5384 0 1.0975 
0 0 -0.196261 2.05698 4.36348 -40.6645 0 0 0 0 0 0 -1.80314 0 -13.1601 -0.870137 0 2.72066 0 0 0 -1.73802 0 -0.536688 -3.4934 0 -21.6543 1.70864 0 21.2782 0 0 0 3.5384 0 1.0975 
0 0 -0.196261 2.05698 4.36348 -40.6645 0 0 0 0 0 0 -1.80314 0 -13.1601 -0.870137 0 2.72066 0 0 0 -1.73802 0 -0.536688 -3.4934 0 -21.6543 1.70864 0 21.2782 0 0 0 3.5384 0 1.0975 
0 0 -0.236739 6.99947 4.65579 41.9029 0 0 0 0 0 0 -0.869217 0 3.52229 -1.32543 0 -7.58103 0 0 0 -1.5158 0 -0.463791 -3.3304 0 -15.9152 1.47676 0 11.7335 0 0 0 3.36806 0 1.0463 
0 0 -0.236206 6.99947 4.65579 41.901 0 0 0 0 0 0 -0.869217 0 3.51751 -1.32543 0 -7.58993 0 0 0 -1.5158 0 -0.463791 -3.3304 0 -15.9314 1.47676 0 11.722 0 0 0 3.36806 0 1.0463 
0 0 -0.236206 6.99947 4.65579 41.901 0 0 0 0 0 0 -0.869217 0 3.51751 -1.32543 0 -7.58993 0 0 0 -1.5158 0 -0.463791 -3.3304 0 -15.9314 1.47676 0 11.722 0 0 0 3.36806 0 1.0463 
0 0 -0.185749 1.97062 4.26167 -40.552 0 0 0 0 0 0 -1.75977 0 -13.0068 -0.811636 0 2.85139 0 0 0 -1.79071 0 -0.553912 -3.45008 0 -21.7304 1.76344 0 21.3133 0 0 0 3.49319 0 1.0839 
0 0 -0.185819 1.97062 4.26167 -40.5517 0 0 0 0 0 0 -1.75977 0 -13.0061 -0.811636 0 2.85274 0 0 0 -1.79071 0 -0.553912 -3.45008 0 -21.7279 1.76344 0 21.3151 0 0 0 3.49319 0 1.0839 
0 0 -0.185819 1.97062 4.26167 -40.5517 0 0 0 0 0 0 -1.75977 0 -13.0061 -0.811636 0 2.85274 0 0 0 -1.79071 0 -0.553912 -3.45008 0 -21.7279 1.76344 0 21.3151 0 0 0 3.49319 0 1.0839 
0 0 -0.226176 6.91879 4.5586 41.9688 0 0 0 0 0 0 -0.834525 0 3.54642 -1.26906 0 -7.46059 0 0 0 -1.56924 0 -0.481282 -3.28959 0 -15.956 1.5324 0 11.9149 0 0 0 3.32544 0 1.03348 
0 0 -0.225693 6.91879 4.5586 41.9672 0 0 0 0 0 0 -0.834525 0 3.54207 -1.26906 0 -7.46868 0 0 0 -1.56924 0 -0.481282 -3.28959 0 -15.9707 1.5324 0 11.9044 0 0 0 3.32544 0 1.03348 
0 0 -0.225693 6.91879 4.5586 41.9672 0 0 0 0 0 0 -0.834525 0 3.54207 -1.26906 0 -7.46868 0 0 0 -1.56924 0 -0.481282 -3.28959 0 -15.9707 1.5324 0 11.9044 0 0 0 3.32544 0 1.03348 
0 0 -0.225693 6.91879 4.5586 41.9672 0 0 0 0 0 0 -0.834525 0 3.54207 -1.26906 0 -7.46868 0 0 0 -1.56924 0 -0.481282 -3.28959 0 -15.9707 1.5324 0 11.9044 0 0 0 3.32544 0 1.03348 
0 0 -0.177237 1.89003 4.16569 -40.4607 0 0 0 0 0 0 -1.71818 0 -12.8458 -0.753894 0 3.01171 0 0 0 -1.83869 0 -0.569628 -3.41184 0 -21.7831 1.81343 0 21.3617 0 0 0 3.45322 0 1.07188 
0 0 -0.177308 1.89003 4.16569 -40.4604 0 0 0 0 0 0 -1.71818 0 -12.8451 -0.753894 0 3.01308 0 0 0 -1.83869 0 -0.569628 -3.41184 0 -21.7806 1.81343 0 21.3635 0 0 0 3.45322 0 1.07188 
0 0 -0.177308 1.89003 4.16569 -40.4604 0 0 0 0 0 0 -1.71818 0 -12.8451 -0.753894 0 3.01308 0 0 0 -1.83869 0 -0.569628 -3.41184 0 -21.7806 1.81343 0 21.3635 0 0 0 3.45322 0 1.07188 
0 0 -0.217339 6.84116 4.46543 42.0177 0 0 0 0 0 0 -0.801263 0 3.57548 -1.21297 0 -7.31903 0 0 0 -1.61946 0 -0.497754 -3.2525 0 -15.9661 1.58479 0 12.1181 0 0 0 3.28665 0 1.02183 
0 0 -0.216896 6.84116 4.46543 42.0161 0 0 0 0 0 0 -0.801263 0 3.57149 -1.21297 0 -7.32645 0 0 0 -1.61946 0 -0.497754 -3.2525 0 -15.9796 1.58479 0 12.1085 0 0 0 3.28665 0 1.02183 
0 0 -0.216896 6.84116 4.46543 42.0161 0 0 0 0 0 0 -0.801263 0 3.57149 -1.21297 0 -7.32645 0 0 0 -1.61946 0 -0.497754 -3.2525 0 -15.9796 1.58479 0 12.1085 0 0 0 3.28665 0 1.02183 
0 0 -0.170029 1.80917 4.07191 -40.398 0 0 0 0 0 0 -1.67715 0 -12.6748 -0.695728 0 3.19596 0 0 0 -1.88449 0 -0.584668 -3.37623 0 -21.8078 1.86128 0 21.43 0 0 0 3.41593 0 1.0607 
0 0 -0.170092 1.80917 4.07191 -40.3978 0 0 0 0 0 0 -1.67715 0 -12.6741 -0.695728 0 3.19718 0 0 0 -1.88449 0 -0.584668 -3.37623 0 -21.8055 1.86128 0 21.4316 0 0 0 3.41593 0 1.0607 
0 0 -0.170092 1.80917 4.07191 -40.3978 0 0 0 0 0 0 -1.67715 0 -12.6741 -0.695728 0 3.19718 0 0 0 -1.88449 0 -0.584668 -3.37623 0 -21.8055 1.86128 0 21.4316 0 0 0 3.41593 0 1.0607 
0 0 -0.170092 1.80917 4.07191 -40.3978 0 0 0 0 0 0 -1.67715 0 -12.6741 -0.695728 0 3.19718 0 0 0 -1.88449 0 -0.584668 -3.37623 0 -21.8055 1.86128 0 21.4316 0 0 0 3.41593 0 1.0607 
0 0 -0.209495 6.76105 4.37313 42.0345 0 0 0 0 0 0 -0.768453 0 3.61039 -1.15619 0 -7.15891 0 0 0 -1.66865 0 -0.513931 -3.21698 0 -15.9451 1.63625 0 12.3478 0 0 0 3.24941 0 1.01067 
0 0 -0.209085 6.76105 4.37313 42.0331 0 0 0 0 0 0 -0.768453 0 3.60669 -1.15619 0 -7.1658 0 0 0 -1.66865 0 -0.513931 -3.21698 0 -15.9576 1.63625 0 12.3389 0 0 0 3.24941 0 1.01067 
0 0 -0.209085 6.76105 4.37313 42.0331 0 0 0 0 0 0 -0.768453 0 3.60669 -1.15619 0 -7.1658 0 0 0 -1.66865 0 -0.513931 -3.21698 0 -15.9576 1.63625 0 12.3389 0 0 0 3.24941 0 1.01067 
0 0 -0.163434 1.72415 3.978 -40.3657 0 0 0 0 0 0 -1.63599 0 -12.4944 -0.636759 0 3.39562 0 0 0 -1.93 0 -0.599647 -3.34128 0 -21.8038 1.90894 0 21.5207 0 0 0 3.37928 0 1.04972 
0 0 -0.163479 1.72415 3.978 -40.3655 0 0 0 0 0 0 -1.63599 0 -12.4939 -0.636759 0 3.39655 0 0 0 -1.93 0 -0.599647 -3.34128 0 -21.8021 1.90894 0 21.5219 0 0 0 3.37928 0 1.04972 
0 0 -0.163479 1.72415 3.978 -40.3655 0 0 0 0 0 0 -1.63599 0 -12.4939 -0.636759 0 3.39655 0 0 0 -1.93 0 -0.599647 -3.34128 0 -21.8021 1.90894 0 21.5219 0 0 0 3.37928 0 1.04972 
0 0 -0.201913 6.67525 4.27994 42.0122 0 0 0 0 0 0 -0.735533 0 3.65086 -1.09854 0 -6.98649 0 0 0 -1.71824 0 -0.530274 -3.18143 0 -15.8977 1.68823 0 12.6017 0 0 0 3.21209 0 0.999506 
0 0 -0.201528 6.67525 4.27994 42.0109 0 0 0 0 0 0 -0.735533 0 3.64738 -1.09854 0 -6.99295 0 0 0 -1.71824 0 -0.530274 -3.18143 0 -15.9094 1.68823 0 12.5934 0 0 0 3.21209 0 0.999506 
0 0 -0.201528 6.67525 4.27994 42.0109 0 0 0 0 0 0 -0.735533 0 3.64738 -1.09854 0 -6.99295 0 0 0 -1.71824 0 -0.530274 -3.18143 0 -15.9094 1.68823 0 12.5934 0 0 0 3.21209 0 0.999506 
0 0 -0.201528 6.67525 4.27994 42.0109 0 0 0 0 0 0 -0.735533 0 3.64738 -1.09854 0 -6.99295 0 0 0 -1.71824 0 -0.530274 -3.18143 0 -15.9094 1.68823 0 12.5934 0 0 0 3.21209 0 0.999506 
0 0 -0.161416 1.63849 3.88309 -40.2865 0 0 0 0 0 0 -1.59508 0 -12.2751 -0.577425 0 3.67287 0 0 0 -1.97641 0 -0.61495 -3.3057 0 -21.6394 1.95762 0 21.7295 0 0 0 3.3419 0 1.03854 
0 0 -0.161438 1.63849 3.88309 -40.2864 0 0 0 0 0 0 -1.59508 0 -12.2748 -0.577425 0 3.67342 0 0 0 -1.97641 0 -0.61495 -3.3057 0 -21.6384 1.95762 0 21.7303 0 0 0 3.3419 0 1.03854 
0 0 -0.161438 1.63849 3.88309 -40.2864 0 0 0 0 0 0 -1.59508 0 -12.2748 -0.577425 0 3.67342 0 0 0 -1.97641 0 -0.61495 -3.3057 0 -21.6384 1.95762 0 21.7303 0 0 0 3.3419 0 1.03854 
0 0 -0.216557 6.61822 4.1862 42.4012 0 0 0 0 0 0 -0.702819 0 3.88774 -1.04031 0 -6.44254 0 0 0 -1.76865 0 -0.54691 -3.14592 0 -15.1947 1.74115 0 13.3327 0 0 0 3.17474 0 0.988352 
0 0 -0.21617 6.61822 4.1862 42.3998 0 0 0 0 0 0 -0.702819 0 3.88425 -1.04031 0 -6.44901 0 0 0 -1.76865 0 -0.54691 -3.14592 0 -15.2065 1.74115 0 13.3243 0 0 0 3.17474 0 0.988352 
0 0 -0.21617 6.61822 4.1862 42.3998 0 0 0 0 0 0 -0.702819 0 3.88425 -1.04031 0 -6.44901 0 0 0 -1.76865 0 -0.54691 -3.14592 0 -15.2065 1.74115 0 13.3243 0 0 0 3.17474 0 0.988352 
0 0 -0.201697 1.60837 3.77902 -39.5222 0 0 0 0 0 0 -1.54378 0 -11.5641 -0.501743 0 4.85643 0 0 0 -2.01751 0 -0.628529 -3.27732 0 -20.396 2.00082 0 22.6957 0 0 0 3.312 0 1.02963 
0 0 -0.201567 1.60837 3.77902 -39.5226 0 0 0 0 0 0 -1.54378 0 -11.5651 -0.501743 0 4.8545 0 0 0 -2.01751 0 -0.628529 -3.27732 0 -20.3995 2.00082 0 22.6933 0 0 0 3.312 0 1.02963 
0 0 -0.201567 1.60837 3.77902 -39.5226 0 0 0 0 0 0 -1.54378 0 -11.5651 -0.501743 0 4.8545 0 0 0 -2.01751 0 -0.628529 -3.27732 0 -20.3995 2.00082 0 22.6933 0 0 0 3.312 0 1.02963 
0 0 -0.201567 1.60837 3.77902 -39.5226 0 0 0 0 0 0 -1.54378 0 -11.5651 -0.501743 0 4.8545 0 0 0 -2.01751 0 -0.628529 -3.27732 0 -20.3995 2.00082 0 22.6933 0 0 0 3.312 0 1.02963 
0 0 -0.283151 6.65418 4.07557 43.8351 0 0 0 0 0 0 -0.661778 0 4.60675 -0.948287 0 -4.72715 0 0 0 -1.81364 0 -0.561785 -3.12732 0 -13.2437 1.78847 0 15.1143 0 0 0 3.15502 0 0.982507 
0 0 -0.282592 6.65418 4.07557 43.8332 0 0 0 0 0 0 -0.661778 0 4.60179 -0.948287 0 -4.7364 0 0 0 -1.81364 0 -0.561785 -3.12732 0 -13.2605 1.78847 0 15.1024 0 0 0 3.15502 0 0.982507 
0 0 -0.282592 6.65418 4.07557 43.8332 0 0 0 0 0 0 -0.661778 0 4.60179 -0.948287 0 -4.7364 0 0 0 -1.81364 0 -0.561785 -3.12732 0 -13.2605 1.78847 0 15.1024 0 0 0 3.15502 0 0.982507 
0 0 -0.291103 1.68536 3.64418 -37.6504 0 0 0 0 0 0 -1.45237 0 -9.99829 -0.366599 0 7.38911 0 0 0 -2.03928 0 -0.635781 -3.27762 0 -18.0805 2.02389 0 24.3721 0 0 0 3.31207 0 1.02972 
0 0 -0.290553 1.68536 3.64418 -37.6522 0 0 0 0 0 0 -1.45237 0 -10.0029 -0.366599 0 7.38036 0 0 0 -2.03928 0 -0.635781 -3.27762 0 -18.0964 2.02389 0 24.361 0 0 0 3.31207 0 1.02972 
0 0 -0.290553 1.68536 3.64418 -37.6522 0 0 0 0 0 0 -1.45237 0 -10.0029 -0.366599 0 7.38036 0 0 0 -2.03928 0 -0.635781 -3.27762 0 -18.0964 2.02389 0 24.361 0 0 0 3.31207 0 1.02972 
0 0 -0.39048 6.78122 3.92365 46.1288 0 0 0 0 0 0 -0.588633 0 5.79999 -0.779277 0 -1.77373 0 0 0 -1.84326 0 -0.571621 -3.1444 0 -10.4475 1.81975 0 17.7237 0 0 0 3.17261 0 0.987874 
0 0 -0.389582 6.78122 3.92365 46.1258 0 0 0 0 0 0 -0.588633 0 5.79213 -0.779277 0 -1.78842 0 0 0 -1.84326 0 -0.571621 -3.1444 0 -10.4742 1.81975 0 17.7048 0 0 0 3.17261 0 0.987874 
0 0 -0.389582 6.78122 3.92365 46.1258 0 0 0 0 0 0 -0.588633 0 5.79213 -0.779277 0 -1.78842 0 0 0 -1.84326 0 -0.571621 -3.1444 0 -10.4742 1.81975 0 17.7048 0 0 0 3.17261 0 0.987874 
0 0 -0.389582 6.78122 3.92365 46.1258 0 0 0 0 0 0 -0.588633 0 5.79213 -0.779277 0 -1.78842 0 0 0 -1.84326 0 -0.571621 -3.1444 0 -10.4742 1.81975 0 17.7048 0 0 0 3.17261 0 0.987874 
0 0 -0.413587 1.85314 3.46504 -34.8059 0 0 0 0 0 0 -1.30633 0 -7.67651 -0.151477 0 10.9812 0 0 0 -2.03882 0 -0.635745 -3.3136 0 -14.9431 2.02377 0 26.5721 0 0 0 3.34946 0 1.04103 
0 0 -0.412415 1.85314 3.46504 -34.8098 0 0 0 0 0 0 -1.30633 0 -7.68649 -0.151477 0 10.9625 0 0 0 -2.03882 0 -0.635745 -3.3136 0 -14.9772 2.02377 0 26.548 0 0 0 3.34946 0 1.04103 
0 0 -0.412415 1.85314 3.46504 -34.8098 0 0 0 0 0 0 -1.30633 0 -7.68649 -0.151477 0 10.9625 0 0 0 -2.03882 0 -0.635745 -3.3136 0 -14.9772 2.02377 0 26.548 0 0 0 3.34946 0 1.04103 
0 0 -0.531903 6.9727 3.72164 49.1027 0 0 0 0 0 0 -0.471762 0 7.48247 -0.525994 0 2.29165 0 0 0 -1.85791 0 -0.576543 -3.19567 0 -6.75611 1.83541 0 21.1501 0 0 0 3.22598 0 1.00398 
0 0 -0.530529 6.9727 3.72164 49.0982 0 0 0 0 0 0 -0.471762 0 7.47055 -0.525994 0 2.26932 0 0 0 -1.85791 0 -0.576543 -3.19567 0 -6.79667 1.83541 0 21.1214 0 0 0 3.22598 0 1.00398 
0 0 -0.530529 6.9727 3.72164 49.0982 0 0 0 0 0 0 -0.471762 0 7.47055 -0.525994 0 2.26932 0 0 0 -1.85791 0 -0.576543 -3.19567 0 -6.79667 1.83541 0 21.1214 0 0 0 3.22598 0 1.00398 
0 0 -0.556675 2.07024 3.23297 -31.3016 0 0 0 0 0 0 -1.0999 0 -4.67112 0.146577 0 15.477 0 0 0 -2.02019 0 -0.629747 -3.37958 0 -11.1149 2.00468 0 29.2211 0 0 0 3.41827 0 1.06175 
0 0 -0.554671 2.07024 3.23297 -31.3081 0 0 0 0 0 0 -1.0999 0 -4.68819 0.146577 0 15.4449 0 0 0 -2.02019 0 -0.629747 -3.37958 0 -11.1732 2.00468 0 29.18 0 0 0 3.41827 0 1.06175 
0 0 -0.554671 2.07024 3.23297 -31.3081 0 0 0 0 0 0 -1.0999 0 -4.68819 0.146577 0 15.4449 0 0 0 -2.02019 0 -0.629747 -3.37958 0 -11.1732 2.00468 0 29.18 0 0 0 3.41827 0 1.06175 
0 0 -0.554671 2.07024 3.23297 -31.3081 0 0 0 0 0 0 -1.0999 0 -4.68819 0.146577 0 15.4449 0 0 0 -2.02019 0 -0.629747 -3.37958 0 -11.1732 2.00468 0 29.18 0 0 0 3.41827 0 1.06175 
0 0 -0.689538 7.18576 3.46302 52.4757 0 0 0 0 0 0 -0.306575 0 9.57382 -0.192244 0 7.18805 0 0 0 -1.86353 0 -0.578486 -3.2708 0 -2.38175 1.84158 0 25.2222 0 0 0 3.30435 0 1.02758 
0 0 -0.687566 7.18576 3.46302 52.4692 0 0 0 0 0 0 -0.306575 0 9.55685 -0.192244 0 7.15623 0 0 0 -1.86353 0 -0.578486 -3.2708 0 -2.43957 1.84158 0 25.1814 0 0 0 3.30435 0 1.02758 
0 0 -0.687566 7.18576 3.46302 52.4692 0 0 0 0 0 0 -0.306575 0 9.55685 -0.192244 0 7.15623 0 0 0 -1.86353 0 -0.578486 -3.2708 0 -2.43957 1.84158 0 25.1814 0 0 0 3.30435 0 1.02758 
0 0 -0.71466 2.3996 3.00045 -26.5306 0 0 0 0 0 0 -0.843491 0 -1.11368 0.418531 0 19.451 0 0 0 -1.9951 0 -0.62161 -3.41901 0 -5.35374 1.97879 0 32.5257 0 0 0 3.45933 0 1.07413 
0 0 -0.71179 2.3996 3.00045 -26.5399 0 0 0 0 0 0 -0.843491 0 -1.13804 0.418531 0 19.4052 0 0 0 -1.9951 0 -0.62161 -3.41901 0 -5.43694 1.97879 0 32.4671 0 0 0 3.45933 0 1.07413 
0 0 -0.71179 2.3996 3.00045 -26.5399 0 0 0 0 0 0 -0.843491 0 -1.13804 0.418531 0 19.4052 0 0 0 -1.9951 0 -0.62161 -3.41901 0 -5.43694 1.97879 0 32.4671 0 0 0 3.45933 0 1.07413 
0 0 -0.851002 7.42826 3.1773 55.8054 0 0 0 0 0 0 -0.101393 0 11.9974 0.148835 0 12.6846 0 0 0 -1.87337 0 -0.581783 -3.32616 0 2.57573 1.85207 0 29.9291 0 0 0 3.36208 0 1.04497 
0 0 -0.848149 7.42826 3.1773 55.7961 0 0 0 0 0 0 -0.101393 0 11.9731 0.148835 0 12.6389 0 0 0 -1.87337 0 -0.581783 -3.32616 0 2.49268 1.85207 0 29.8705 0 0 0 3.36208 0 1.04497 
0 0 -0.848149 7.42826 3.1773 55.7961 0 0 0 0 0 0 -0.101393 0 11.9731 0.148835 0 12.6389 0 0 0 -1.87337 0 -0.581783 -3.32616 0 2.49268 1.85207 0 29.8705 0 0 0 3.36208 0 1.04497 
0 0 -0.848149 7.42826 3.1773 55.7961 0 0 0 0 0 0 -0.101393 0 11.9731 0.148835 0 12.6389 0 0 0 -1.87337 0 -0.581783 -3.32616 0 2.49268 1.85207 0 29.8705 0 0 0 3.36208 0 1.04497 
0 0 -0.874074 2.74227 2.73631 -21.5145 0 0 0 0 0 0 -0.53577 0 2.9527 0.691411 0 23.6305 0 0 0 -1.97662 0 -0.615612 -3.42774 0 1.30144 1.9597 0 36.3013 0 0 0 3.46832 0 1.07687 
0 0 -0.870214 2.74227 2.73631 -21.527 0 0 0 0 0 0 -0.53577 0 2.92016 0.691411 0 23.5693 0 0 0 -1.97662 0 -0.615612 -3.42774 0 1.19026 1.9597 0 36.2229 0 0 0 3.46832 0 1.07687 
0 0 -0.870214 2.74227 2.73631 -21.527 0 0 0 0 0 0 -0.53577 0 2.92016 0.691411 0 23.5693 0 0 0 -1.97662 0 -0.615612 -3.42774 0 1.19026 1.9597 0 36.2229 0 0 0 3.46832 0 1.07687 
0 0 -1.01436 7.65717 2.83889 59.2689 0 0 0 0 0 0 0.144842 0 14.7533 0.514864 0 18.7886 0 0 0 -1.90275 0 -0.59145 -3.35378 0 8.21845 1.88282 0 35.4035 0 0 0 3.39084 0 1.05364 
0 0 -1.01049 7.65717 2.83889 59.2564 0 0 0 0 0 0 0.144842 0 14.7206 0.514864 0 18.7272 0 0 0 -1.90275 0 -0.59145 -3.35378 0 8.10681 1.88282 0 35.3247 0 0 0 3.39084 0 1.05364 
0 0 -1.01049 7.65717 2.83889 59.2564 0 0 0 0 0 0 0.144842 0 14.7206 0.514864 0 18.7272 0 0 0 -1.90275 0 -0.59145 -3.35378 0 8.10681 1.88282 0 35.3247 0 0 0 3.39084 0 1.05364 
0 0 -1.03207 3.07731 2.41506 -16.121 0 0 0 0 0 0 -0.171688 0 7.53023 0.984255 0 28.0448 0 0 0 -1.97932 0 -0.616521 -3.39933 0 8.71611 1.96258 0 40.5262 0 0 0 3.4385 0 1.06795 
0 0 -1.02707 3.07731 2.41506 -16.137 0 0 0 0 0 0 -0.171688 0 7.48851 0.984255 0 27.9663 0 0 0 -1.97932 0 -0.616521 -3.39933 0 8.57354 1.96258 0 40.4256 0 0 0 3.4385 0 1.06795 
0 0 -1.02707 3.07731 2.41506 -16.137 0 0 0 0 0 0 -0.171688 0 7.48851 0.984255 0 27.9663 0 0 0 -1.97932 0 -0.616521 -3.39933 0 8.57354 1.96258 0 40.4256 0 0 0 3.4385 0 1.06795 
0 0 -1.02707 3.07731 2.41506 -16.137 0 0 0 0 0 0 -0.171688 0 7.48851 0.984255 0 27.9663 0 0 0 -1.97932 0 -0.616521 -3.39933 0 8.57354 1.96258 0 40.4256 0 0 0 3.4385 0 1.06795 
0 0 -1.17582 7.76041 2.42849 61.7837 0 0 0 0 0 0 0.436226 0 17.7651 0.916644 0 25.3441 0 0 0 -1.96593 0 -0.612153 -3.34515 0 14.371 1.94869 0 41.5357 0 0 0 3.38173 0 1.05093 
0 0 -1.17079 7.76041 2.42849 61.7677 0 0 0 0 0 0 0.436226 0 17.7232 0.916644 0 25.2655 0 0 0 -1.96593 0 -0.612153 -3.34515 0 14.228 1.94869 0 41.4348 0 0 0 3.38173 0 1.05093 
0 0 -1.17079 7.76041 2.42849 61.7677 0 0 0 0 0 0 0.436226 0 17.7232 0.916644 0 25.2655 0 0 0 -1.96593 0 -0.612153 -3.34515 0 14.228 1.94869 0 41.4348 0 0 0 3.38173 0 1.05093 
0 0 -1.19867 3.32276 2.01863 -10.5849 0 0 0 0 0 0 0.248017 0 12.5737 1.30571 0 32.7389 0 0 0 -2.01819 0 -0.62924 -3.32435 0 17.0012 2.00305 0 45.3143 0 0 0 3.35999 0 1.04439 
0 0 -1.1924 3.32276 2.01863 -10.6046 0 0 0 0 0 0 0.248017 0 12.5221 1.30571 0 32.6419 0 0 0 -2.01819 0 -0.62924 -3.32435 0 16.825 2.00305 0 45.19 0 0 0 3.35999 0 1.04439 
0 0 -1.1924 3.32276 2.01863 -10.6046 0 0 0 0 0 0 0.248017 0 12.5221 1.30571 0 32.6419 0 0 0 -2.01819 0 -0.62924 -3.32435 0 16.825 2.00305 0 45.19 0 0 0 3.35999 0 1.04439 
0 0 -1.31108 3.27737 2.16438 11.3092 0 0 0 0 0 0 0.772047 0 20.9605 1.07467 0 28.3257 0 0 0 -1.99877 0 -0.62288 -3.23906 0 22.0258 1.98281 0 46.4648 0 0 0 3.27072 0 1.0176 
0 0 -1.30437 3.27737 2.16438 11.2885 0 0 0 0 0 0 0.772047 0 20.906 1.07467 0 28.2231 0 0 0 -1.99877 0 -0.62288 -3.23906 0 21.8391 1.98281 0 46.3331 0 0 0 3.27072 0 1.0176 
0 0 -1.30437 3.27737 2.16438 11.2885 0 0 0 0 0 0 0.772047 0 20.906 1.07467 0 28.2231 0 0 0 -1.99877 0 -0.62288 -3.23906 0 21.8391 1.98281 0 46.3331 0 0 0 3.27072 0 1.0176 
0 0 -1.30437 3.27737 2.16438 11.2885 0 0 0 0 0 0 0.772047 0 20.906 1.07467 0 28.2231 0 0 0 -1.99877 0 -0.62288 -3.23906 0 21.8391 1.98281 0 46.3331 0 0 0 3.27072 0 1.0176 
0 0 -1.38005 1.57007 1.75935 -4.75242 0 0 0 0 0 0 0.762668 0 18.4112 1.43194 0 36.7225 0 0 0 -1.97182 0 -0.614076 -3.1913 0 25.0056 1.9548 0 48.6103 0 0 0 3.22066 0 1.00259 
0 0 -1.37242 1.57007 1.75935 -4.7756 0 0 0 0 0 0 0.762668 0 18.3501 1.43194 0 36.6074 0 0 0 -1.97182 0 -0.614076 -3.1913 0 24.7963 1.9548 0 48.4627 0 0 0 3.22066 0 1.00259 
0 0 -1.37242 1.57007 1.75935 -4.7756 0 0 0 0 0 0 0.762668 0 18.3501 1.43194 0 36.6074 0 0 0 -1.97182 0 -0.614076 -3.1913 0 24.7963 1.9548 0 48.4627 0 0 0 3.22066 0 1.00259 
0 0 -1.44396 2.79102 2.049 16.2778 0 0 0 0 0 0 1.18384 0 24.5177 1.0566 0 30.6287 0 0 0 -1.93719 0 -0.602761 -3.1056 0 29.6173 1.9188 0 50.7865 0 0 0 3.13091 0 0.975671 
0 0 -1.4357 2.79102 2.049 16.2532 0 0 0 0 0 0 1.18384 0 24.4525 1.0566 0 30.5059 0 0 0 -1.93719 0 -0.602761 -3.1056 0 29.3937 1.9188 0 50.6289 0 0 0 3.13091 0 0.975671 
0 0 -1.4357 2.79102 2.049 16.2532 0 0 0 0 0 0 1.18384 0 24.4525 1.0566 0 30.5059 0 0 0 -1.93719 0 -0.602761 -3.1056 0 29.3937 1.9188 0 50.6289 0 0 0 3.13091 0 0.975671 
0 0 -1.43027 1.05834 1.67675 -6.8863 0 0 0 0 0 0 1.15913 0 22.607 1.41742 0 40.1437 0 0 0 -1.86729 0 -0.579892 -3.09417 0 31.5919 1.84604 0 52.3427 0 0 0 3.11889 0 0.972079 
0 0 -1.42109 1.05834 1.67675 -6.91305 0 0 0 0 0 0 1.15913 0 22.5361 1.41742 0 40.0099 0 0 0 -1.86729 0 -0.579892 -3.09417 0 31.3483 1.84604 0 52.171 0 0 0 3.11889 0 0.972079 
0 0 -1.42109 1.05834 1.67675 -6.91305 0 0 0 0 0 0 1.15913 0 22.5361 1.41742 0 40.0099 0 0 0 -1.86729 0 -0.579892 -3.09417 0 31.3483 1.84604 0 52.171 0 0 0 3.11889 0 0.972079 
0 0 -1.42109 1.05834 1.67675 -6.91305 0 0 0 0 0 0 1.15913 0 22.5361 1.41742 0 40.0099 0 0 0 -1.86729 0 -0.579892 -3.09417 0 31.3483 1.84604 0 52.171 0 0 0 3.11889 0 0.972079 
0 0 -1.43288 3.10557 1.81167 24.592 0 0 0 0 0 0 1.50119 0 28.1303 1.30822 0 37.7327 0 0 0 -1.88805 0 -0.586681 -3.11989 0 34.3558 1.86763 0 56.811 0 0 0 3.1458 0 0.980158 
0 0 -1.42339 3.10557 1.81167 24.5651 0 0 0 0 0 0 1.50119 0 28.0585 1.30822 0 37.5971 0 0 0 -1.88805 0 -0.586681 -3.11989 0 34.1088 1.86763 0 56.6369 0 0 0 3.1458 0 0.980158 
0 0 -1.42339 3.10557 1.81167 24.5651 0 0 0 0 0 0 1.50119 0 28.0585 1.30822 0 37.5971 0 0 0 -1.88805 0 -0.586681 -3.11989 0 34.1088 1.86763 0 56.6369 0 0 0 3.1458 0 0.980158 
0 0 -1.43331 2.07199 1.4333 5.27711 0 0 0 0 0 0 1.65696 0 28.9715 1.61851 0 44.6528 0 0 0 -1.78195 0 -0.551939 -3.0518 0 40.0158 1.7571 0 56.9855 0 0 0 3.0745 0 0.958764 
0 0 -1.42282 2.07199 1.4333 5.2482 0 0 0 0 0 0 1.65696 0 28.8941 1.61851 0 44.5066 0 0 0 -1.78195 0 -0.551939 -3.0518 0 39.7491 1.7571 0 56.7976 0 0 0 3.0745 0 0.958764 
0 0 -1.42282 2.07199 1.4333 5.2482 0 0 0 0 0 0 1.65696 0 28.8941 1.61851 0 44.5066 0 0 0 -1.78195 0 -0.551939 -3.0518 0 39.7491 1.7571 0 56.7976 0 0 0 3.0745 0 0.958764 
-1.23831 -3.79449 19.9747 0 0 0 0 0 0 -3.70786 -2.22252 -10.3776 1.89966 0 30.9119 0 0 0 0 0 0 -1.91428 0 -0.595231 0 0 0 1.89483 0 64.6119 -1.86665 -1.39149e-15 -0.69739 3.17352 0 1.24058 
-1.23831 -3.79449 19.9792 0 0 0 0 0 0 -3.70786 -12.9597 25.6481 1.89966 0 30.8799 0 0 0 0 0 0 -1.91428 0 -0.595231 0 0 0 1.89483 0 64.5339 -1.86665 19.1599 -2.79189 3.17352 0.0897585 1.21268 
-1.23831 -3.79449 19.9792 0 0 0 0 0 0 -3.70786 -20.3418 50.4148 1.89966 0 30.8799 0 0 0 0 0 0 -1.91428 0 -0.595231 0 0 0 1.89483 0 64.5339 -1.86665 32.0507 -4.20108 3.17352 0.179517 1.18478 
-1.23831 -3.79449 19.9792 0 0 0 0 0 0 -3.70786 -26.6635 71.6234 1.89966 0 30.8799 0 0 0 0 0 0 -1.91428 0 -0.595231 0 0 0 1.89483 0 64.5339 -1.86665 42.8453 -5.38112 3.17352 0.269276 1.15688 
2.38047 -4.17279 54.7444 0 0 0 0 0 0 -10.4413 -36.1571 48.876 2.09356 0 34.4049 0 0 0 0 0 0 -2.09025 0 -0.653191 0 0 0 2.07922 0 73.2693 2.37129 52.1832 8.93673 1.45276 0.359036 0.611673 
2.38047 -4.17279 54.7507 0 0 0 0 0 0 -10.4413 -41.0566 66.1149 2.09356 0 34.3616 0 0 0 0 0 0 -2.09025 0 -0.653191 0 0 0 2.07922 0 73.1636 2.37129 60.1045 8.06995 1.45276 0.439156 0.585957 
2.38047 -4.17279 54.7507 0 0 0 0 0 0 -10.4413 -45.2593 80.8996 2.09356 0 34.3616 0 0 0 0 0 0 -2.09025 0 -0.653191 0 0 0 2.07922 0 73.1636 2.37129 66.6146 7.35759 1.45276 0.526989 0.557765 
3.75708 -4.15301 52.8416 0 0 0 0 0 0 -15.7921 -50.0109 83.7833 2.17223 0 36.8113 0 0 0 0 0 0 -1.99467 0 -0.622251 0 0 0 1.98077 0 73.7356 10.0302 71.5166 18.5637 -2.3873 0.614823 -0.634173 
3.75708 -4.15301 52.8515 0 0 0 0 0 0 -15.7921 -52.261 91.6661 2.17223 0 36.7469 0 0 0 0 0 0 -1.99467 0 -0.622251 0 0 0 1.98077 0 73.5776 10.0302 74.6142 18.2257 -2.3873 0.702666 -0.664126 
3.75708 -4.15301 52.8515 0 0 0 0 0 0 -15.7921 -53.4433 95.805 2.17223 0 36.7469 0 0 0 0 0 0 -1.99467 0 -0.622251 0 0 0 1.98077 0 73.5776 10.0302 75.5497 18.1236 -2.3873 0.790505 -0.694076 
5.99473 -4.26955 72.7356 0 0 0 0 0 0 -23.7375 -56.4866 58.8491 2.31074 0 43.3953 0 0 0 0 0 0 -1.97356 0 -0.615344 0 0 0 1.9588 0 83.879 20.5652 75.4925 27.9406 -7.50248 0.878345 -2.28493 
5.99473 -4.26955 72.745 0 0 0 0 0 0 -23.7375 -57.1941 61.3129 2.31074 0 43.3395 0 0 0 0 0 0 -1.97356 0 -0.615344 0 0 0 1.9588 0 83.7411 20.5652 75.5507 27.9343 -7.50248 0.970725 -2.31866 
5.99473 -4.26955 72.745 0 0 0 0 0 0 -23.7375 -57.9136 63.8183 2.31074 0 43.3395 0 0 0 0 0 0 -1.97356 0 -0.615344 0 0 0 1.9588 0 83.7411 20.5652 75.6689 27.9214 -7.50248 1.05898 -2.35088 
5.99473 -4.26955 72.745 0 0 0 0 0 0 -23.7375 -58.6393 66.3457 2.31074 0 43.3395 0 0 0 0 0 0 -1.97356 0 -0.615344 0 0 0 1.9588 0 83.7411 20.5652 75.7948 27.9078 -7.50248 1.14724 -2.38311 
6.69372 -4.22237 67.6993 0 0 0 0 0 0 -29.5248 -60.1684 61.2437 2.42449 0 46.6838 0 0 0 0 0 0 -1.81646 0 -0.564776 0 0 0 1.79786 0 87.0532 30.8146 75.8755 26.9233 -12.3036 1.2355 -3.89212 
6.69372 -4.22237 67.7107 0 0 0 0 0 0 -29.5248 -61.2359 64.8195 2.42449 0 46.62 0 0 0 0 0 0 -1.81646 0 -0.564776 0 0 0 1.79786 0 86.8949 30.8146 75.7123 26.9409 -12.3036 1.35729 -3.93902 
6.69372 -4.22237 67.7107 0 0 0 0 0 0 -29.5248 -61.776 66.6329 2.42449 0 46.62 0 0 0 0 0 0 -1.81646 0 -0.564776 0 0 0 1.79786 0 86.8949 30.8146 75.5366 26.96 -12.3036 1.4478 -3.97387 
9.46508 -4.4299 96.1879 0 0 0 0 0 0 -38.4767 -65.3108 29.6212 2.51708 0 49.1414 0 0 0 0 0 0 -1.92515 0 -0.600917 0 0 0 1.91279 0 98.0999 41.1438 75.1575 27.2786 -16.5053 1.53831 -5.31739 
9.46508 -4.4299 96.1987 0 0 0 0 0 0 -38.4767 -66.375 33.1606 2.51708 0 49.0874 0 0 0 0 0 0 -1.92515 0 -0.600917 0 0 0 1.91279 0 97.9643 41.1438 74.1317 27.389 -16.5053 1.72216 -5.39093 
9.46508 -4.4299 96.1987 0 0 0 0 0 0 -38.4767 -66.4038 33.2753 2.51708 0 49.0874 0 0 0 0 0 0 -1.92515 0 -0.600917 0 0 0 1.91279 0 97.9643 41.1438 73.1638 27.4932 -16.5053 1.81787 -5.42921 
11.0218 -4.65508 96.9498 0 0 0 0 0 0 -45.07 -68.1337 35.7693 2.59244 0 49.6794 0 0 0 0 0 0 -2.06773 0 -0.648022 0 0 0 2.06262 0 103.862 49.1173 71.8155 19.633 -19.2462 1.91358 -6.35645 
11.0218 -4.65508 96.9633 0 0 0 0 0 0 -45.07 -68.7626 37.8697 2.59244 0 49.6153 0 0 0 0 0 0 -2.06773 0 -0.648022 0 0 0 2.06262 0 103.701 49.1173 69.2369 19.9091 -19.2462 2.2011 -6.47365 
11.0218 -4.65508 96.9633 0 0 0 0 0 0 -45.07 -67.8766 35.0614 2.59244 0 49.6153 0 0 0 0 0 0 -2.06773 0 -0.648022 0 0 0 2.06262 0 103.701 49.1173 66.8728 20.1622 -19.2462 2.30597 -6.51639 
11.0218 -4.65508 96.9633 0 0 0 0 0 0 -45.07 -66.5874 30.961 2.59244 0 49.6153 0 0 0 0 0 0 -2.06773 0 -0.648022 0 0 0 2.06262 0 103.701 49.1173 63.8536 20.4855 -19.2462 2.41085 -6.55914 
12.7715 -5.17595 112.001 0 0 0 0 0 0 -51.8222 -67.2191 15.5758 2.64788 0 50.5843 0 0 0 0 0 0 -2.51726 0 -0.794285 0 0 0 2.5281 0 116.655 55.2138 60.0283 14.524 -20.7426 2.51573 -7.13892 
12.7715 -5.17595 112.014 0 0 0 0 0 0 -51.8222 -65.871 11.4176 2.64788 0 50.5244 0 0 0 0 0 0 -2.51726 0 -0.794285 0 0 0 2.5281 0 116.502 55.2138 53.8593 15.1796 -20.7426 2.92588 -7.30712 
12.7715 -5.17595 112.014 0 0 0 0 0 0 -51.8222 -62.5724 0.960563 2.64788 0 50.5244 0 0 0 0 0 0 -2.51726 0 -0.794285 0 0 0 2.5281 0 116.502 55.2138 47.5088 15.8545 -20.7426 3.04302 -7.35516 
11.5755 -5.71544 89.0926 0 0 0 0 0 0 -53.5544 -57.5601 19.3272 2.69117 0 50.0658 0 0 0 0 0 0 -2.99602 0 -0.950181 0 0 0 3.02434 0 123.345 58.0756 38.9644 5.72346 -20.8588 3.16018 -7.52897 
11.5755 -5.71544 89.1074 0 0 0 0 0 0 -53.5544 -50.725 -1.51349 2.69117 0 49.9971 0 0 0 0 0 0 -2.99602 0 -0.950181 0 0 0 3.02434 0 123.171 58.0756 22.8212 7.4241 -20.8588 3.66249 -7.73363 
11.5755 -5.71544 89.1074 0 0 0 0 0 0 -53.5544 -38.4983 -39.0939 2.69117 0 49.9971 0 0 0 0 0 0 -2.99602 0 -0.950181 0 0 0 3.02434 0 123.171 58.0756 -3.18055e-15 9.82824 -20.8588 3.79349 -7.787 
6.33401 -6.2002 33.7814 0 0 0 0 0 0 -48.6127 -33.7348 16.5365 2.72283 0 48.6812 0 0 0 0 0 0 -3.4315 0 -1.09247 0 0 0 3.47743 0 127.3 55.9171 3.18055e-15 -5.97774 -18.4998 3.9245 -7.12178 
6.33401 -6.2002 33.7959 0 0 0 0 0 0 -48.6127 -34.9916 20.3974 2.72283 0 48.6114 0 0 0 0 0 0 -3.4315 0 -1.09247 0 0 0 3.47743 0 127.124 55.9171 1.27222e-14 -5.97774 -18.4998 4.35303 -7.29238 
6.33401 -6.2002 33.7959 0 0 0 0 0 0 -48.6127 -34.6466 19.4845 2.72283 0 48.6114 0 0 0 0 0 0 -3.4315 0 -1.09247 0 0 0 3.47743 0 127.124 55.9171 1.27222e-14 -5.97774 -18.4998 4.49373 -7.3484 
6.33401 -6.2002 33.7959 0 0 0 0 0 0 -48.6127 -34.2611 18.4551 2.72283 0 48.6114 0 0 0 0 0 0 -3.4315 0 -1.09247 0 0 0 3.47743 0 127.124 55.9171 0 -5.97774 -18.4998 4.63446 -7.40443 
3.23859 -7.29003 40.4905 0 0 0 0 0 0 -47.3061 -31.7918 -8.8185 2.74766 0 49.8779 0 0 0 0 0 0 -4.45582 0 -1.42686 0 0 0 4.54246 0 147.662 51.6012 6.36111e-15 -12.23 -14.4333 4.77522 -6.1201 
3.23859 -7.29003 40.5011 0 0 0 0 0 0 -47.3061 -32.3083 -7.1747 2.74766 0 49.824 0 0 0 0 0 0 -4.45582 0 -1.42686 0 0 0 4.54246 0 147.527 51.6012 6.36111e-15 -12.23 -14.4333 5.00715 -6.20911 
3.23859 -7.29003 40.5011 0 0 0 0 0 0 -47.3061 -31.8382 -8.5027 2.74766 0 49.824 0 0 0 0 0 0 -4.45582 0 -1.42686 0 0 0 4.54246 0 147.527 51.6012 3.18055e-15 -12.23 -14.4333 5.15059 -6.26416 
-3.54719 -8.43477 -14.3615 0 0 0 0 0 0 -40.0092 -25.4746 35.1087 2.76978 0 54.8345 0 0 0 0 0 0 -5.53499 0 -1.77913 0 0 0 5.66505 0 162.929 45.4415 -6.36111e-15 -18.988 -10.4101 5.29407 -4.96917 
-3.54719 -8.43477 -14.4278 0 0 0 0 0 0 -40.0092 -25.5917 35.4924 2.76978 0 54.6192 0 0 0 0 0 0 -5.53499 0 -1.77913 0 0 0 5.66505 0 162.566 45.4415 3.18055e-15 -18.988 -10.4101 5.37946 -5.00046 
-3.54719 -8.43477 -14.4278 0 0 0 0 0 0 -40.0092 -25.1499 34.2228 2.76978 0 54.6192 0 0 0 0 0 0 -5.53499 0 -1.77913 0 0 0 5.66505 0 162.566 45.4415 -3.18055e-15 -18.988 -10.4101 5.52146 -5.0525 
-4.28898 -9.85499 27.1707 0 0 0 0 0 0 -39.7156 -25.4788 -22.977 2.79017 0 54.528 0 0 0 0 0 0 -6.87643 0 -2.21815 0 0 0 7.06496 0 177.271 40.4215 4.77083e-15 -15.682 -6.64406 5.6635 -3.815 
-4.28898 -9.85499 27.2633 0 0 0 0 0 0 -39.7156 -25.1177 -24.153 2.79017 0 54.5779 0 0 0 0 0 0 -6.87643 0 -2.21815 0 0 0 7.06496 0 177.225 40.4215 6.36111e-15 -15.682 -6.64406 5.41715 -3.72846 
-4.28898 -9.85499 27.2633 0 0 0 0 0 0 -39.7156 -24.75 -25.2582 2.79017 0 54.5779 0 0 0 0 0 0 -6.87643 0 -2.21815 0 0 0 7.06496 0 177.225 40.4215 0 -15.682 -6.64406 5.54969 -3.77502 
-4.28898 -9.85499 27.2633 0 0 0 0 0 0 -39.7156 -24.4244 -26.2329 2.79017 0 54.5779 0 0 0 0 0 0 -6.87643 0 -2.21815 0 0 0 7.06496 0 177.225 40.4215 4.77083e-15 -15.682 -6.64406 5.68225 -3.82159 
-10.1684 -10.974 -27.7688 0 0 0 0 0 0 -32.1635 -19.513 34.3772 2.80545 0 57.5687 0 0 0 0 0 0 -7.93384 0 -2.564 0 0 0 8.16868 0 184.03 33.3411 -3.18055e-15 -22.7408 -2.48455 5.81485 -2.45119 
-10.1684 -10.974 -27.7513 0 0 0 0 0 0 -32.1635 -18.9956 32.7184 2.80545 0 57.4619 0 0 0 0 0 0 -7.93384 0 -2.564 0 0 0 8.16868 0 183.766 33.3411 1.59028e-15 -22.7408 -2.48455 5.43462 -2.32433 
-10.1684 -10.974 -27.7513 0 0 0 0 0 0 -32.1635 -18.753 32.0172 2.80545 0 57.4619 0 0 0 0 0 0 -7.93384 0 -2.564 0 0 0 8.16868 0 183.766 33.3411 0 -22.7408 -2.48455 5.55576 -2.36475 
-10.6726 -12.4526 5.67179 0 0 0 0 0 0 -30.8262 -19.3693 -7.3483 2.81746 0 61.3083 0 0 0 0 0 0 -9.3377 0 -3.02313 0 0 0 9.63522 0 203.97 27.5437 -1.59028e-15 -19.22 1.16691 5.67693 -1.1812 
-10.6726 -12.4526 5.68753 0 0 0 0 0 0 -30.8262 -18.6755 -9.60991 2.81746 0 61.2082 0 0 0 0 0 0 -9.3377 0 -3.02313 0 0 0 9.63522 0 203.722 27.5437 -4.77083e-15 -19.22 1.16691 5.12833 -1.00662 
-10.6726 -12.4526 5.68753 0 0 0 0 0 0 -30.8262 -18.5123 -10.0995 2.81746 0 61.2082 0 0 0 0 0 0 -9.3377 0 -3.02313 0 0 0 9.63522 0 203.722 27.5437 0 -19.22 1.16691 5.23547 -1.04071 
-13.1325 -13.7657 -4.86603 0 0 0 0 0 0 -27.1709 -17.4046 12.5369 2.8273 0 63.5387 0 0 0 0 0 0 -10.5854 0 -3.43075 0 0 0 10.9385 0 212.939 21.5445 3.18055e-15 -20.5913 4.63615 5.34262 0.0590289 
-13.1325 -13.7657 -4.84725 0 0 0 0 0 0 -27.1709 -16.5849 9.88363 2.8273 0 63.419 0 0 0 0 0 0 -10.5854 0 -3.43075 0 0 0 10.9385 0 212.643 21.5445 1.59028e-15 -20.5913 4.63615 4.64172 0.271995 
-13.1325 -13.7657 -4.84725 0 0 0 0 0 0 -27.1709 -16.4956 9.61234 2.8273 0 63.419 0 0 0 0 0 0 -10.5854 0 -3.43075 0 0 0 10.9385 0 212.643 21.5445 -1.59028e-15 -20.5913 4.63615 4.73294 0.244278 
-13.1325 -13.7657 -4.84725 0 0 0 0 0 0 -27.1709 -16.439 9.44407 2.8273 0 63.419 0 0 0 0 0 0 -10.5854 0 -3.43075 0 0 0 10.9385 0 212.643 21.5445 4.77083e-15 -20.5913 4.63615 4.82417 0.216558 
-13.8873 -15.1279 11.143 0 0 0 0 0 0 -25.824 -17.251 -0.815697 2.8352 0 65.6985 0 0 0 0 0 0 -11.884 0 -3.85386 0 0 0 12.2928 0 225.466 16.9154 3.18055e-15 -16.5161 7.27031 4.91542 1.02132 
-13.8873 -15.1279 11.1618 0 0 0 0 0 0 -25.824 -16.5123 -3.1938 2.8352 0 65.5811 0 0 0 0 0 0 -11.884 0 -3.85386 0 0 0 12.2928 0 225.175 16.9154 3.18055e-15 -16.5161 7.27031 4.12858 1.25254 
-13.8873 -15.1279 11.1618 0 0 0 0 0 0 -25.824 -16.5966 -2.92214 2.8352 0 65.5811 0 0 0 0 0 0 -11.884 0 -3.85386 0 0 0 12.2928 0 225.175 16.9154 0 -16.5161 7.27031 4.20378 1.23044 
-10.6118 -16.5189 33.3496 0 0 0 0 0 0 -31.2618 -19.9895 -58.3632 2.84442 0 53.797 0 0 0 0 0 0 -13.2192 0 -4.28545 0 0 0 13.675 0 216.45 20.9382 -3.18055e-15 14.2003 4.69867 4.27898 0.385052 
-10.6118 -16.5189 33.364 0 0 0 0 0 0 -31.2618 -19.645 -59.4957 2.84442 0 53.6983 0 0 0 0 0 0 -13.2192 0 -4.28545 0 0 0 13.675 0 216.206 20.9382 -1.59028e-15 14.2003 4.69867 3.92947 0.493695 
-10.6118 -16.5189 33.364 0 0 0 0 0 0 -31.2618 -19.7246 -59.2315 2.84442 0 53.6983 0 0 0 0 0 0 -13.2192 0 -4.28545 0 0 0 13.675 0 216.206 20.9382 0 14.2003 4.69867 3.99733 0.472602 
-13.9604 -17.3407 -4.0702 0 0 0 0 0 0 -27.5589 -17.1972 6.30448 2.84925 0 52.9972 0 0 0 0 0 0 -14.0055 0 -4.54017 0 0 0 14.4919 0 212.264 20.3694 1.59028e-15 -2.18333 4.38708 4.06519 0.353312 
0 0 -5.34173 28.8556 33.818 -5.30634 0 0 0 0 0 0 2.84925 0 55.2038 -20.4239 0 -32.474 0 0 0 -14.0055 0 -4.54017 -4.3998 -8.99453 182.73 14.4919 0 213.552 0 0 0 4.38708 0 1.37959 
0 0 0 28.8556 24.8235 25.3369 14.3945 10.163 21.714 0 0 0 0 0 0 -20.4239 0 -26.8321 -2.84935 7.95139e-15 -3.15181 -14.0055 0 -4.28806 -4.3998 0 125.534 0 0 0 0 0 0 4.38708 0 1.37959 
0 0 0 28.8556 24.8235 25.3369 14.3945 0.885798 50.1902 0 0 0 0 0 0 -20.4239 0 -26.8321 -2.84935 16.3238 -4.79637 -14.0055 0.00479875 -4.28984 -4.3998 0 125.534 0 0 0 0 0 0 4.38708 0 1.37959 
0 0 0 20.1978 22.0717 -42.6555 19.9711 0.783674 83.1334 0 0 0 0 0 0 -18.0099 0 3.12981 0.201294 27.1313 2.85449 -16.5881 0.00959749 -5.13663 -4.0622 0 127.259 0 0 0 0 0 0 4.04278 0 1.27418 
0 0 0 20.1978 22.0717 -42.7079 19.9711 -4.2899 97.6938 0 0 0 0 0 0 -18.0099 0 2.86792 0.201294 35.814 1.97901 -16.5881 0.0143956 -5.13846 -4.0622 0 126.77 0 0 0 0 0 0 4.04278 0 1.27418 
0 0 0 20.1978 22.0717 -42.7079 19.9711 -9.07307 111.421 0 0 0 0 0 0 -18.0099 0 2.86792 0.201294 43.685 1.18537 -16.5881 0.0191944 -5.14029 -4.0622 0 126.77 0 0 0 0 0 0 4.04278 0 1.27418 
0 0 0 13.681 19.2053 -47.7446 20.8659 -10.2589 83.8007 0 0 0 0 0 0 -14.7478 0 27.6708 6.19022 50.7774 8.99541 -20.4927 0.0239932 -6.40427 -4.4569 0 109.098 0 0 0 0 0 0 4.48166 0 1.39853 
0 0 0 13.681 19.2053 -47.7909 20.8659 -14.1472 94.7454 0 0 0 0 0 0 -14.7478 0 27.4342 6.19022 57.1459 8.35006 -20.4927 0.0151097 -6.40075 -4.4569 0 108.659 0 0 0 0 0 0 4.48166 0 1.39853 
0 0 0 13.681 19.2053 -47.7909 20.8659 -17.8968 105.306 0 0 0 0 0 0 -14.7478 0 27.4342 6.19022 62.8738 7.76962 -20.4927 0.0176281 -6.40175 -4.4569 0 108.659 0 0 0 0 0 0 4.48166 0 1.39853 
0 0 0 8.4358 16.4553 -55.7475 18.2818 -19.2987 79.448 0 0 0 0 0 0 -11.2251 0 48.0804 16.0186 67.9061 18.8353 -25.9128 0.0201466 -8.12911 -5.22871 0 94.6329 0 0 0 0 0 0 5.3166 0 1.64109 
0 0 0 8.4358 16.4553 -55.7846 18.2818 -22.3449 87.9862 0 0 0 0 0 0 -11.2251 0 47.8869 16.0186 72.2566 18.3904 -25.9128 -0.0147294 -8.11468 -5.22871 0 94.2748 0 0 0 0 0 0 5.3166 0 1.64109 
0 0 0 8.4358 16.4553 -55.7846 18.2818 -25.0962 95.7143 0 0 0 0 0 0 -11.2251 0 47.8869 16.0186 75.759 18.0322 -25.9128 -0.0163659 -8.114 -5.22871 0 94.2748 0 0 0 0 0 0 5.3166 0 1.64109 
0 0 0 8.4358 16.4553 -55.7846 18.2818 -27.4502 102.327 0 0 0 0 0 0 -11.2251 0 47.8869 16.0186 78.3952 17.7626 -25.9128 -0.018003 -8.11333 -5.22871 0 94.2748 0 0 0 0 0 0 5.3166 0 1.64109 
0 0 0 6.71463 14.5049 -32.9236 11.3694 -30.205 64.9269 0 0 0 0 0 0 -8.40883 0 56.2138 27.8356 80.0719 24.1403 -31.7054 -0.0196394 -9.91522 -6.0942 0 83.9684 0 0 0 0 0 0 6.24639 0 1.91288 
0 0 0 6.71463 14.5049 -32.957 11.3694 -32.0752 70.3819 0 0 0 0 0 0 -8.40883 0 56.0362 27.8356 80.8386 24.061 -31.7054 -0.102181 -9.87982 -6.0942 0 83.6398 0 0 0 0 0 0 6.24639 0 1.91288 
0 0 0 6.71463 14.5049 -32.957 11.3694 -33.2022 73.6872 0 0 0 0 0 0 -8.40883 0 56.0362 27.8356 81.0039 24.0439 -31.7054 -0.110042 -9.87645 -6.0942 0 83.6398 0 0 0 0 0 0 6.24639 0 1.91288 
0 0 0 4.37084 12.9728 -41.8284 4.25647 -33.8439 57.7961 0 0 0 0 0 0 -6.15647 0 62.3442 40.4396 81.1895 27.248 -36.9094 -0.117902 -11.4508 -6.81441 0 78.472 0 0 0 0 0 0 7.01869 0 2.13902 
0 0 0 4.37084 12.9728 -41.8576 4.25647 -36.2103 64.8848 0 0 0 0 0 0 -6.15647 0 62.186 40.4396 81.4341 27.2225 -36.9094 -0.243312 -11.3958 -6.81441 0 78.1796 0 0 0 0 0 0 7.01869 0 2.13902 
0 0 0 4.37084 12.9728 -41.8576 4.25647 -37.2943 68.1475 0 0 0 0 0 0 -6.15647 0 62.186 40.4396 81.5539 27.21 -36.9094 -0.25852 -11.3891 -6.81441 0 78.1796 0 0 0 0 0 0 7.01869 0 2.13902 
0 0 0 3.8473 11.8951 -28.9097 -4.48213 -39.2851 42.6169 0 0 0 0 0 0 -4.36075 0 66.2956 51.4358 81.6448 23.1488 -40.1929 -0.273727 -12.314 -7.53213 0 68.6032 0 0 0 0 0 0 7.78956 0 2.36419 
0 0 0 3.8473 11.8951 -28.9439 -4.48213 -42.1504 51.6497 0 0 0 0 0 0 -4.36075 0 66.109 51.4358 81.2876 23.1863 -40.1929 -0.454167 -12.2342 -7.53213 0 68.2583 0 0 0 0 0 0 7.78956 0 2.36419 
0 0 0 3.8473 11.8951 -28.9439 -4.48213 -43.0695 54.5545 0 0 0 0 0 0 -4.36075 0 66.109 51.4358 81.1869 23.1968 -40.1929 -0.478072 -12.2236 -7.53213 0 68.2583 0 0 0 0 0 0 7.78956 0 2.36419 
0 0 0 3.8473 11.8951 -28.9439 -4.48213 -43.9427 57.3142 0 0 0 0 0 0 -4.36075 0 66.109 51.4358 81.01 23.2154 -40.1929 -0.501976 -12.213 -7.53213 0 68.2583 0 0 0 0 0 0 7.78956 0 2.36419 
0 0 0 1.02751 10.9073 -53.0763 -11.771 -42.9093 44.1405 0 0 0 0 0 0 -2.92282 0 68.5811 62.0175 80.7401 23.0989 -42.106 -0.52588 -12.7018 -7.98215 0 64.8086 0 0 0 0 0 0 8.27429 0 2.50541 
0 0 0 1.02751 10.9073 -53.1066 -11.771 -45.5151 52.3941 0 0 0 0 0 0 -2.92282 0 68.4151 62.0175 79.0181 23.2805 -42.106 -0.749083 -12.6028 -7.98215 0 64.5018 0 0 0 0 0 0 8.27429 0 2.50541 
0 0 0 1.02751 10.9073 -53.1066 -11.771 -46.0546 54.1055 0 0 0 0 0 0 -2.92282 0 68.4151 62.0175 78.418 23.3438 -42.106 -0.781654 -12.5883 -7.98215 0 64.5018 0 0 0 0 0 0 8.27429 0 2.50541 
0 0 0 1.12817 10.3415 -36.1772 -21.7514 -47.3437 14.9414 0 0 0 0 0 0 -1.90096 0 66.9824 70.112 77.676 17.0157 -41.2573 -0.814225 -12.1434 -8.43855 0 53.7749 0 0 0 0 0 0 8.76741 0 2.64864 
0 0 0 1.12817 10.3415 -36.2132 -21.7514 -49.1936 21.072 0 0 0 0 0 0 -1.90096 0 66.786 70.112 74.2871 17.3731 -41.2573 -1.10914 -12.0125 -8.43855 0 53.4128 0 0 0 0 0 0 8.76741 0 2.64864 
0 0 0 1.12817 10.3415 -36.2132 -21.7514 -49.2505 21.2582 0 0 0 0 0 0 -1.90096 0 66.786 70.112 73.1047 17.4979 -41.2573 -1.1518 -11.9936 -8.43855 0 53.4128 0 0 0 0 0 0 8.76741 0 2.64864 
0 0 0 -1.53498 9.64716 -63.5908 -28.7624 -47.0938 13.394 0 0 0 0 0 0 -0.95143 0 67.6545 76.9552 71.7202 14.7383 -39.4753 -1.19447 -11.3411 -8.69361 0 48.0724 0 0 0 0 0 0 9.04417 0 2.72872 
0 0 0 -1.53498 9.64716 -63.6214 -28.7624 -47.7078 15.4344 0 0 0 0 0 0 -0.95143 0 67.4888 76.9552 66.1639 15.332 -39.4753 -1.44809 -11.2287 -8.69361 0 47.7672 0 0 0 0 0 0 9.04417 0 2.72872 
0 0 0 -1.53498 9.64716 -63.6214 -28.7624 -47.1096 13.4386 0 0 0 0 0 0 -0.95143 0 67.4888 76.9552 64.1693 15.5451 -39.4753 -1.49804 -11.2066 -8.69361 0 47.7672 0 0 0 0 0 0 9.04417 0 2.72872 
0 0 0 -1.53498 9.64716 -63.6214 -28.7624 -46.3041 10.752 0 0 0 0 0 0 -0.95143 0 67.4888 76.9552 61.8692 15.7909 -39.4753 -1.54798 -11.1844 -8.69361 0 47.7672 0 0 0 0 0 0 9.04417 0 2.72872 
0 0 0 -1.43022 9.17684 -50.4623 -37.8848 -45.8885 -29.4503 0 0 0 0 0 0 -0.188662 0 65.3956 80.9106 59.2144 8.68224 -34.9465 -1.59793 -9.61856 -8.98627 0 35.9354 0 0 0 0 0 0 9.36223 0 2.82058 
0 0 0 -1.43022 9.17684 -50.4976 -37.8848 -43.9938 -35.9576 0 0 0 0 0 0 -0.188662 0 65.2079 80.9106 50.0585 9.66888 -34.9465 -1.88866 -9.49048 -8.98627 0 35.5904 0 0 0 0 0 0 9.36223 0 2.82058 
0 0 0 -1.43022 9.17684 -50.4976 -37.8848 -42.0574 -42.6356 0 0 0 0 0 0 -0.188662 0 65.2079 80.9106 46.1128 10.0941 -34.9465 -1.94591 -9.46526 -8.98627 0 35.5904 0 0 0 0 0 0 9.36223 0 2.82058 
0 0 0 0.302638 8.80139 -32.3711 -45.7249 -41.7965 -58.247 0 0 0 0 0 0 0.420752 0 62.5055 82.1672 41.3816 1.85463 -29.9623 -2.00317 -7.91199 -9.22021 0 26.1404 0 0 0 0 0 0 9.6172 0 2.89399 
0 0 0 0.302638 8.80139 -32.4042 -45.7249 -34.9948 -82.5636 0 0 0 0 0 0 0.420752 0 62.3333 82.1672 23.6716 3.79605 -29.9623 -2.13955 -7.85291 -9.22021 0 25.8248 0 0 0 0 0 0 9.6172 0 2.89399 
0 0 0 0.302638 8.80139 -32.4042 -45.7249 -27.4296 -109.641 0 0 0 0 0 0 0.420752 0 62.3333 82.1672 9.54543 5.3446 -29.9623 -2.19901 -7.82715 -9.22021 0 25.8248 0 0 0 0 0 0 9.6172 0 2.89399 
0 0 0 2.04423 8.32248 -22.1769 -49.6682 -24.3225 -103.701 0 0 0 0 0 0 0.907995 0 59.6994 79.9698 -6.36111e-15 -6.02119 -24.6874 -2.25847 -6.34948 -9.22845 0 22.0242 0 0 0 0 0 0 9.62746 0 2.89671 
0 0 0 2.04423 8.32248 -22.2068 -49.6682 -26.5519 -95.6958 0 0 0 0 0 0 0.907995 0 59.5484 79.9698 2.54444e-14 -6.02119 -24.6874 -2.14382 -6.39741 -9.22845 0 21.7485 0 0 0 0 0 0 9.62746 0 2.89671 
0 0 0 2.04423 8.32248 -22.2068 -49.6682 -26.217 -96.8786 0 0 0 0 0 0 0.907995 0 59.5484 79.9698 0 -6.02119 -24.6874 -2.19882 -6.37442 -9.22845 0 21.7485 0 0 0 0 0 0 9.62746 0 2.89671 
0 0 0 2.04423 8.32248 -22.2068 -49.6682 -25.8329 -98.2394 0 0 0 0 0 0 0.907995 0 59.5484 79.9698 -2.54444e-14 -6.02119 -24.6874 -2.25382 -6.35143 -9.22845 0 21.7485 0 0 0 0 0 0 9.62746 0 2.89671 
0 0 0 7.34989 7.5028 47.3259 -56.1018 -31.2247 -125.63 0 0 0 0 0 0 1.30144 0 57.2546 74.9563 6.36111e-15 -14.4587 -18.5668 -2.30882 -4.62277 -8.80259 0 25.838 0 0 0 0 0 0 9.16574 0 2.76351 
0 0 0 7.34989 7.5028 47.301 -56.1018 -32.9721 -119.514 0 0 0 0 0 0 1.30144 0 57.1332 74.9563 6.36111e-15 -14.4587 -18.5668 -1.9889 -4.7486 -8.80259 0 25.6172 0 0 0 0 0 0 9.16574 0 2.76351 
0 0 0 7.34989 7.5028 47.301 -56.1018 -32.4658 -121.301 0 0 0 0 0 0 1.30144 0 57.1332 74.9563 0 -14.4587 -18.5668 -2.03517 -4.7304 -8.80259 0 25.6172 0 0 0 0 0 0 9.16574 0 2.76351 
0 0 0 5.53438 6.57379 -12.074 -52.4268 0.889764 -129.587 0 0 0 0 0 0 1.61371 0 54.3224 66.603 0 -23.199 -11.5713 0 -3.41488 -8.18612 0 26.2019 0 0 0 0 0 0 8.49646 0 2.57044 
0 0 0 5.53438 6.57379 -12.101 -52.4268 0.889764 -129.587 0 0 0 0 0 0 1.61371 0 54.1954 66.603 0 -23.199 -11.5713 0 -3.41488 -8.18612 0 25.9718 0 0 0 0 0 0 8.49646 0 2.57044 
0 0 0 5.53438 6.57379 -12.101 -52.4268 0.889764 -129.587 0 0 0 0 0 0 1.61371 0 54.1954 66.603 0 -23.199 -11.5713 0 -3.41488 -8.18612 0 25.9718 0 0 0 0 0 0 8.49646 0 2.57044 
0 0 0 10.8473 5.54712 68.8453 -54.8741 -5.30451 -159.672 0 0 0 0 0 0 1.86262 0 51.2988 54.6147 0 -30.1694 -3.5166 0 -0.853122 -7.40876 0 27.5626 0 0 0 0 0 0 7.6527 0 2.32683 
0 0 0 10.8473 5.54712 68.8213 -54.8741 -5.30451 -159.672 0 0 0 0 0 0 1.86262 0 51.1893 54.6147 0 -30.1694 -3.5166 0 -0.853122 -7.40876 0 27.3651 0 0 0 0 0 0 7.6527 0 2.32683 
0 0 0 10.8473 5.54712 68.8213 -54.8741 -5.30451 -159.672 0 0 0 0 0 0 1.86262 0 51.1893 54.6147 0 -30.1694 -3.5166 0 -0.853122 -7.40876 0 27.3651 0 0 0 0 0 0 7.6527 0 2.32683 
0 0 0 10.8473 5.54712 68.8213 -54.8741 -5.30451 -159.672 0 0 0 0 0 0 1.86262 0 51.1893 54.6147 0 -30.1694 -3.5166 0 -0.853122 -7.40876 0 27.3651 0 0 0 0 0 0 7.6527 0 2.32683 
0 0 0 9.4701 4.56395 27.6324 -49.0137 -4.89657 -78.105 0 0 0 0 0 0 2.06289 0 48.6068 43.1197 0 -26.6845 2.30936 0 1.07221 -6.62624 0 27.4985 0 0 0 0 0 0 6.80192 0 2.08145 
0 0 0 9.4701 4.56395 27.6094 -49.0137 -4.89657 -78.105 0 0 0 0 0 0 2.06289 0 48.5039 43.1197 0 -26.6845 2.30936 0 1.07221 -6.62624 0 27.3133 0 0 0 0 0 0 6.80192 0 2.08145 
0 0 0 9.4701 4.56395 27.6094 -49.0137 -4.89657 -78.105 0 0 0 0 0 0 2.06289 0 48.5039 43.1197 0 -26.6845 2.30936 0 1.07221 -6.62624 0 27.3133 0 0 0 0 0 0 6.80192 0 2.08145 
0 0 0 8.10544 3.08767 31.4829 -45.0377 -5.06162 -77.6363 0 0 0 0 0 0 2.22373 0 47.0032 33.8634 0 -18.4408 6.59082 0 2.56503 -5.31122 0 43.6064 0 0 0 0 0 0 5.37576 0 1.66857 
0 0 0 8.10544 3.08767 31.4786 -45.0377 -5.06162 -77.6363 0 0 0 0 0 0 2.22373 0 46.9884 33.8634 0 -18.4408 6.59082 0 2.56503 -5.31122 0 43.5838 0 0 0 0 0 0 5.37576 0 1.66857 
0 0 0 8.10544 3.08767 31.4786 -45.0377 -5.06162 -77.6363 0 0 0 0 0 0 2.22373 0 46.9884 33.8634 0 -18.4408 6.59082 0 2.56503 -5.31122 0 43.5838 0 0 0 0 0 0 5.37576 0 1.66857 
0 0 0 2.0461 1.86004 -26.5468 -35.2358 -0.240199 -26.589 0 0 0 0 0 0 2.35209 0 44.6786 26.4574 0 -12.6907 8.76243 0 3.41406 -4.21219 0 44.0602 0 0 0 0 0 0 4.18264 0 1.32308 
0 0 0 2.0461 1.86004 -26.5736 -35.2358 -0.240199 -26.589 0 0 0 0 0 0 2.35209 0 44.5559 26.4574 0 -12.6907 8.76243 0 3.41406 -4.21219 0 43.8375 0 0 0 0 0 0 4.18264 0 1.32308 
0 0 0 2.0461 1.86004 -26.5736 -35.2358 -0.240199 -26.589 0 0 0 0 0 0 2.35209 0 44.5559 26.4574 0 -12.6907 8.76243 0 3.41406 -4.21219 0 43.8375 0 0 0 0 0 0 4.18264 0 1.32308 
0 0 0 2.0461 1.86004 -26.5736 -35.2358 -0.240199 -26.589 0 0 0 0 0 0 2.35209 0 44.5559 26.4574 0 -12.6907 8.76243 0 3.41406 -4.21219 0 43.8375 0 0 0 0 0 0 4.18264 0 1.32308 
0 0 0 2.03774 0.527968 13.832 -32.5098 -1.52746 -61.3157 0 0 0 0 0 0 2.45489 0 42.1953 20.5461 0 -8.59325 9.68882 0 3.86801 -2.98309 0 51.936 0 0 0 0 0 0 2.8562 0 0.936242 
0 0 0 2.03774 0.527968 13.8229 -32.5098 -1.52746 -61.3157 0 0 0 0 0 0 2.45489 0 42.1377 20.5461 0 -8.59325 9.68882 0 3.86801 -2.98309 0 51.8254 0 0 0 0 0 0 2.8562 0 0.936242 
0 0 0 2.03774 0.527968 13.8229 -32.5098 -1.52746 -61.3157 0 0 0 0 0 0 2.45489 0 42.1377 20.5461 0 -8.59325 9.68882 0 3.86801 -2.98309 0 51.8254 0 0 0 0 0 0 2.8562 0 0.936242 
0 0 0 -3.97035 -0.588242 -59.1037 -21.5814 3.66979 -0.225751 0 0 0 0 0 0 2.53784 0 40.8756 15.8319 0 -5.78937 9.32175 0 3.87667 -1.94984 0 54.1776 0 0 0 0 0 0 1.73837 0 0.61062 
0 0 0 -3.97035 -0.588242 -59.1421 -21.5814 3.66979 -0.225751 0 0 0 0 0 0 2.53784 0 40.737 15.8319 0 -5.78937 9.32175 0 3.87667 -1.94984 0 53.9398 0 0 0 0 0 0 1.73837 0 0.61062 
0 0 0 -3.97035 -0.588242 -59.1421 -21.5814 3.66979 -0.225751 0 0 0 0 0 0 2.53784 0 40.737 15.8319 0 -5.78937 9.32175 0 3.87667 -1.94984 0 53.9398 0 0 0 0 0 0 1.73837 0 0.61062 
0 0 0 -4.84333 -1.81186 -24.0024 -18.0824 3.53288 -31.3601 0 0 0 0 0 0 2.60334 0 39.2855 12.0763 0 -3.93227 8.51029 0 3.684 -0.791762 0 63.6555 0 0 0 0 0 0 0.482185 0 0.245104 
0 0 0 -4.84333 -1.81186 -24.0234 -18.0824 3.53288 -31.3601 0 0 0 0 0 0 2.60334 0 39.1885 12.0763 0 -3.93227 8.51029 0 3.684 -0.791762 0 63.4799 0 0 0 0 0 0 0.482185 0 0.245104 
0 0 0 -4.84333 -1.81186 -24.0234 -18.0824 3.53288 -31.3601 0 0 0 0 0 0 2.60334 0 39.1885 12.0763 0 -3.93227 8.51029 0 3.684 -0.791762 0 63.4799 0 0 0 0 0 0 0.482185 0 0.245104 
0 0 0 -4.84333 -1.81186 -24.0234 -18.0824 3.53288 -31.3601 0 0 0 0 0 0 2.60334 0 39.1885 12.0763 0 -3.93227 8.51029 0 3.684 -0.791762 0 63.4799 0 0 0 0 0 0 0.482185 0 0.245104 
0 0 0 -10.6059 -2.76647 -94.5977 -7.20645 8.65038 23.4652 0 0 0 0 0 0 2.65565 0 37.9086 9.08466 0 -2.87214 7.01853 0 3.19892 0.110542 0 64.4013 0 0 0 0 0 0 -0.511611 0 -0.0404017 
0 0 0 -10.6059 -2.76647 -94.6207 -7.20645 8.65038 23.4652 0 0 0 0 0 0 2.65565 0 37.7991 9.08466 0 -2.87214 7.01853 0 3.19892 0.110542 0 64.202 0 0 0 0 0 0 -0.511611 0 -0.0404017 
0 0 0 -10.6059 -2.76647 -94.6207 -7.20645 8.65038 23.4652 0 0 0 0 0 0 2.65565 0 37.7991 9.08466 0 -2.87214 7.01853 0 3.19892 0.110542 0 64.202 0 0 0 0 0 0 -0.511611 0 -0.0404017 
0 0 0 -10.3399 -3.63129 -46.5985 -4.98799 7.76629 -18.4874 0 0 0 0 0 0 2.69742 0 36.9686 6.69888 0 -2.25824 5.55689 0 2.67385 0.933609 0 68.591 0 0 0 0 0 0 -1.43618 0 -0.301697 
0 0 0 -10.3399 -3.63129 -46.6168 -4.98799 7.76629 -18.4874 0 0 0 0 0 0 2.69742 0 36.8785 6.69888 0 -2.25824 5.55689 0 2.67385 0.933609 0 68.4263 0 0 0 0 0 0 -1.43618 0 -0.301697 
0 0 0 -10.3399 -3.63129 -46.6168 -4.98799 7.76629 -18.4874 0 0 0 0 0 0 2.69742 0 36.8785 6.69888 0 -2.25824 5.55689 0 2.67385 0.933609 0 68.4263 0 0 0 0 0 0 -1.43618 0 -0.301697 
0 0 0 -11.2442 -4.33692 -56.5306 -1.16455 8.15179 -0.552648 0 0 0 0 0 0 2.73289 0 36.7335 4.7956 0 -2.00572 3.85397 0 2.02382 1.60405 0 71.035 0 0 0 0 0 0 -2.21446 0 -0.515661 
0 0 0 -11.2442 -4.33692 -56.5456 -1.16455 8.15179 -0.552648 0 0 0 0 0 0 2.73289 0 36.6561 4.7956 0 -2.00572 3.85397 0 2.02382 1.60405 0 70.8928 0 0 0 0 0 0 -2.21446 0 -0.515661 
0 0 0 -11.2442 -4.33692 -56.5456 -1.16455 8.15179 -0.552648 0 0 0 0 0 0 2.73289 0 36.6561 4.7956 0 -2.00572 3.85397 0 2.02382 1.60405 0 70.8928 0 0 0 0 0 0 -2.21446 0 -0.515661 
0 0 0 -11.2442 -4.33692 -56.5456 -1.16455 8.15179 -0.552648 0 0 0 0 0 0 2.73289 0 36.6561 4.7956 0 -2.00572 3.85397 0 2.02382 1.60405 0 70.8928 0 0 0 0 0 0 -2.21446 0 -0.515661 
0 0 0 -15.4274 -5.44363 -50.3343 -0.340306 9.65587 -2.68101 0 0 0 0 0 0 2.75341 0 45.6277 3.25387 0 -1.45329 3.88476 0 2.11878 2.6895 0 95.228 0 0 0 0 0 0 -3.40205 0 -0.860637 
0 0 0 -15.4274 -5.44363 -50.3374 -0.340306 9.65587 -2.68101 0 0 0 0 0 0 2.75341 0 45.6131 3.25387 0 -1.45329 3.88476 0 2.11878 2.6895 0 95.2016 0 0 0 0 0 0 -3.40205 0 -0.860637 
0 0 0 -15.4274 -5.44363 -50.3374 -0.340306 9.65587 -2.68101 0 0 0 0 0 0 2.75341 0 45.6131 3.25387 0 -1.45329 3.88476 0 2.11878 2.6895 0 95.2016 0 0 0 0 0 0 -3.40205 0 -0.860637 
0 0 0 -14.1702 -5.36306 -51.8548 2.54018 8.64228 -13.6722 0 0 0 0 0 0 2.77549 0 42.0422 2.0236 0 -1.11472 2.58371 0 1.73261 2.58702 0 67.4757 0 0 0 0 0 0 -3.33033 0 -0.829393 
0 0 0 -14.1702 -5.36306 -51.889 2.54018 8.64228 -13.6722 0 0 0 0 0 0 2.77549 0 41.8737 2.0236 0 -1.11472 2.58371 0 1.73261 2.58702 0 67.1675 0 0 0 0 0 0 -3.33033 0 -0.829393 
-5.23408 6.51839 -83.236 0 0 0 0 0 0 13.968 18.2533 -12.159 -2.01495 0 5.30453 0 0 0 0 0 0 2.58371 0 1.4805 0 0 0 -4.55107 0 20.4471 -2.77532 3.18055e-15 0.327068 -3.33033 0 -0.577288 
2.43166 5.98224 30.3252 0 0 0 0 0 0 3.36088 2.55285 -70.9929 -2.24189 0 0.416967 0 0 0 0 0 0 2.03046 0 1.22928 0 0 0 -3.77576 0 22.0011 0.233209 12.931 9.65549 -4.79861 -0.0389708 -0.96198 
2.43166 5.98224 30.3165 0 0 0 0 0 0 3.36088 -1.63295 -55.7051 -2.24189 0 0.47032 0 0 0 0 0 0 2.03046 0 1.22928 0 0 0 -3.77576 0 22.138 0.233209 21.5173 8.68614 -4.79861 -0.0779416 -0.947772 
2.43166 5.98224 30.3165 0 0 0 0 0 0 3.36088 -5.84043 -40.3383 -2.24189 0 0.47032 0 0 0 0 0 0 2.03046 0 1.22928 0 0 0 -3.77576 0 22.138 0.233209 29.3527 7.80155 -4.79861 -0.116912 -0.933565 
2.43166 5.98224 30.3165 0 0 0 0 0 0 3.36088 -9.55463 -26.7714 -2.24189 0 0.47032 0 0 0 0 0 0 2.03046 0 1.22928 0 0 0 -3.77576 0 22.138 0.233209 36.2775 7.01976 -4.79861 -0.155883 -0.919358 
0.929449 8.01121 -57.4623 0 0 0 0 0 0 5.94707 -9.15868 79.5138 -5.86199 0 -29.0257 0 0 0 0 0 0 0.779143 0 0.715414 0 0 0 -2.17408 0 42.9933 1.91071 42.5835 1.59179 -5.40351 -0.194854 -1.04101 
0.929449 8.01121 -57.4734 0 0 0 0 0 0 5.94707 -12.2367 90.5192 -5.86199 0 -29.035 0 0 0 0 0 0 0.779143 0 0.715414 0 0 0 -2.17408 0 42.986 1.91071 48.3305 0.941261 -5.40351 -0.238327 -1.02495 
0.929449 8.01121 -57.4734 0 0 0 0 0 0 5.94707 -15.0971 100.746 -5.86199 0 -29.035 0 0 0 0 0 0 0.779143 0 0.715414 0 0 0 -2.17408 0 42.986 1.91071 53.6527 0.338819 -5.40351 -0.278049 -1.01028 
7.18711 7.97814 36.2183 0 0 0 0 0 0 -7.26089 -24.5499 -23.8261 -6.00807 0 -15.5591 0 0 0 0 0 0 0.709858 0 0.653129 0 0 0 -1.989 0 26.1208 12.6584 58.508 32.0627 -10.7233 -0.31777 -2.49515 
7.18711 7.97814 36.2227 0 0 0 0 0 0 -7.26089 -25.6862 -19.4923 -6.00807 0 -15.5855 0 0 0 0 0 0 0.709858 0 0.653129 0 0 0 -1.989 0 26.0533 12.6584 62.3465 31.6318 -10.7233 -0.357492 -2.47957 
7.18711 7.97814 36.2227 0 0 0 0 0 0 -7.26089 -27.8367 -11.3082 -6.00807 0 -15.5855 0 0 0 0 0 0 0.709858 0 0.653129 0 0 0 -1.989 0 26.0533 12.6584 66.2748 31.1908 -10.7233 -0.397214 -2.46399 
8.63245 9.46167 -6.829 0 0 0 0 0 0 -11.5285 -29.09 43.7377 -8.16508 0 -33.713 0 0 0 0 0 0 0.185427 0 0.43545 0 0 0 -1.31077 0 37.0606 21.3963 69.6784 23.5067 -15.012 -0.436936 -3.68426 
8.63245 9.46167 -6.82974 0 0 0 0 0 0 -11.5285 -30.5054 49.0462 -8.16508 0 -33.7086 0 0 0 0 0 0 0.185427 0 0.43545 0 0 0 -1.31077 0 37.0718 21.3963 72.4974 23.1934 -15.012 -0.444998 -3.68098 
8.63245 9.46167 -6.82974 0 0 0 0 0 0 -11.5285 -31.8543 54.1202 -8.16508 0 -33.7086 0 0 0 0 0 0 0.185427 0 0.43545 0 0 0 -1.31077 0 37.0718 21.3963 74.745 22.9436 -15.012 -0.482082 -3.66588 
8.63245 9.46167 -6.82974 0 0 0 0 0 0 -11.5285 -32.8972 58.0476 -8.16508 0 -33.7086 0 0 0 0 0 0 0.185427 0 0.43545 0 0 0 -1.31077 0 37.0718 21.3963 76.3426 22.766 -15.012 -0.519166 -3.65079 
18.2671 10.122 86.1845 0 0 0 0 0 0 -26.1594 -41.8751 -49.7224 -8.79321 0 -29.0395 0 0 0 0 0 0 0.252007 0 0.443137 0 0 0 -1.33989 0 28.9966 32.1413 77.228 29.5399 -19.8968 -0.556251 -5.07682 
18.2671 10.122 86.1882 0 0 0 0 0 0 -26.1594 -42.632 -46.8867 -8.79321 0 -29.0584 0 0 0 0 0 0 0.252007 0 0.443137 0 0 0 -1.33989 0 28.947 32.1413 77.6531 29.4932 -19.8968 -0.522106 -5.09119 
18.2671 10.122 86.1882 0 0 0 0 0 0 -26.1594 -43.0102 -45.4563 -8.79321 0 -29.0584 0 0 0 0 0 0 0.252007 0 0.443137 0 0 0 -1.33989 0 28.947 32.1413 77.8417 29.4726 -19.8968 -0.554739 -5.07746 
18.3785 11.8986 5.50431 0 0 0 0 0 0 -26.1567 -40.0885 56.6937 -10.9418 0 -45.7225 0 0 0 0 0 0 -0.0511686 0 0.323295 0 0 0 -0.965192 0 36.6324 38.9834 78.0705 15.9115 -22.9505 -0.587371 -6.04179 
18.3785 11.8986 5.50671 0 0 0 0 0 0 -26.1567 -41.8425 62.9066 -10.9418 0 -45.7334 0 0 0 0 0 0 -0.0511686 0 0.323295 0 0 0 -0.965192 0 36.6034 38.9834 78.8206 15.8301 -22.9505 -0.464043 -6.09441 
18.3785 11.8986 5.50671 0 0 0 0 0 0 -26.1567 -42.2552 64.3797 -10.9418 0 -45.7334 0 0 0 0 0 0 -0.0511686 0 0.323295 0 0 0 -0.965192 0 36.6034 38.9834 79.0788 15.802 -22.9505 -0.488466 -6.08399 
26.3302 12.9115 94.9149 0 0 0 0 0 0 -38.2047 -49.372 -42.7289 -12.2525 0 -47.9034 0 0 0 0 0 0 -0.30484 0 0.227699 0 0 0 -0.665343 0 37.5002 47.5838 79.347 21.8456 -25.9249 -0.51289 -7.05589 
26.3302 12.9115 94.922 0 0 0 0 0 0 -38.2047 -51.6838 -34.4967 -12.2525 0 -47.9345 0 0 0 0 0 0 -0.30484 0 0.227699 0 0 0 -0.665343 0 37.4165 47.5838 80.1339 21.761 -25.9249 -0.314413 -7.14151 
26.3302 12.9115 94.922 0 0 0 0 0 0 -38.2047 -52.0817 -33.0755 -12.2525 0 -47.9345 0 0 0 0 0 0 -0.30484 0 0.227699 0 0 0 -0.665343 0 37.4165 47.5838 80.3669 21.736 -25.9249 -0.328705 -7.13534 
26.3302 12.9115 94.922 0 0 0 0 0 0 -38.2047 -52.4707 -31.6863 -12.2525 0 -47.9345 0 0 0 0 0 0 -0.30484 0 0.227699 0 0 0 -0.665343 0 37.4165 47.5838 80.5809 21.713 -25.9249 -0.342997 -7.12918 
26.5189 14.7898 40.9274 0 0 0 0 0 0 -38.6283 -50.4292 48.8381 -14.9357 0 -66.8197 0 0 0 0 0 0 -1.02525 0 -0.0282065 0 0 0 0.141913 0 48.8369 52.6293 80.7661 9.45816 -27.5971 -0.357288 -7.83031 
26.5189 14.7898 40.9328 0 0 0 0 0 0 -38.6283 -53.2524 58.522 -14.9357 0 -66.8432 0 0 0 0 0 0 -1.02525 0 -0.0282065 0 0 0 0.141913 0 48.7727 52.6293 81.3358 9.39728 -27.5971 -0.0006584 -7.98419 
26.5189 14.7898 40.9328 0 0 0 0 0 0 -38.6283 -53.5602 59.5827 -14.9357 0 -66.8432 0 0 0 0 0 0 -1.02525 0 -0.0282065 0 0 0 0.141913 0 48.7727 52.6293 81.4073 9.38963 -27.5971 -0.000683464 -7.98418 
28.6325 15.7921 72.4306 0 0 0 0 0 0 -43.9655 -55.1895 12.7671 -16.5246 0 -68.604 0 0 0 0 0 0 -1.57761 0 -0.213853 0 0 0 0.729676 0 49.8973 57.8434 81.422 9.83053 -28.721 -0.000708528 -8.54988 
28.6325 15.7921 72.4376 0 0 0 0 0 0 -43.9655 -58.1339 22.8075 -16.5246 0 -68.6352 0 0 0 0 0 0 -1.57761 0 -0.213853 0 0 0 0.729676 0 49.8117 57.8434 81.532 9.81888 -28.721 0.445951 -8.7421 
28.6325 15.7921 72.4376 0 0 0 0 0 0 -43.9655 -58.3046 23.3922 -16.5246 0 -68.6352 0 0 0 0 0 0 -1.57761 0 -0.213853 0 0 0 0.729676 0 49.8117 57.8434 81.3801 9.83496 -28.721 0.461329 -8.74872 
33.9389 17.5971 74.3166 0 0 0 0 0 0 -47.099 -61.5915 38.0568 -19.3851 0 -87.6025 0 0 0 0 0 0 -2.54524 0 -0.54821 0 0 0 1.78697 0 61.7755 60.6784 81.1424 1.14319 -29.4003 0.476707 -9.26528 
33.9389 17.5971 74.3216 0 0 0 0 0 0 -47.099 -64.5158 47.5436 -19.3851 0 -87.6265 0 0 0 0 0 0 -2.54524 0 -0.54821 0 0 0 1.78697 0 61.7094 60.6784 80.636 1.1961 -29.4003 1.06105 -9.51434 
33.9389 17.5971 74.3216 0 0 0 0 0 0 -47.099 -64.4889 47.4627 -19.3851 0 -87.6265 0 0 0 0 0 0 -2.54524 0 -0.54821 0 0 0 1.78697 0 61.7094 60.6784 80.178 1.24394 -29.4003 1.09421 -9.52847 
33.9389 17.5971 74.3216 0 0 0 0 0 0 -47.099 -64.3927 47.1596 -19.3851 0 -87.6265 0 0 0 0 0 0 -2.54524 0 -0.54821 0 0 0 1.78697 0 61.7094 60.6784 79.6026 1.30405 -29.4003 1.12737 -9.54261 
33.4969 18.1778 67.6471 0 0 0 0 0 0 -49.0041 -63.4234 50.681 -20.5363 0 -84.2512 0 0 0 0 0 0 -3.09811 0 -0.727653 0 0 0 2.35618 0 58.937 61.7776 78.8978 -3.24619 -27.7268 1.16053 -9.18806 
33.4969 18.1778 67.6526 0 0 0 0 0 0 -49.0041 -65.6632 57.8159 -20.5363 0 -84.2807 0 0 0 0 0 0 -3.09811 0 -0.727653 0 0 0 2.35618 0 58.8559 61.7776 77.4955 -3.10346 -27.7268 1.6849 -9.40789 
33.4969 18.1778 67.6526 0 0 0 0 0 0 -49.0041 -65.2725 56.5861 -20.5363 0 -84.2807 0 0 0 0 0 0 -3.09811 0 -0.727653 0 0 0 2.35618 0 58.8559 61.7776 76.4822 -3.00031 -27.7268 1.73172 -9.42752 
32.5408 18.9283 54.3524 0 0 0 0 0 0 -49.0483 -63.2335 63.5875 -22.1056 0 -93.2023 0 0 0 0 0 0 -3.86226 0 -0.986405 0 0 0 3.17545 0 65.9912 62.2737 75.2971 -6.01801 -26.3957 1.77854 -9.18738 
32.5408 18.9283 54.3557 0 0 0 0 0 0 -49.0483 -64.8986 68.7328 -22.1056 0 -93.2214 0 0 0 0 0 0 -3.86226 0 -0.986405 0 0 0 3.17545 0 65.939 62.2737 73.0315 -5.79314 -26.3957 2.34063 -9.41772 
32.5408 18.9283 54.3557 0 0 0 0 0 0 -49.0483 -64.1229 66.3555 -22.1056 0 -93.2214 0 0 0 0 0 0 -3.86226 0 -0.986405 0 0 0 3.17545 0 65.939 62.2737 71.4419 -5.63537 -26.3957 2.40068 -9.44233 
36.5706 19.4792 81.1893 0 0 0 0 0 0 -53.9046 -66.8101 33.929 -23.5414 0 -98.8835 0 0 0 0 0 0 -4.68137 0 -1.26602 0 0 0 4.06054 0 71.1267 61.9132 69.6188 -7.63502 -24.2207 2.46073 -8.83341 
36.5706 19.4792 81.1924 0 0 0 0 0 0 -53.9046 -67.5926 36.4206 -23.5414 0 -98.9043 0 0 0 0 0 0 -4.68137 0 -1.26602 0 0 0 4.06054 0 71.07 61.9132 66.324 -7.31721 -24.2207 2.93946 -9.02389 
36.5706 19.4792 81.1924 0 0 0 0 0 0 -53.9046 -66.299 32.6159 -23.5414 0 -98.9043 0 0 0 0 0 0 -4.68137 0 -1.26602 0 0 0 4.06054 0 71.07 61.9132 63.9309 -7.08637 -24.2207 3.00951 -9.05176 
36.5706 19.4792 81.1924 0 0 0 0 0 0 -53.9046 -64.8082 28.2269 -23.5414 0 -98.9043 0 0 0 0 0 0 -4.68137 0 -1.26602 0 0 0 4.06054 0 71.07 61.9132 61.1929 -6.82226 -24.2207 3.07957 -9.07964 
30.0257 19.1409 34.5651 0 0 0 0 0 0 -50.1684 -58.0659 69.6171 -23.5257 0 -91.9834 0 0 0 0 0 0 -4.98604 0 -1.36767 0 0 0 4.38208 0 65.0141 58.5485 58.0517 -12.8783 -19.9862 3.14963 -7.66129 
30.0257 19.1409 34.4363 0 0 0 0 0 0 -50.1684 -57.3074 67.461 -23.5257 0 -92.0485 0 0 0 0 0 0 -4.98604 0 -1.36767 0 0 0 4.38208 0 64.894 58.5485 52.8312 -12.3881 -19.9862 3.47773 -7.78605 
30.0257 19.1409 34.4363 0 0 0 0 0 0 -50.1684 -54.8978 60.3833 -23.5257 0 -92.0485 0 0 0 0 0 0 -4.98604 0 -1.36767 0 0 0 4.38208 0 64.894 58.5485 48.5365 -11.9847 -19.9862 3.55343 -7.81483 
35.2784 20.8752 36.677 0 0 0 0 0 0 -52.9133 -53.8248 21.3745 -27.0608 0 -124.759 0 0 0 0 0 0 -6.58714 0 -1.93766 0 0 0 6.18418 0 90.9318 55.5907 43.4239 -10.9398 -16.0745 3.62914 -6.44742 
35.2784 20.8752 36.8153 0 0 0 0 0 0 -52.9133 -50.7154 12.8595 -27.0608 0 -124.729 0 0 0 0 0 0 -6.58714 0 -1.93766 0 0 0 6.18418 0 90.9798 55.5907 34.9181 -10.1519 -16.0745 3.74815 -6.49063 
35.2784 20.8752 36.8153 0 0 0 0 0 0 -52.9133 -45.8602 -0.510042 -27.0608 0 -124.729 0 0 0 0 0 0 -6.58714 0 -1.93766 0 0 0 6.18418 0 90.9798 55.5907 26.1523 -9.33997 -16.0745 3.82475 -6.51844 
32.1302 20.0896 36.5299 0 0 0 0 0 0 -52.3722 -35.5832 -31.9993 -26.8415 0 -107.184 0 0 0 0 0 0 -7.09755 0 -2.11664 0 0 0 6.74985 0 77.6862 49.6273 10.5539 -13.8344 -9.88494 3.90137 -4.31561 
32.1302 20.0896 36.5332 0 0 0 0 0 0 -52.3722 -30.9687 -45.3703 -26.8415 0 -107.214 0 0 0 0 0 0 -7.09755 0 -2.11664 0 0 0 6.74985 0 77.6068 49.6273 9.54166e-15 -12.8588 -9.88494 3.81192 -4.28539 
32.1302 20.0896 36.5332 0 0 0 0 0 0 -52.3722 -30.7093 -46.094 -26.8415 0 -107.214 0 0 0 0 0 0 -7.09755 0 -2.11664 0 0 0 6.74985 0 77.6068 49.6273 -9.54166e-15 -12.8588 -9.88494 3.88534 -4.31019 
32.1302 20.0896 36.5332 0 0 0 0 0 0 -52.3722 -30.435 -46.8606 -26.8415 0 -107.214 0 0 0 0 0 0 -7.09755 0 -2.11664 0 0 0 6.74985 0 77.6068 49.6273 -6.36111e-15 -12.8588 -9.88494 3.95877 -4.335 
31.5935 19.968 32.5119 0 0 0 0 0 0 -50.2213 -30.0342 -18.5594 -27.8715 0 -118.199 0 0 0 0 0 0 -8.09805 0 -2.48088 0 0 0 7.90265 0 89.1678 40.9915 1.27222e-14 -20.5872 -3.7148 4.0322 -2.11766 
31.5935 19.968 32.513 0 0 0 0 0 0 -50.2213 -30.5596 -17.1101 -27.8715 0 -118.21 0 0 0 0 0 0 -8.09805 0 -2.48088 0 0 0 7.90265 0 89.139 40.9915 -3.18055e-15 -20.5872 -3.7148 3.88459 -2.07228 
31.5935 19.968 32.513 0 0 0 0 0 0 -50.2213 -30.2152 -18.0737 -27.8715 0 -118.21 0 0 0 0 0 0 -8.09805 0 -2.48088 0 0 0 7.90265 0 89.139 40.9915 -3.18055e-15 -20.5872 -3.7148 3.95407 -2.09364 
26.9349 18.474 9.43133 0 0 0 0 0 0 -44.9274 -26.8112 -9.01868 -26.7968 0 -104.538 0 0 0 0 0 0 -8.47115 0 -2.61327 0 0 0 8.32223 0 81.8173 32.175 7.95139e-15 -21.5967 2.24354 4.02355 0.0144416 
26.9349 18.474 9.43357 0 0 0 0 0 0 -44.9274 -26.7818 -9.15104 -26.7968 0 -104.558 0 0 0 0 0 0 -8.47115 0 -2.61327 0 0 0 8.32223 0 81.7636 32.175 -7.95139e-15 -21.5967 2.24354 3.69856 0.104575 
26.9349 18.474 9.43357 0 0 0 0 0 0 -44.9274 -26.4094 -10.2607 -26.7968 0 -104.558 0 0 0 0 0 0 -8.47115 0 -2.61327 0 0 0 8.32223 0 81.7636 32.175 0 -21.5967 2.24354 3.76134 0.0871647 
29.5014 16.973 89.3192 0 0 0 0 0 0 -51.1975 -32.1987 -86.7754 -26.0215 0 -105.726 0 0 0 0 0 0 -9.11234 0 -2.84216 0 0 0 9.04834 0 80.9085 32.9811 -6.36111e-15 0.983854 1.44664 3.82412 -0.203874 
29.5014 16.973 89.32 0 0 0 0 0 0 -51.1975 -31.7616 -88.1723 -26.0215 0 -105.734 0 0 0 0 0 0 -9.11234 0 -2.84216 0 0 0 9.04834 0 80.8883 32.9811 1.59028e-15 0.983854 1.44664 3.81277 -0.200689 
29.5014 16.973 89.32 0 0 0 0 0 0 -51.1975 -31.4226 -89.2469 -26.0215 0 -105.734 0 0 0 0 0 0 -9.11234 0 -2.84216 0 0 0 9.04834 0 80.8883 32.9811 1.11319e-14 0.983854 1.44664 3.87436 -0.217971 
29.5014 16.973 89.32 0 0 0 0 0 0 -51.1975 -31.0971 -90.278 -26.0215 0 -105.734 0 0 0 0 0 0 -9.11234 0 -2.84216 0 0 0 9.04834 0 80.8883 32.9811 0 0.983854 1.44664 3.93595 -0.235253 
19.2073 16.4463 -44.1486 0 0 0 0 0 0 -37.5745 -21.2941 61.9083 -25.9152 0 -108.106 0 0 0 0 0 0 -9.49128 0 -2.9746 0 0 0 9.46892 0 79.7736 28.0452 4.77083e-15 -12.7214 2.78936 3.99755 0.262432 
19.2073 16.4463 -44.1479 0 0 0 0 0 0 -37.5745 -21.0062 61.0309 -25.9152 0 -108.115 0 0 0 0 0 0 -9.49128 0 -2.9746 0 0 0 9.46892 0 79.7491 28.0452 -4.77083e-15 -12.7214 2.78936 3.97776 0.267793 
19.2073 16.4463 -44.1479 0 0 0 0 0 0 -37.5745 -20.7185 60.1621 -25.9152 0 -108.115 0 0 0 0 0 0 -9.49128 0 -2.9746 0 0 0 9.46892 0 79.7491 28.0452 3.18055e-15 -12.7214 2.78936 4.03812 0.251442 
20.2389 13.6389 26.7724 0 0 0 0 0 0 -39.4545 -23.9821 -40.2069 -22.1626 0 -76.5818 0 0 0 0 0 0 -8.70975 0 -2.67579 0 0 0 8.52332 0 57.3948 26.2076 7.95139e-15 -5.13332 2.80963 4.0985 0.230102 
20.2389 13.6389 26.7732 0 0 0 0 0 0 -39.4545 -23.4276 -41.9626 -22.1626 0 -76.594 0 0 0 0 0 0 -8.70975 0 -2.67579 0 0 0 8.52332 0 57.3637 26.2076 -7.95139e-15 -5.13332 2.80963 3.88858 0.287055 
20.2389 13.6389 26.7732 0 0 0 0 0 0 -39.4545 -23.1821 -42.7021 -22.1626 0 -76.594 0 0 0 0 0 0 -8.70975 0 -2.67579 0 0 0 8.52332 0 57.3637 26.2076 3.18055e-15 -5.13332 2.80963 3.94503 0.27174 
13.5326 11.3503 -30.6954 0 0 0 0 0 0 -31.2996 -18.5269 34.0164 -19.1528 0 -67.7374 0 0 0 0 0 0 -8.11473 0 -2.44744 0 0 0 7.80211 0 54.3952 20.7198 0 -13.832 4.59813 4.00148 0.925372 
13.5326 11.3503 -30.696 0 0 0 0 0 0 -31.2996 -18.2885 33.2942 -19.1528 0 -67.7239 0 0 0 0 0 0 -8.11473 0 -2.44744 0 0 0 7.80211 0 54.4289 20.7198 -9.54166e-15 -13.832 4.59813 3.97915 0.931165 
13.5326 11.3503 -30.696 0 0 0 0 0 0 -31.2996 -18.0809 32.683 -19.1528 0 -67.7239 0 0 0 0 0 0 -8.11473 0 -2.44744 0 0 0 7.80211 0 54.4289 20.7198 0 -13.832 4.59813 4.03451 0.916799 
13.5326 11.3503 -30.696 0 0 0 0 0 0 -31.2996 -17.8866 32.1119 -19.1528 0 -67.7239 0 0 0 0 0 0 -8.11473 0 -2.44744 0 0 0 7.80211 0 54.4289 20.7198 0 -13.832 4.59813 4.08987 0.902431 
14.125 8.0296 38.7484 0 0 0 0 0 0 -33.0397 -21.7551 -31.6365 -14.7431 0 -43.4094 0 0 0 0 0 0 -7.20256 0 -2.10232 0 0 0 6.71308 0 43.8959 17.33 6.36111e-15 -8.72905 5.45012 4.14524 1.18653 
14.125 8.0296 38.7473 0 0 0 0 0 0 -33.0397 -21.3529 -32.934 -14.7431 0 -43.3865 0 0 0 0 0 0 -7.20256 0 -2.10232 0 0 0 6.71308 0 43.952 17.33 -6.36111e-15 -8.72905 5.45012 3.98052 1.22853 
14.125 8.0296 38.7473 0 0 0 0 0 0 -33.0397 -21.1938 -33.4151 -14.7431 0 -43.3865 0 0 0 0 0 0 -7.20256 0 -2.10232 0 0 0 6.71308 0 43.952 17.33 -6.36111e-15 -8.72905 5.45012 4.03299 1.21515 
4.58453 6.0919 -66.3605 0 0 0 0 0 0 -21.0451 -13.0271 72.1501 -12.0669 0 -39.7738 0 0 0 0 0 0 -6.57436 0 -1.8682 0 0 0 5.97476 0 42.7996 13.2859 1.59028e-15 -10.2249 5.83771 4.08545 1.36377 
4.58453 6.0919 -66.3615 0 0 0 0 0 0 -21.0451 -12.9254 71.8717 -12.0669 0 -39.748 0 0 0 0 0 0 -6.57436 0 -1.8682 0 0 0 5.97476 0 42.8621 13.2859 6.36111e-15 -10.2249 5.83771 4.20012 1.33494 
4.58453 6.0919 -66.3615 0 0 0 0 0 0 -21.0451 -12.8018 71.5161 -12.0669 0 -39.748 0 0 0 0 0 0 -6.57436 0 -1.8682 0 0 0 5.97476 0 42.8621 13.2859 1.59028e-15 -10.2249 5.83771 4.25339 1.32155 
6.11599 3.65927 24.0011 0 0 0 0 0 0 -23.5073 -16.5668 -25.1711 -9.08152 0 -24.218 0 0 0 0 0 0 -6.09005 0 -1.69322 0 0 0 5.42228 0 44.5499 11.2283 -6.36111e-15 -5.38504 6.34705 4.30666 1.45865 
6.11599 3.65927 23.9993 0 0 0 0 0 0 -23.5073 -16.2235 -26.2691 -9.08152 0 -24.1783 0 0 0 0 0 0 -6.09005 0 -1.69322 0 0 0 5.42228 0 44.6456 11.2283 7.95139e-16 -5.38504 6.34705 4.12916 1.50303 
6.11599 3.65927 23.9993 0 0 0 0 0 0 -23.5073 -16.1269 -26.5546 -9.08152 0 -24.1783 0 0 0 0 0 0 -6.09005 0 -1.69322 0 0 0 5.42228 0 44.6456 11.2283 3.97569e-15 -5.38504 6.34705 4.1796 1.49042 
6.11599 3.65927 23.9993 0 0 0 0 0 0 -23.5073 -16.0393 -26.8124 -9.08152 0 -24.1783 0 0 0 0 0 0 -6.09005 0 -1.69322 0 0 0 5.42228 0 44.6456 11.2283 -3.97569e-15 -5.38504 6.34705 4.23005 1.4778 
-1.00965 2.75029 -66.8312 0 0 0 0 0 0 -14.3362 -9.3482 60.4913 -8.05412 0 -28.2706 0 0 0 0 0 0 -5.96229 0 -1.65628 0 0 0 5.30401 0 47.7599 8.41092 -4.77083e-15 -7.27363 6.87677 4.2805 1.65081 
-1.00965 2.75029 -66.8322 0 0 0 0 0 0 -14.3362 -9.28425 60.3102 -8.05412 0 -28.2493 0 0 0 0 0 0 -5.96229 0 -1.65628 0 0 0 5.30401 0 47.8112 8.41092 4.77083e-15 -7.27363 6.87677 4.33981 1.63615 
-1.00965 2.75029 -66.8322 0 0 0 0 0 0 -14.3362 -9.22208 60.1332 -8.05412 0 -28.2493 0 0 0 0 0 0 -5.96229 0 -1.65628 0 0 0 5.30401 0 47.8112 8.41092 6.36111e-15 -7.27363 6.87677 4.39037 1.62366 
2.85848 1.02123 33.4249 0 0 0 0 0 0 -19.7468 -14.6703 -41.958 -5.87347 0 -13.9369 0 0 0 0 0 0 -5.54222 0 -1.51385 0 0 0 4.85272 0 41.1403 8.3584 1.59028e-15 -0.398148 6.7601 4.44094 1.53211 
2.85848 1.02123 33.4241 0 0 0 0 0 0 -19.7468 -14.4843 -42.5489 -5.87347 0 -13.9242 0 0 0 0 0 0 -5.54222 0 -1.51385 0 0 0 4.85272 0 41.1707 8.3584 -1.59028e-15 -0.398148 6.7601 4.3551 1.55355 
2.85848 1.02123 33.4241 0 0 0 0 0 0 -19.7468 -14.4438 -42.667 -5.87347 0 -13.9242 0 0 0 0 0 0 -5.54222 0 -1.51385 0 0 0 4.85272 0 41.1707 8.3584 -7.95139e-15 -0.398148 6.7601 4.40413 1.54131 
-2.52972 1.33787 -59.4045 0 0 0 0 0 0 -12.2274 -8.38037 53.9933 -6.58938 0 -29.595 0 0 0 0 0 0 -5.83792 0 -1.64147 0 0 0 5.25185 0 52.3151 6.11764 -7.95139e-15 -5.97008 7.64952 4.45316 1.82492 
-2.52972 1.33787 -59.4055 0 0 0 0 0 0 -12.2274 -8.30598 53.7708 -6.58938 0 -29.5786 0 0 0 0 0 0 -5.83792 0 -1.64147 0 0 0 5.25185 0 52.3549 6.11764 3.18055e-15 -5.97008 7.64952 4.44572 1.82675 
-2.52972 1.33787 -59.4055 0 0 0 0 0 0 -12.2274 -8.29826 53.7529 -6.58938 0 -29.5786 0 0 0 0 0 0 -5.83792 0 -1.64147 0 0 0 5.25185 0 52.3549 6.11764 -7.95139e-16 -5.97008 7.64952 4.49415 1.81485 
-2.52972 1.33787 -59.4055 0 0 0 0 0 0 -12.2274 -8.32271 53.8309 -6.58938 0 -29.5786 0 0 0 0 0 0 -5.83792 0 -1.64147 0 0 0 5.25185 0 52.3549 6.11764 -7.95139e-16 -5.97008 7.64952 4.54257 1.80296 
2.84998 0.021339 48.0504 0 0 0 0 0 0 -19.5627 -15.0541 -55.3618 -4.80162 0 -12.1364 0 0 0 0 0 0 -5.39085 0 -1.49305 0 0 0 4.78097 0 37.0671 6.97565 -2.38542e-15 1.99955 7.37055 4.591 1.65554 
2.84998 0.021339 48.0508 0 0 0 0 0 0 -19.5627 -15.0017 -55.5303 -4.80162 0 -12.1421 0 0 0 0 0 0 -5.39085 0 -1.49305 0 0 0 4.78097 0 37.0532 6.97565 -7.15625e-15 1.99955 7.37055 4.56327 1.66245 
2.84998 0.021339 48.0508 0 0 0 0 0 0 -19.5627 -15.0254 -55.4503 -4.80162 0 -12.1421 0 0 0 0 0 0 -5.39085 0 -1.49305 0 0 0 4.78097 0 37.0532 6.97565 -3.18055e-15 1.99955 7.37055 4.6109 1.65058 
-2.20749 1.15248 -56.6287 0 0 0 0 0 0 -11.9867 -8.53531 57.3007 -6.49907 0 -35.1954 0 0 0 0 0 0 -5.82715 0 -1.67345 0 0 0 5.34691 0 51.7818 5.01191 7.95139e-16 -5.4214 8.32953 4.65854 1.95272 
-2.20749 1.15248 -56.6299 0 0 0 0 0 0 -11.9867 -8.49226 57.1692 -6.49907 0 -35.1816 0 0 0 0 0 0 -5.82715 0 -1.67345 0 0 0 5.34691 0 51.8154 5.01191 0 -5.4214 8.32953 4.63595 1.95825 
-2.20749 1.15248 -56.6299 0 0 0 0 0 0 -11.9867 -8.51446 57.241 -6.49907 0 -35.1816 0 0 0 0 0 0 -5.82715 0 -1.67345 0 0 0 5.34691 0 51.8154 5.01191 6.36111e-15 -5.4214 8.32953 4.68288 1.94675 
3.96092 -0.102949 59.8545 0 0 0 0 0 0 -20.4835 -16.0592 -64.2287 -4.63006 0 -12.2819 0 0 0 0 0 0 -5.25434 0 -1.48003 0 0 0 4.7336 0 31.5537 6.21077 7.95139e-15 3.00157 8.07814 4.72981 1.81173 
3.96092 -0.102949 59.8556 0 0 0 0 0 0 -20.4835 -16.0234 -64.3442 -4.63006 0 -12.2935 0 0 0 0 0 0 -5.25434 0 -1.48003 0 0 0 4.7336 0 31.5255 6.21077 7.15625e-15 3.00157 8.07814 4.71881 1.81446 
3.96092 -0.102949 59.8556 0 0 0 0 0 0 -20.4835 -16.0451 -64.2711 -4.63006 0 -12.2935 0 0 0 0 0 0 -5.25434 0 -1.48003 0 0 0 4.7336 0 31.5255 6.21077 -2.38542e-15 3.00157 8.07814 4.76518 1.80294 
3.96092 -0.102949 59.8556 0 0 0 0 0 0 -20.4835 -16.0669 -64.1979 -4.63006 0 -12.2935 0 0 0 0 0 0 -5.25434 0 -1.48003 0 0 0 4.7336 0 31.5255 6.21077 -7.95139e-15 3.00157 8.07814 4.81155 1.79143 
0 0 -2.28619 12.1302 13.992 -54.7797 0 0 0 0 0 0 -6.62848 0 -35.3679 -4.40249 0 5.87539 0 0 0 -5.68149 0 -1.6547 -9.58223 0 -52.4477 5.28242 0 57.1726 0 0 0 8.9985 0 3.01343 
0 0 -2.28451 12.1302 13.992 -54.8268 0 0 0 0 0 0 -6.62848 0 -35.4951 -4.40249 0 5.66653 0 0 0 -5.68149 0 -1.6547 -9.58223 0 -52.8304 5.28242 0 56.8751 0 0 0 8.9985 0 3.01343 
0 0 -2.28451 12.1302 13.992 -54.8268 0 0 0 0 0 0 -6.62848 0 -35.4951 -4.40249 0 5.66653 0 0 0 -5.68149 0 -1.6547 -9.58223 0 -52.8304 5.28242 0 56.8751 0 0 0 8.9985 0 3.01343 
0 0 -2.17843 21.0236 16.1226 84.0481 0 0 0 0 0 0 -4.73234 0 -8.18357 -8.13142 0 -48.436 0 0 0 -4.90079 0 -1.38324 -7.98667 0 -5.94125 4.42277 0 36.7037 0 0 0 7.52347 0 2.51151 
0 0 -2.17926 21.0236 16.1226 84.0512 0 0 0 0 0 0 -4.73234 0 -8.17775 -8.13142 0 -48.4231 0 0 0 -4.90079 0 -1.38324 -7.98667 0 -5.91836 4.42277 0 36.7183 0 0 0 7.52347 0 2.51151 
0 0 -2.17926 21.0236 16.1226 84.0512 0 0 0 0 0 0 -4.73234 0 -8.17775 -8.13142 0 -48.4231 0 0 0 -4.90079 0 -1.38324 -7.98667 0 -5.91836 4.42277 0 36.7183 0 0 0 7.52347 0 2.51151 
