alexis-jensen/Push-Recovery/PushRecovery/log/torques2100.txt
q0 qdot0 tau0 q1 qdot1 tau1 q2 qdot2 tau2 q3 qdot3 tau3 q4 qdot4 tau4 q5 qdot5 tau5 q6 qdot6 tau6 q7 qdot7 tau7 q8 qdot8 tau8 q9 qdot9 tau9 q10 qdot10 tau10 q11 qdot11 tau11 
0 0 0 0 0 0 0 0 0 0 0 0 0 0 0 0 0 0 0 0 0 0 0 0 0 0 0 0 0 0 0 0 0 0 0 0 
0 0 0 0 0 0 0 0 0 0 0 0 0 0 0 0 0 0 0 0 0 0 0 0 0 0 0 0 0 0 0 0 0 0 0 0 
0 0 0 0 0 0 0 0 0 0 0 0 0 0 0 0 0 0 0 0 0 0 0 0 0 0 0 0 0 0 0 0 0 0 0 0 
0 0 0 0 0 0 0 0 0 0 0 0 0 0 0 0 0 0 0 0 0 0 0 0 0 0 0 0 0 0 0 0 0 0 0 0 
0 0 0 0 0 0 0 0 0 0 0 0 0 0 0 0 0 0 0 0 0 0 0 0 0 0 0 0 0 0 0 0 0 0 0 0 
0 0 0.961034 0.411179 1.39252 -4.3091 0 0 0 0 0 0 0.550478 0 10.843 0.507655 0 7.94363 0 0 0 0.847034 0 0.269064 -1.90056 0 -40.0971 -0.856252 0 -12.7782 0 0 0 1.91422 0 0.596959 
0 0 0.909597 0.411179 1.39252 -4.24455 0 0 0 0 0 0 0.550478 0 10.8492 0.507655 0 8.17624 0 0 0 0.847034 0 0.269064 -1.90056 0 -39.7331 -0.856252 0 -12.6468 0 0 0 1.91422 0 0.596959 
0 0 0.909597 0.411179 1.39252 -4.24455 0 0 0 0 0 0 0.550478 0 10.8492 0.507655 0 8.17624 0 0 0 0.847034 0 0.269064 -1.90056 0 -39.7331 -0.856252 0 -12.6468 0 0 0 1.91422 0 0.596959 
0 0 1.75156 5.70819 3.31191 41.9539 0 0 0 0 0 0 -0.684546 0 -6.00027 -0.697518 0 -10.8344 0 0 0 0.801829 0 0.25836 -2.6149 0 -24.5947 -0.822065 0 5.43367 0 0 0 2.64377 0 0.821328 
0 0 1.68851 5.70819 3.31191 42.0146 0 0 0 0 0 0 -0.684546 0 -6.04603 -0.697518 0 -10.6437 0 0 0 0.801829 0 0.25836 -2.6149 0 -24.3192 -0.822065 0 5.46124 0 0 0 2.64377 0 0.821328 
0 0 1.68851 5.70819 3.31191 42.0146 0 0 0 0 0 0 -0.684546 0 -6.04603 -0.697518 0 -10.6437 0 0 0 0.801829 0 0.25836 -2.6149 0 -24.3192 -0.822065 0 5.46124 0 0 0 2.64377 0 0.821328 
0 0 1.68851 5.70819 3.31191 42.0146 0 0 0 0 0 0 -0.684546 0 -6.04603 -0.697518 0 -10.6437 0 0 0 0.801829 0 0.25836 -2.6149 0 -24.3192 -0.822065 0 5.46124 0 0 0 2.64377 0 0.821328 
0 0 2.45365 3.64893 5.00487 -20.3979 0 0 0 0 0 0 -2.18575 0 -14.5674 -2.00958 0 -19.6947 0 0 0 0.557136 0 0.184189 -2.99582 0 -22.9221 -0.585892 0 11.4907 0 0 0 3.03523 0 0.940991 
0 0 2.38221 3.64893 5.00487 -20.3454 0 0 0 0 0 0 -2.18575 0 -14.6621 -2.00958 0 -19.558 0 0 0 0.557136 0 0.184189 -2.99582 0 -22.7563 -0.585892 0 11.4096 0 0 0 3.03523 0 0.940991 
0 0 2.38221 3.64893 5.00487 -20.3454 0 0 0 0 0 0 -2.18575 0 -14.6621 -2.00958 0 -19.558 0 0 0 0.557136 0 0.184189 -2.99582 0 -22.7563 -0.585892 0 11.4096 0 0 0 3.03523 0 0.940991 
0 0 -1.09054 8.90027 6.55193 44.1833 0 0 0 0 0 0 -2.85288 0 -17.5226 -3.37524 0 -22.114 0 0 0 0.396533 0 0.136387 -3.17725 0 -15.2727 -0.433616 0 5.30534 0 0 0 3.22207 0 0.998018 
0 0 -1.05508 8.90027 6.55193 44.1528 0 0 0 0 0 0 -2.85288 0 -17.499 -3.37524 0 -22.2142 0 0 0 0.396533 0 0.136387 -3.17725 0 -15.4148 -0.433616 0 5.29669 0 0 0 3.22207 0 0.998018 
0 0 -1.05508 8.90027 6.55193 44.1528 0 0 0 0 0 0 -2.85288 0 -17.499 -3.37524 0 -22.2142 0 0 0 0.396533 0 0.136387 -3.17725 0 -15.4148 -0.433616 0 5.29669 0 0 0 3.22207 0 0.998018 
0 0 -0.0183732 3.48941 6.90596 -50.5288 0 0 0 0 0 0 -4.23286 0 -28.1116 -3.27503 0 -12.4231 0 0 0 0.0502231 0 0.0282428 -3.63145 0 -25.9063 -0.0893927 0 11.7628 0 0 0 3.69043 0 1.14068 
0 0 -0.0168292 3.48941 6.90596 -50.532 0 0 0 0 0 0 -4.23286 0 -28.1182 -3.27503 0 -12.4382 0 0 0 0.0502231 0 0.0282428 -3.63145 0 -25.9331 -0.0893927 0 11.7454 0 0 0 3.69043 0 1.14068 
0 0 -0.0168292 3.48941 6.90596 -50.532 0 0 0 0 0 0 -4.23286 0 -28.1182 -3.27503 0 -12.4382 0 0 0 0.0502231 0 0.0282428 -3.63145 0 -25.9331 -0.0893927 0 11.7454 0 0 0 3.69043 0 1.14068 
0 0 -0.0168292 3.48941 6.90596 -50.532 0 0 0 0 0 0 -4.23286 0 -28.1182 -3.27503 0 -12.4382 0 0 0 0.0502231 0 0.0282428 -3.63145 0 -25.9331 -0.0893927 0 11.7454 0 0 0 3.69043 0 1.14068 
0 0 -0.115441 8.28769 7.76587 30.3783 0 0 0 0 0 0 -3.6115 0 -11.2094 -4.09606 0 -24.1182 0 0 0 0.219868 0 0.0863714 -3.67027 0 -19.4053 -0.274086 0 2.29927 0 0 0 3.73028 0 1.15291 
0 0 -0.114916 8.28769 7.76587 30.3765 0 0 0 0 0 0 -3.6115 0 -11.2147 -4.09606 0 -24.1279 0 0 0 0.219868 0 0.0863714 -3.67027 0 -19.423 -0.274086 0 2.28632 0 0 0 3.73028 0 1.15291 
0 0 -0.114916 8.28769 7.76587 30.3765 0 0 0 0 0 0 -3.6115 0 -11.2147 -4.09606 0 -24.1279 0 0 0 0.219868 0 0.0863714 -3.67027 0 -19.423 -0.274086 0 2.28632 0 0 0 3.73028 0 1.15291 
0 0 -0.0753926 4.47643 8.04116 -42.1035 0 0 0 0 0 0 -4.58049 0 -26.8602 -4.12832 0 -18.0887 0 0 0 -0.101195 0 -0.0146329 -3.91328 0 -24.5325 0.0473733 0 12.3448 0 0 0 3.98187 0 1.22924 
0 0 -0.0758147 4.47643 8.04116 -42.1022 0 0 0 0 0 0 -4.58049 0 -26.8567 -4.12832 0 -18.0822 0 0 0 -0.101195 0 -0.0146329 -3.91328 0 -24.5207 0.0473733 0 12.3532 0 0 0 3.98187 0 1.22924 
0 0 -0.0758147 4.47643 8.04116 -42.1022 0 0 0 0 0 0 -4.58049 0 -26.8567 -4.12832 0 -18.0822 0 0 0 -0.101195 0 -0.0146329 -3.91328 0 -24.5207 0.0473733 0 12.3532 0 0 0 3.98187 0 1.22924 
0 0 -0.245434 8.86216 8.3814 27.8705 0 0 0 0 0 0 -4.03575 0 -14.014 -4.36033 0 -20.8053 0 0 0 0.0275639 0 0.0300151 -4.02148 0 -23.0688 -0.0944233 0 4.10195 0 0 0 4.094 0 1.26324 
0 0 -0.244843 8.86216 8.3814 27.8687 0 0 0 0 0 0 -4.03575 0 -14.0187 -4.36033 0 -20.8143 0 0 0 0.0275639 0 0.0300151 -4.02148 0 -23.085 -0.0944233 0 4.09045 0 0 0 4.094 0 1.26324 
0 0 -0.244843 8.86216 8.3814 27.8687 0 0 0 0 0 0 -4.03575 0 -14.0187 -4.36033 0 -20.8143 0 0 0 0.0275639 0 0.0300151 -4.02148 0 -23.085 -0.0944233 0 4.09045 0 0 0 4.094 0 1.26324 
0 0 -0.244843 8.86216 8.3814 27.8687 0 0 0 0 0 0 -4.03575 0 -14.0187 -4.36033 0 -20.8143 0 0 0 0.0275639 0 0.0300151 -4.02148 0 -23.085 -0.0944233 0 4.09045 0 0 0 4.094 0 1.26324 
0 0 -0.198201 5.20342 8.40717 -39.1522 0 0 0 0 0 0 -4.75616 0 -25.9883 -4.18814 0 -16.5592 0 0 0 -0.19306 0 -0.0394119 -4.21942 0 -25.7686 0.126539 0 11.3931 0 0 0 4.29969 0 1.32541 
0 0 -0.199103 5.20342 8.40717 -39.1494 0 0 0 0 0 0 -4.75616 0 -25.981 -4.18814 0 -16.5453 0 0 0 -0.19306 0 -0.0394119 -4.21942 0 -25.7434 0.126539 0 11.4109 0 0 0 4.29969 0 1.32541 
0 0 -0.199103 5.20342 8.40717 -39.1494 0 0 0 0 0 0 -4.75616 0 -25.981 -4.18814 0 -16.5453 0 0 0 -0.19306 0 -0.0394119 -4.21942 0 -25.7434 0.126539 0 11.4109 0 0 0 4.29969 0 1.32541 
0 0 -0.362326 9.70186 8.56526 32.6976 0 0 0 0 0 0 -3.94468 0 -11.7363 -4.27221 0 -18.7968 0 0 0 0.0239432 0 0.0335824 -4.29341 0 -23.9882 -0.105397 0 2.90594 0 0 0 4.37664 0 1.34865 
0 0 -0.362216 9.70186 8.56526 32.6972 0 0 0 0 0 0 -3.94468 0 -11.7373 -4.27221 0 -18.7987 0 0 0 0.0239432 0 0.0335824 -4.29341 0 -23.9918 -0.105397 0 2.9034 0 0 0 4.37664 0 1.34865 
0 0 -0.362216 9.70186 8.56526 32.6972 0 0 0 0 0 0 -3.94468 0 -11.7373 -4.27221 0 -18.7987 0 0 0 0.0239432 0 0.0335824 -4.29341 0 -23.9918 -0.105397 0 2.9034 0 0 0 4.37664 0 1.34865 
0 0 -0.286158 5.84914 8.41261 -36.0667 0 0 0 0 0 0 -4.47811 0 -23.1203 -3.94725 0 -13.5976 0 0 0 -0.152209 0 -0.0221432 -4.4657 0 -26.4735 0.0719323 0 10.7428 0 0 0 4.55609 0 1.40275 
0 0 -0.287459 5.84914 8.41261 -36.0626 0 0 0 0 0 0 -4.47811 0 -23.1096 -3.94725 0 -13.5772 0 0 0 -0.152209 0 -0.0221432 -4.4657 0 -26.4364 0.0719323 0 10.7691 0 0 0 4.55609 0 1.40275 
0 0 -0.287459 5.84914 8.41261 -36.0626 0 0 0 0 0 0 -4.47811 0 -23.1096 -3.94725 0 -13.5772 0 0 0 -0.152209 0 -0.0221432 -4.4657 0 -26.4364 0.0719323 0 10.7691 0 0 0 4.55609 0 1.40275 
0 0 -0.287459 5.84914 8.41261 -36.0626 0 0 0 0 0 0 -4.47811 0 -23.1096 -3.94725 0 -13.5772 0 0 0 -0.152209 0 -0.0221432 -4.4657 0 -26.4364 0.0719323 0 10.7691 0 0 0 4.55609 0 1.40275 
0 0 -0.45864 10.1127 8.46689 34.8398 0 0 0 0 0 0 -3.58355 0 -9.21674 -3.97839 0 -16.234 0 0 0 0.0655352 0 0.0507161 -4.48882 0 -23.6833 -0.159572 0 3.04125 0 0 0 4.58019 0 1.41002 
0 0 -0.458806 10.1127 8.46689 34.8403 0 0 0 0 0 0 -3.58355 0 -9.21561 -3.97839 0 -16.2317 0 0 0 0.0655352 0 0.0507161 -4.48882 0 -23.6792 -0.159572 0 3.04403 0 0 0 4.58019 0 1.41002 
0 0 -0.458806 10.1127 8.46689 34.8403 0 0 0 0 0 0 -3.58355 0 -9.21561 -3.97839 0 -16.2317 0 0 0 0.0655352 0 0.0507161 -4.48882 0 -23.6792 -0.159572 0 3.04403 0 0 0 4.58019 0 1.41002 
0 0 -0.373392 5.99069 8.24411 -35.3207 0 0 0 0 0 0 -4.10239 0 -20.9095 -3.63723 0 -11.2296 0 0 0 -0.136497 0 -0.0141465 -4.60718 0 -25.6979 0.046744 0 11.4945 0 0 0 4.7036 0 1.44719 
0 0 -0.374692 5.99069 8.24411 -35.3165 0 0 0 0 0 0 -4.10239 0 -20.8985 -3.63723 0 -11.2088 0 0 0 -0.136497 0 -0.0141465 -4.60718 0 -25.66 0.046744 0 11.5212 0 0 0 4.7036 0 1.44719 
0 0 -0.374692 5.99069 8.24411 -35.3165 0 0 0 0 0 0 -4.10239 0 -20.8985 -3.63723 0 -11.2088 0 0 0 -0.136497 0 -0.0141465 -4.60718 0 -25.66 0.046744 0 11.5212 0 0 0 4.7036 0 1.44719 
0 0 -0.534375 9.99555 8.26194 34.1978 0 0 0 0 0 0 -3.26019 0 -7.79979 -3.68433 0 -14.2612 0 0 0 0.0413651 0 0.0452927 -4.57789 0 -22.6155 -0.142112 0 4.25777 0 0 0 4.67306 0 1.438 
0 0 -0.534404 9.99555 8.26194 34.1978 0 0 0 0 0 0 -3.26019 0 -7.7998 -3.68433 0 -14.2611 0 0 0 0.0413651 0 0.0452927 -4.57789 0 -22.6154 -0.142112 0 4.25779 0 0 0 4.67306 0 1.438 
0 0 -0.534404 9.99555 8.26194 34.1978 0 0 0 0 0 0 -3.26019 0 -7.7998 -3.68433 0 -14.2611 0 0 0 0.0413651 0 0.0452927 -4.57789 0 -22.6154 -0.142112 0 4.25779 0 0 0 4.67306 0 1.438 
0 0 -0.534404 9.99555 8.26194 34.1978 0 0 0 0 0 0 -3.26019 0 -7.7998 -3.68433 0 -14.2611 0 0 0 0.0413651 0 0.0452927 -4.57789 0 -22.6154 -0.142112 0 4.25779 0 0 0 4.67306 0 1.438 
0 0 -0.437026 5.77373 8.04421 -35.7678 0 0 0 0 0 0 -3.83537 0 -19.7904 -3.40035 0 -9.9806 0 0 0 -0.19277 0 -0.030616 -4.64413 0 -24.3959 0.0992707 0 12.7353 0 0 0 4.74216 0 1.45879 
0 0 -0.438078 5.77373 8.04421 -35.7642 0 0 0 0 0 0 -3.83537 0 -19.7812 -3.40035 0 -9.96337 0 0 0 -0.19277 0 -0.030616 -4.64413 0 -24.3645 0.0992707 0 12.7575 0 0 0 4.74216 0 1.45879 
0 0 -0.438078 5.77373 8.04421 -35.7642 0 0 0 0 0 0 -3.83537 0 -19.7812 -3.40035 0 -9.96337 0 0 0 -0.19277 0 -0.030616 -4.64413 0 -24.3645 0.0992707 0 12.7575 0 0 0 4.74216 0 1.45879 
0 0 -0.570419 9.6911 8.06364 33.154 0 0 0 0 0 0 -3.05989 0 -7.14854 -3.47912 0 -13.1119 0 0 0 -0.0376535 0 0.0210783 -4.58476 0 -21.6679 -0.0649872 0 5.43932 0 0 0 4.68022 0 1.44016 
0 0 -0.570187 9.6911 8.06364 33.1531 0 0 0 0 0 0 -3.05989 0 -7.15078 -3.47912 0 -13.116 0 0 0 -0.0376535 0 0.0210783 -4.58476 0 -21.6754 -0.0649872 0 5.43396 0 0 0 4.68022 0 1.44016 
0 0 -0.570187 9.6911 8.06364 33.1531 0 0 0 0 0 0 -3.05989 0 -7.15078 -3.47912 0 -13.116 0 0 0 -0.0376535 0 0.0210783 -4.58476 0 -21.6754 -0.0649872 0 5.43396 0 0 0 4.68022 0 1.44016 
0 0 -0.465168 5.51097 7.87032 -36.0324 0 0 0 0 0 0 -3.68418 0 -19.2754 -3.24538 0 -9.3324 0 0 0 -0.279308 0 -0.0576675 -4.62517 0 -23.4714 0.185383 0 13.6478 0 0 0 4.72238 0 1.45285 
0 0 -0.465994 5.51097 7.87032 -36.0296 0 0 0 0 0 0 -3.68418 0 -19.2681 -3.24538 0 -9.31859 0 0 0 -0.279308 0 -0.0576675 -4.62517 0 -23.4463 0.185383 0 13.6656 0 0 0 4.72238 0 1.45285 
0 0 -0.465994 5.51097 7.87032 -36.0296 0 0 0 0 0 0 -3.68418 0 -19.2681 -3.24538 0 -9.31859 0 0 0 -0.279308 0 -0.0576675 -4.62517 0 -23.4463 0.185383 0 13.6656 0 0 0 4.72238 0 1.45285 
0 0 -0.465994 5.51097 7.87032 -36.0296 0 0 0 0 0 0 -3.68418 0 -19.2681 -3.24538 0 -9.31859 0 0 0 -0.279308 0 -0.0576675 -4.62517 0 -23.4463 0.185383 0 13.6656 0 0 0 4.72238 0 1.45285 
0 0 -0.580435 9.48661 7.90497 33.1844 0 0 0 0 0 0 -2.9329 0 -6.63256 -3.34688 0 -12.461 0 0 0 -0.117436 0 -0.00395828 -4.5583 0 -21.1469 0.0147002 0 6.02885 0 0 0 4.6526 0 1.43186 
0 0 -0.580029 9.48661 7.90497 33.1829 0 0 0 0 0 0 -2.9329 0 -6.63633 -3.34688 0 -12.468 0 0 0 -0.117436 0 -0.00395828 -4.5583 0 -21.1596 0.0147002 0 6.0198 0 0 0 4.6526 0 1.43186 
0 0 -0.580029 9.48661 7.90497 33.1829 0 0 0 0 0 0 -2.9329 0 -6.63633 -3.34688 0 -12.468 0 0 0 -0.117436 0 -0.00395828 -4.5583 0 -21.1596 0.0147002 0 6.0198 0 0 0 4.6526 0 1.43186 
0 0 -0.475161 5.40711 7.73046 -35.2457 0 0 0 0 0 0 -3.56868 0 -18.7348 -3.1349 0 -8.82067 0 0 0 -0.347114 0 -0.0790211 -4.59577 0 -23.0624 0.253343 0 14.0242 0 0 0 4.69169 0 1.44362 
0 0 -0.475879 5.40711 7.73046 -35.2432 0 0 0 0 0 0 -3.56868 0 -18.7283 -3.1349 0 -8.80845 0 0 0 -0.347114 0 -0.0790211 -4.59577 0 -23.0402 0.253343 0 14.0399 0 0 0 4.69169 0 1.44362 
0 0 -0.475879 5.40711 7.73046 -35.2432 0 0 0 0 0 0 -3.56868 0 -18.7283 -3.1349 0 -8.80845 0 0 0 -0.347114 0 -0.0790211 -4.59577 0 -23.0402 0.253343 0 14.0399 0 0 0 4.69169 0 1.44362 
0 0 -0.583814 9.45659 7.77175 34.2163 0 0 0 0 0 0 -2.81178 0 -5.97335 -3.23647 0 -11.8128 0 0 0 -0.168815 0 -0.0200647 -4.53548 0 -21.0034 0.0659664 0 6.20198 0 0 0 4.62877 0 1.4247 
0 0 -0.583353 9.45659 7.77175 34.2147 0 0 0 0 0 0 -2.81178 0 -5.97766 -3.23647 0 -11.8208 0 0 0 -0.168815 0 -0.0200647 -4.53548 0 -21.0179 0.0659664 0 6.19163 0 0 0 4.62877 0 1.4247 
0 0 -0.583353 9.45659 7.77175 34.2147 0 0 0 0 0 0 -2.81178 0 -5.97766 -3.23647 0 -11.8208 0 0 0 -0.168815 0 -0.0200647 -4.53548 0 -21.0179 0.0659664 0 6.19163 0 0 0 4.62877 0 1.4247 
0 0 -0.583353 9.45659 7.77175 34.2147 0 0 0 0 0 0 -2.81178 0 -5.97766 -3.23647 0 -11.8208 0 0 0 -0.168815 0 -0.0200647 -4.53548 0 -21.0179 0.0659664 0 6.19163 0 0 0 4.62877 0 1.4247 
0 0 -0.479743 5.43338 7.59995 -33.944 0 0 0 0 0 0 -3.44239 0 -18.0429 -3.02128 0 -8.12489 0 0 0 -0.386252 0 -0.0912869 -4.57886 0 -22.9489 0.292386 0 14.1672 0 0 0 4.67404 0 1.43832 
0 0 -0.480436 5.43338 7.59995 -33.9415 0 0 0 0 0 0 -3.44239 0 -18.0365 -3.02128 0 -8.11289 0 0 0 -0.386252 0 -0.0912869 -4.57886 0 -22.9271 0.292386 0 14.1827 0 0 0 4.67404 0 1.43832 
0 0 -0.480436 5.43338 7.59995 -33.9415 0 0 0 0 0 0 -3.44239 0 -18.0365 -3.02128 0 -8.11289 0 0 0 -0.386252 0 -0.0912869 -4.57886 0 -22.9271 0.292386 0 14.1827 0 0 0 4.67404 0 1.43832 
0 0 -0.585819 9.49476 7.63514 35.3598 0 0 0 0 0 0 -2.67626 0 -5.21852 -3.10979 0 -10.9795 0 0 0 -0.197952 0 -0.029166 -4.52553 0 -20.9724 0.0949386 0 6.31007 0 0 0 4.61838 0 1.42157 
0 0 -0.585352 9.49476 7.63514 35.3581 0 0 0 0 0 0 -2.67626 0 -5.22293 -3.10979 0 -10.9877 0 0 0 -0.197952 0 -0.029166 -4.52553 0 -20.9873 0.0949386 0 6.29949 0 0 0 4.61838 0 1.42157 
0 0 -0.585352 9.49476 7.63514 35.3581 0 0 0 0 0 0 -2.67626 0 -5.22293 -3.10979 0 -10.9877 0 0 0 -0.197952 0 -0.029166 -4.52553 0 -20.9873 0.0949386 0 6.29949 0 0 0 4.61838 0 1.42157 
0 0 -0.481601 5.46852 7.45724 -32.8279 0 0 0 0 0 0 -3.30207 0 -17.2832 -2.88729 0 -7.2903 0 0 0 -0.41141 0 -0.0992241 -4.57013 0 -22.8184 0.317646 0 14.3427 0 0 0 4.66492 0 1.43558 
0 0 -0.482283 5.46852 7.45724 -32.8255 0 0 0 0 0 0 -3.30207 0 -17.2768 -2.88729 0 -7.27837 0 0 0 -0.41141 0 -0.0992241 -4.57013 0 -22.7967 0.317646 0 14.358 0 0 0 4.66492 0 1.43558 
0 0 -0.482283 5.46852 7.45724 -32.8255 0 0 0 0 0 0 -3.30207 0 -17.2768 -2.88729 0 -7.27837 0 0 0 -0.41141 0 -0.0992241 -4.57013 0 -22.7967 0.317646 0 14.358 0 0 0 4.66492 0 1.43558 
0 0 -0.482283 5.46852 7.45724 -32.8255 0 0 0 0 0 0 -3.30207 0 -17.2768 -2.88729 0 -7.27837 0 0 0 -0.41141 0 -0.0992241 -4.57013 0 -22.7967 0.317646 0 14.358 0 0 0 4.66492 0 1.43558 
0 0 -0.585184 9.49668 7.48139 36.1273 0 0 0 0 0 0 -2.53116 0 -4.44272 -2.96501 0 -10.075 0 0 0 -0.222153 0 -0.0369005 -4.51656 0 -20.8353 0.119543 0 6.52064 0 0 0 4.60899 0 1.41876 
0 0 -0.584696 9.49668 7.48139 36.1255 0 0 0 0 0 0 -2.53116 0 -4.44737 -2.96501 0 -10.0836 0 0 0 -0.222153 0 -0.0369005 -4.51656 0 -20.851 0.119543 0 6.50951 0 0 0 4.60899 0 1.41876 
0 0 -0.584696 9.49668 7.48139 36.1255 0 0 0 0 0 0 -2.53116 0 -4.44737 -2.96501 0 -10.0836 0 0 0 -0.222153 0 -0.0369005 -4.51656 0 -20.851 0.119543 0 6.50951 0 0 0 4.60899 0 1.41876 
0 0 -0.480794 5.44474 7.29627 -32.0888 0 0 0 0 0 0 -3.15566 0 -16.5247 -2.74173 0 -6.46343 0 0 0 -0.43914 0 -0.108235 -4.5547 0 -22.5342 0.346298 0 14.6381 0 0 0 4.64879 0 1.43074 
0 0 -0.481437 5.44474 7.29627 -32.0864 0 0 0 0 0 0 -3.15566 0 -16.5186 -2.74173 0 -6.45207 0 0 0 -0.43914 0 -0.108235 -4.5547 0 -22.5136 0.346298 0 14.6527 0 0 0 4.64879 0 1.43074 
0 0 -0.481437 5.44474 7.29627 -32.0864 0 0 0 0 0 0 -3.15566 0 -16.5186 -2.74173 0 -6.45207 0 0 0 -0.43914 0 -0.108235 -4.5547 0 -22.5136 0.346298 0 14.6527 0 0 0 4.64879 0 1.43074 
0 0 -0.580886 9.43303 7.30897 36.5493 0 0 0 0 0 0 -2.3821 0 -3.67155 -2.81411 0 -9.21165 0 0 0 -0.254748 0 -0.0476143 -4.49502 0 -20.5537 0.153599 0 6.8513 0 0 0 4.58647 0 1.412 
0 0 -0.580342 9.43303 7.30897 36.5473 0 0 0 0 0 0 -2.3821 0 -3.67675 -2.81411 0 -9.22131 0 0 0 -0.254748 0 -0.0476143 -4.49502 0 -20.5712 0.153599 0 6.83886 0 0 0 4.58647 0 1.412 
0 0 -0.580342 9.43303 7.30897 36.5473 0 0 0 0 0 0 -2.3821 0 -3.67675 -2.81411 0 -9.22131 0 0 0 -0.254748 0 -0.0476143 -4.49502 0 -20.5712 0.153599 0 6.83886 0 0 0 4.58647 0 1.412 
0 0 -0.580342 9.43303 7.30897 36.5473 0 0 0 0 0 0 -2.3821 0 -3.67675 -2.81411 0 -9.22131 0 0 0 -0.254748 0 -0.0476143 -4.49502 0 -20.5712 0.153599 0 6.83886 0 0 0 4.58647 0 1.412 
0 0 -0.477686 5.35728 7.11613 -31.6205 0 0 0 0 0 0 -3.00733 0 -15.7926 -2.59339 0 -5.68731 0 0 0 -0.479659 0 -0.121639 -4.5229 0 -22.1291 0.388905 0 15.0476 0 0 0 4.61554 0 1.42075 
0 0 -0.478261 5.35728 7.11613 -31.6184 0 0 0 0 0 0 -3.00733 0 -15.7871 -2.59339 0 -5.67707 0 0 0 -0.479659 0 -0.121639 -4.5229 0 -22.1104 0.388905 0 15.0608 0 0 0 4.61554 0 1.42075 
0 0 -0.478261 5.35728 7.11613 -31.6184 0 0 0 0 0 0 -3.00733 0 -15.7871 -2.59339 0 -5.67707 0 0 0 -0.479659 0 -0.121639 -4.5229 0 -22.1104 0.388905 0 15.0608 0 0 0 4.61554 0 1.42075 
0 0 -0.572907 9.31328 7.11656 36.7696 0 0 0 0 0 0 -2.23052 0 -2.90578 -2.66155 0 -8.39657 0 0 0 -0.302584 0 -0.0635144 -4.45516 0 -20.1841 0.204125 0 7.2738 0 0 0 4.54478 0 1.39949 
0 0 -0.572282 9.31328 7.11656 36.7673 0 0 0 0 0 0 -2.23052 0 -2.91173 -2.66155 0 -8.40763 0 0 0 -0.302584 0 -0.0635144 -4.45516 0 -20.2042 0.204125 0 7.25956 0 0 0 4.54478 0 1.39949 
0 0 -0.572282 9.31328 7.11656 36.7673 0 0 0 0 0 0 -2.23052 0 -2.91173 -2.66155 0 -8.40763 0 0 0 -0.302584 0 -0.0635144 -4.45516 0 -20.2042 0.204125 0 7.25956 0 0 0 4.54478 0 1.39949 
0 0 -0.47195 5.2176 6.91426 -31.3271 0 0 0 0 0 0 -2.85673 0 -15.0809 -2.44204 0 -4.93659 0 0 0 -0.537106 0 -0.14075 -4.47236 0 -21.668 0.449639 0 15.5413 0 0 0 4.56269 0 1.40489 
0 0 -0.472445 5.2176 6.91426 -31.3253 0 0 0 0 0 0 -2.85673 0 -15.0761 -2.44204 0 -4.92772 0 0 0 -0.537106 0 -0.14075 -4.47236 0 -21.6518 0.449639 0 15.5528 0 0 0 4.56269 0 1.40489 
0 0 -0.472445 5.2176 6.91426 -31.3253 0 0 0 0 0 0 -2.85673 0 -15.0761 -2.44204 0 -4.92772 0 0 0 -0.537106 0 -0.14075 -4.47236 0 -21.6518 0.449639 0 15.5528 0 0 0 4.56269 0 1.40489 
0 0 -0.472445 5.2176 6.91426 -31.3253 0 0 0 0 0 0 -2.85673 0 -15.0761 -2.44204 0 -4.92772 0 0 0 -0.537106 0 -0.14075 -4.47236 0 -21.6518 0.449639 0 15.5528 0 0 0 4.56269 0 1.40489 
0 0 -0.560436 9.14569 6.90131 36.8396 0 0 0 0 0 0 -2.07513 0 -2.13703 -2.50479 0 -7.60547 0 0 0 -0.3677 0 -0.0852133 -4.39665 0 -19.775 0.273076 0 7.76087 0 0 0 4.48359 0 1.38112 
0 0 -0.559723 9.14569 6.90131 36.837 0 0 0 0 0 0 -2.07513 0 -2.14379 -2.50479 0 -7.61805 0 0 0 -0.3677 0 -0.0852133 -4.39665 0 -19.7978 0.273076 0 7.74469 0 0 0 4.48359 0 1.38112 
0 0 -0.559723 9.14569 6.90131 36.837 0 0 0 0 0 0 -2.07513 0 -2.14379 -2.50479 0 -7.61805 0 0 0 -0.3677 0 -0.0852133 -4.39665 0 -19.7978 0.273076 0 7.74469 0 0 0 4.48359 0 1.38112 
0 0 -0.46161 5.03058 6.68885 -31.1863 0 0 0 0 0 0 -2.70193 0 -14.3743 -2.28522 0 -4.20409 0 0 0 -0.611869 0 -0.165633 -4.40377 0 -21.1834 0.528722 0 16.0945 0 0 0 4.49094 0 1.38336 
0 0 -0.462026 5.03058 6.68885 -31.1848 0 0 0 0 0 0 -2.70193 0 -14.3703 -2.28522 0 -4.1966 0 0 0 -0.611869 0 -0.165633 -4.40377 0 -21.1698 0.528722 0 16.1042 0 0 0 4.49094 0 1.38336 
0 0 -0.462026 5.03058 6.68885 -31.1848 0 0 0 0 0 0 -2.70193 0 -14.3703 -2.28522 0 -4.1966 0 0 0 -0.611869 0 -0.165633 -4.40377 0 -21.1698 0.528722 0 16.1042 0 0 0 4.49094 0 1.38336 
0 0 -0.541329 8.93149 6.66311 36.7475 0 0 0 0 0 0 -1.91516 0 -1.36652 -2.34251 0 -6.84371 0 0 0 -0.449583 0 -0.112476 -4.32073 0 -19.35 0.359714 0 8.29733 0 0 0 4.40413 0 1.35729 
0 0 -0.54053 8.93149 6.66311 36.7446 0 0 0 0 0 0 -1.91516 0 -1.37404 -2.34251 0 -6.85772 0 0 0 -0.449583 0 -0.112476 -4.32073 0 -19.3754 0.359714 0 8.27932 0 0 0 4.40413 0 1.35729 
0 0 -0.54053 8.93149 6.66311 36.7446 0 0 0 0 0 0 -1.91516 0 -1.37404 -2.34251 0 -6.85772 0 0 0 -0.449583 0 -0.112476 -4.32073 0 -19.3754 0.359714 0 8.27932 0 0 0 4.40413 0 1.35729 
0 0 -0.54053 8.93149 6.66311 36.7446 0 0 0 0 0 0 -1.91516 0 -1.37404 -2.34251 0 -6.85772 0 0 0 -0.449583 0 -0.112476 -4.32073 0 -19.3754 0.359714 0 8.27932 0 0 0 4.40413 0 1.35729 
0 0 -0.444073 4.79837 6.44252 -31.1968 0 0 0 0 0 0 -2.54322 0 -13.6762 -2.12414 0 -3.51893 0 0 0 -0.702639 0 -0.195795 -4.3185 0 -20.6912 0.62459 0 16.6909 0 0 0 4.40171 0 1.35659 
0 0 -0.444416 4.79837 6.44252 -31.1955 0 0 0 0 0 0 -2.54322 0 -13.6729 -2.12414 0 -3.51273 0 0 0 -0.702639 0 -0.195795 -4.3185 0 -20.68 0.62459 0 16.6989 0 0 0 4.40171 0 1.35659 
0 0 -0.444416 4.79837 6.44252 -31.1955 0 0 0 0 0 0 -2.54322 0 -13.6729 -2.12414 0 -3.51273 0 0 0 -0.702639 0 -0.195795 -4.3185 0 -20.68 0.62459 0 16.6989 0 0 0 4.40171 0 1.35659 
0 0 -0.513605 8.67401 6.40695 36.4913 0 0 0 0 0 0 -1.75309 0 -0.61659 -2.17785 0 -6.14415 0 0 0 -0.54647 0 -0.144661 -4.22921 0 -18.9304 0.462005 0 8.87028 0 0 0 4.30835 0 1.32856 
0 0 -0.512728 8.67401 6.40695 36.4882 0 0 0 0 0 0 -1.75309 0 -0.624797 -2.17785 0 -6.15944 0 0 0 -0.54647 0 -0.144661 -4.22921 0 -18.9582 0.462005 0 8.85062 0 0 0 4.30835 0 1.32856 
0 0 -0.512728 8.67401 6.40695 36.4882 0 0 0 0 0 0 -1.75309 0 -0.624797 -2.17785 0 -6.15944 0 0 0 -0.54647 0 -0.144661 -4.22921 0 -18.9582 0.462005 0 8.85062 0 0 0 4.30835 0 1.32856 
0 0 -0.417962 4.52837 6.18263 -31.3384 0 0 0 0 0 0 -2.38461 0 -13.0116 -1.96381 0 -2.92155 0 0 0 -0.806988 0 -0.230383 -4.21893 0 -20.2151 0.734539 0 17.3097 0 0 0 4.2975 0 1.32534 
0 0 -0.418242 4.52837 6.18263 -31.3373 0 0 0 0 0 0 -2.38461 0 -13.0089 -1.96381 0 -2.91647 0 0 0 -0.806988 0 -0.230383 -4.21893 0 -20.2058 0.734539 0 17.3163 0 0 0 4.2975 0 1.32534 
0 0 -0.418242 4.52837 6.18263 -31.3373 0 0 0 0 0 0 -2.38461 0 -13.0089 -1.96381 0 -2.91647 0 0 0 -0.806988 0 -0.230383 -4.21893 0 -20.2058 0.734539 0 17.3163 0 0 0 4.2975 0 1.32534 
0 0 -0.418242 4.52837 6.18263 -31.3373 0 0 0 0 0 0 -2.38461 0 -13.0089 -1.96381 0 -2.91647 0 0 0 -0.806988 0 -0.230383 -4.21893 0 -20.2058 0.734539 0 17.3163 0 0 0 4.2975 0 1.32534 
0 0 -0.477144 8.3844 6.14195 36.1073 0 0 0 0 0 0 -1.59435 0 0.07953 -2.01681 0 -5.54296 0 0 0 -0.65529 0 -0.180708 -4.12525 0 -18.5455 0.576585 0 9.45488 0 0 0 4.19952 0 1.29592 
0 0 -0.4762 8.3844 6.14195 36.1039 0 0 0 0 0 0 -1.59435 0 0.0707474 -2.01681 0 -5.55933 0 0 0 -0.65529 0 -0.180708 -4.12525 0 -18.5752 0.576585 0 9.43384 0 0 0 4.19952 0 1.29592 
0 0 -0.4762 8.3844 6.14195 36.1039 0 0 0 0 0 0 -1.59435 0 0.0707474 -2.01681 0 -5.55933 0 0 0 -0.65529 0 -0.180708 -4.12525 0 -18.5752 0.576585 0 9.43384 0 0 0 4.19952 0 1.29592 
0 0 -0.384096 4.23532 5.91939 -31.5651 0 0 0 0 0 0 -2.232 0 -12.4094 -1.81042 0 -2.44056 0 0 0 -0.921007 0 -0.268073 -4.10907 0 -19.7878 0.854364 0 17.9173 0 0 0 4.1825 0 1.29084 
0 0 -0.384326 4.23532 5.91939 -31.5642 0 0 0 0 0 0 -2.232 0 -12.4071 -1.81042 0 -2.43635 0 0 0 -0.921007 0 -0.268073 -4.10907 0 -19.7801 0.854364 0 17.9228 0 0 0 4.1825 0 1.29084 
0 0 -0.384326 4.23532 5.91939 -31.5642 0 0 0 0 0 0 -2.232 0 -12.4071 -1.81042 0 -2.43635 0 0 0 -0.921007 0 -0.268073 -4.10907 0 -19.7801 0.854364 0 17.9228 0 0 0 4.1825 0 1.29084 
0 0 -0.434097 8.0805 5.87893 35.6606 0 0 0 0 0 0 -1.44481 0 0.694661 -1.86547 0 -5.06213 0 0 0 -0.771378 0 -0.219053 -4.01355 0 -18.2261 0.698486 0 10.0141 0 0 0 4.08259 0 1.26085 
0 0 -0.433102 8.0805 5.87893 35.6571 0 0 0 0 0 0 -1.44481 0 0.685451 -1.86547 0 -5.0793 0 0 0 -0.771378 0 -0.219053 -4.01355 0 -18.2573 0.698486 0 9.99201 0 0 0 4.08259 0 1.26085 
0 0 -0.433102 8.0805 5.87893 35.6571 0 0 0 0 0 0 -1.44481 0 0.685451 -1.86547 0 -5.0793 0 0 0 -0.771378 0 -0.219053 -4.01355 0 -18.2573 0.698486 0 9.99201 0 0 0 4.08259 0 1.26085 
0 0 -0.433102 8.0805 5.87893 35.6571 0 0 0 0 0 0 -1.44481 0 0.685451 -1.86547 0 -5.0793 0 0 0 -0.771378 0 -0.219053 -4.01355 0 -18.2573 0.698486 0 9.99201 0 0 0 4.08259 0 1.26085 
0 0 -0.345192 3.93824 5.66341 -31.8185 0 0 0 0 0 0 -2.09061 0 -11.8884 -1.6692 0 -2.08403 0 0 0 -1.03935 0 -0.30709 -3.99431 0 -19.4403 0.978423 0 18.474 0 0 0 4.06239 0 1.25481 
0 0 -0.34539 3.93824 5.66341 -31.8177 0 0 0 0 0 0 -2.09061 0 -11.8864 -1.6692 0 -2.0804 0 0 0 -1.03935 0 -0.30709 -3.99431 0 -19.4337 0.978423 0 18.4788 0 0 0 4.06239 0 1.25481 
0 0 -0.34539 3.93824 5.66341 -31.8177 0 0 0 0 0 0 -2.09061 0 -11.8864 -1.6692 0 -2.0804 0 0 0 -1.03935 0 -0.30709 -3.99431 0 -19.4337 0.978423 0 18.4788 0 0 0 4.06239 0 1.25481 
0 0 -0.388053 7.782 5.62808 35.2202 0 0 0 0 0 0 -1.3088 0 1.21518 -1.72832 0 -4.70395 0 0 0 -0.888984 0 -0.257794 -3.89985 0 -17.9948 0.821661 0 10.5106 0 0 0 3.96361 0 1.22515 
0 0 -0.387027 7.782 5.62808 35.2165 0 0 0 0 0 0 -1.3088 0 1.20572 -1.72832 0 -4.72158 0 0 0 -0.888984 0 -0.257794 -3.89985 0 -18.0268 0.821661 0 10.4879 0 0 0 3.96361 0 1.22515 
0 0 -0.387027 7.782 5.62808 35.2165 0 0 0 0 0 0 -1.3088 0 1.20572 -1.72832 0 -4.72158 0 0 0 -0.888984 0 -0.257794 -3.89985 0 -18.0268 0.821661 0 10.4879 0 0 0 3.96361 0 1.22515 
0 0 -0.30479 3.65535 5.42381 -32.0472 0 0 0 0 0 0 -1.96372 0 -11.4547 -1.54333 0 -1.84153 0 0 0 -1.15613 0 -0.345495 -3.88056 0 -19.1916 1.10055 0 18.9473 0 0 0 3.94338 0 1.21909 
0 0 -0.304976 3.65535 5.42381 -32.0466 0 0 0 0 0 0 -1.96372 0 -11.4529 -1.54333 0 -1.83813 0 0 0 -1.15613 0 -0.345495 -3.88056 0 -19.1854 1.10055 0 18.9517 0 0 0 3.94338 0 1.21909 
0 0 -0.304976 3.65535 5.42381 -32.0466 0 0 0 0 0 0 -1.96372 0 -11.4529 -1.54333 0 -1.83813 0 0 0 -1.15613 0 -0.345495 -3.88056 0 -19.1854 1.10055 0 18.9517 0 0 0 3.94338 0 1.21909 
0 0 -0.304976 3.65535 5.42381 -32.0466 0 0 0 0 0 0 -1.96372 0 -11.4529 -1.54333 0 -1.83813 0 0 0 -1.15613 0 -0.345495 -3.88056 0 -19.1854 1.10055 0 18.9517 0 0 0 3.94338 0 1.21909 
0 0 -0.342751 7.5056 5.39738 34.8385 0 0 0 0 0 0 -1.18851 0 1.64017 -1.60761 0 -4.45454 0 0 0 -1.00237 0 -0.295051 -3.78985 0 -17.8598 0.940131 0 10.9183 0 0 0 3.84855 0 1.19061 
0 0 -0.341717 7.5056 5.39738 34.8349 0 0 0 0 0 0 -1.18851 0 1.63067 -1.60761 0 -4.47227 0 0 0 -1.00237 0 -0.295051 -3.78985 0 -17.892 0.940131 0 10.8955 0 0 0 3.84855 0 1.19061 
0 0 -0.341717 7.5056 5.39738 34.8349 0 0 0 0 0 0 -1.18851 0 1.63067 -1.60761 0 -4.47227 0 0 0 -1.00237 0 -0.295051 -3.78985 0 -17.892 0.940131 0 10.8955 0 0 0 3.84855 0 1.19061 
0 0 -0.266103 3.40034 5.20702 -32.2192 0 0 0 0 0 0 -1.85262 0 -11.1046 -1.4339 0 -1.69097 0 0 0 -1.26603 0 -0.381557 -3.77319 0 -19.0446 1.21524 0 19.3196 0 0 0 3.83111 0 1.18537 
0 0 -0.266297 3.40034 5.20702 -32.2185 0 0 0 0 0 0 -1.85262 0 -11.1027 -1.4339 0 -1.68745 0 0 0 -1.26603 0 -0.381557 -3.77319 0 -19.0382 1.21524 0 19.3241 0 0 0 3.83111 0 1.18537 
0 0 -0.266297 3.40034 5.20702 -32.2185 0 0 0 0 0 0 -1.85262 0 -11.1027 -1.4339 0 -1.68745 0 0 0 -1.26603 0 -0.381557 -3.77319 0 -19.0382 1.21524 0 19.3241 0 0 0 3.83111 0 1.18537 
0 0 -0.301073 7.26233 5.19181 34.5447 0 0 0 0 0 0 -1.0843 0 1.97858 -1.50363 0 -4.29101 0 0 0 -1.10683 0 -0.329296 -3.68826 0 -17.8151 1.04903 0 11.227 0 0 0 3.74236 0 1.1587 
0 0 -0.300051 7.26233 5.19181 34.5411 0 0 0 0 0 0 -1.0843 0 1.9692 -1.50363 0 -4.30851 0 0 0 -1.10683 0 -0.329296 -3.68826 0 -17.8468 1.04903 0 11.2045 0 0 0 3.74236 0 1.1587 
0 0 -0.300051 7.26233 5.19181 34.5411 0 0 0 0 0 0 -1.0843 0 1.9692 -1.50363 0 -4.30851 0 0 0 -1.10683 0 -0.329296 -3.68826 0 -17.8468 1.04903 0 11.2045 0 0 0 3.74236 0 1.1587 
0 0 -0.300051 7.26233 5.19181 34.5411 0 0 0 0 0 0 -1.0843 0 1.9692 -1.50363 0 -4.30851 0 0 0 -1.10683 0 -0.329296 -3.68826 0 -17.8468 1.04903 0 11.2045 0 0 0 3.74236 0 1.1587 
0 0 -0.231317 3.18084 5.01637 -32.3225 0 0 0 0 0 0 -1.75699 0 -10.8271 -1.34027 0 -1.6054 0 0 0 -1.36517 0 -0.414016 -3.67616 0 -18.9887 1.31848 0 19.5897 0 0 0 3.72972 0 1.1549 
0 0 -0.231537 3.18084 5.01637 -32.3217 0 0 0 0 0 0 -1.75699 0 -10.8249 -1.34027 0 -1.60147 0 0 0 -1.36517 0 -0.414016 -3.67616 0 -18.9815 1.31848 0 19.5948 0 0 0 3.72972 0 1.1549 
0 0 -0.231537 3.18084 5.01637 -32.3217 0 0 0 0 0 0 -1.75699 0 -10.8249 -1.34027 0 -1.60147 0 0 0 -1.36517 0 -0.414016 -3.67616 0 -18.9815 1.31848 0 19.5948 0 0 0 3.72972 0 1.1549 
0 0 -0.264643 7.05713 5.01321 34.3469 0 0 0 0 0 0 -0.995041 0 2.24639 -1.41512 0 -4.18752 0 0 0 -1.1993 0 -0.359543 -3.59815 0 -17.8438 1.14523 0 11.4407 0 0 0 3.64826 0 1.1304 
0 0 -0.263649 7.05713 5.01321 34.3434 0 0 0 0 0 0 -0.995041 0 2.23727 -1.41512 0 -4.20453 0 0 0 -1.1993 0 -0.359543 -3.59815 0 -17.8747 1.14523 0 11.4189 0 0 0 3.64826 0 1.1304 
0 0 -0.263649 7.05713 5.01321 34.3434 0 0 0 0 0 0 -0.995041 0 2.23727 -1.41512 0 -4.20453 0 0 0 -1.1993 0 -0.359543 -3.59815 0 -17.8747 1.14523 0 11.4189 0 0 0 3.64826 0 1.1304 
0 0 -0.201472 2.9987 4.85217 -32.3606 0 0 0 0 0 0 -1.67526 0 -10.6065 -1.26057 0 -1.55764 0 0 0 -1.4514 0 -0.442197 -3.59166 0 -19.0041 1.40812 0 19.7695 0 0 0 3.64152 0 1.12836 
0 0 -0.20173 2.9987 4.85217 -32.3597 0 0 0 0 0 0 -1.67526 0 -10.604 -1.26057 0 -1.55309 0 0 0 -1.4514 0 -0.442197 -3.59166 0 -18.9958 1.40812 0 19.7754 0 0 0 3.64152 0 1.12836 
0 0 -0.20173 2.9987 4.85217 -32.3597 0 0 0 0 0 0 -1.67526 0 -10.604 -1.26057 0 -1.55309 0 0 0 -1.4514 0 -0.442197 -3.59166 0 -18.9958 1.40812 0 19.7754 0 0 0 3.64152 0 1.12836 
0 0 -0.20173 2.9987 4.85217 -32.3597 0 0 0 0 0 0 -1.67526 0 -10.604 -1.26057 0 -1.55309 0 0 0 -1.4514 0 -0.442197 -3.59166 0 -18.9958 1.40812 0 19.7754 0 0 0 3.64152 0 1.12836 
0 0 -0.233969 6.88955 4.86056 34.2376 0 0 0 0 0 0 -0.918542 0 2.46345 -1.33977 0 -4.11889 0 0 0 -1.27851 0 -0.385399 -3.52084 0 -17.9234 1.22747 0 11.5744 0 0 0 3.5676 0 1.10612 
0 0 -0.233013 6.88955 4.86056 34.2342 0 0 0 0 0 0 -0.918542 0 2.45469 -1.33977 0 -4.13524 0 0 0 -1.27851 0 -0.385399 -3.52084 0 -17.9531 1.22747 0 11.5535 0 0 0 3.5676 0 1.10612 
0 0 -0.233013 6.88955 4.86056 34.2342 0 0 0 0 0 0 -0.918542 0 2.45469 -1.33977 0 -4.13524 0 0 0 -1.27851 0 -0.385399 -3.52084 0 -17.9531 1.22747 0 11.5535 0 0 0 3.5676 0 1.10612 
0 0 -0.176744 2.85113 4.71219 -32.3474 0 0 0 0 0 0 -1.60497 0 -10.425 -1.19208 0 -1.52308 0 0 0 -1.52437 0 -0.466 -3.52016 0 -19.0668 1.48383 0 19.8793 0 0 0 3.56695 0 1.1059 
0 0 -0.177045 2.85113 4.71219 -32.3463 0 0 0 0 0 0 -1.60497 0 -10.4221 -1.19208 0 -1.51779 0 0 0 -1.52437 0 -0.466 -3.52016 0 -19.0572 1.48383 0 19.8862 0 0 0 3.56695 0 1.1059 
0 0 -0.177045 2.85113 4.71219 -32.3463 0 0 0 0 0 0 -1.60497 0 -10.4221 -1.19208 0 -1.51779 0 0 0 -1.52437 0 -0.466 -3.52016 0 -19.0572 1.48383 0 19.8862 0 0 0 3.56695 0 1.1059 
0 0 -0.208842 6.75502 4.73057 34.1985 0 0 0 0 0 0 -0.851953 0 2.65011 -1.27463 0 -4.06265 0 0 0 -1.34482 0 -0.407012 -3.456 0 -18.0291 1.29622 0 11.6496 0 0 0 3.50001 0 1.08575 
0 0 -0.207928 6.75502 4.73057 34.1953 0 0 0 0 0 0 -0.851953 0 2.64173 -1.27463 0 -4.07829 0 0 0 -1.34482 0 -0.407012 -3.456 0 -18.0575 1.29622 0 11.6295 0 0 0 3.50001 0 1.08575 
0 0 -0.207928 6.75502 4.73057 34.1953 0 0 0 0 0 0 -0.851953 0 2.64173 -1.27463 0 -4.07829 0 0 0 -1.34482 0 -0.407012 -3.456 0 -18.0575 1.29622 0 11.6295 0 0 0 3.50001 0 1.08575 
0 0 -0.207928 6.75502 4.73057 34.1953 0 0 0 0 0 0 -0.851953 0 2.64173 -1.27463 0 -4.07829 0 0 0 -1.34482 0 -0.407012 -3.456 0 -18.0575 1.29622 0 11.6295 0 0 0 3.50001 0 1.08575 
0 0 -0.156842 2.73198 4.5923 -32.3021 0 0 0 0 0 0 -1.54316 0 -10.2652 -1.13173 0 -1.48155 0 0 0 -1.58516 0 -0.485807 -3.46062 0 -19.1517 1.54684 0 19.9432 0 0 0 3.50491 0 1.0872 
0 0 -0.157187 2.73198 4.5923 -32.3008 0 0 0 0 0 0 -1.54316 0 -10.262 -1.13173 0 -1.47553 0 0 0 -1.58516 0 -0.485807 -3.46062 0 -19.1407 1.54684 0 19.9509 0 0 0 3.50491 0 1.0872 
0 0 -0.157187 2.73198 4.5923 -32.3008 0 0 0 0 0 0 -1.54316 0 -10.262 -1.13173 0 -1.47553 0 0 0 -1.58516 0 -0.485807 -3.46062 0 -19.1407 1.54684 0 19.9509 0 0 0 3.50491 0 1.0872 
0 0 -0.188721 6.64616 4.61848 34.2052 0 0 0 0 0 0 -0.792212 0 2.8242 -1.21651 0 -4.00065 0 0 0 -1.39992 0 -0.424953 -3.40202 0 -18.1378 1.35329 0 11.6896 0 0 0 3.44378 0 1.0688 
0 0 -0.187846 6.64616 4.61848 34.2021 0 0 0 0 0 0 -0.792212 0 2.81619 -1.21651 0 -4.01561 0 0 0 -1.39992 0 -0.424953 -3.40202 0 -18.1649 1.35329 0 11.6704 0 0 0 3.44378 0 1.0688 
0 0 -0.187846 6.64616 4.61848 34.2021 0 0 0 0 0 0 -0.792212 0 2.81619 -1.21651 0 -4.01561 0 0 0 -1.39992 0 -0.424953 -3.40202 0 -18.1649 1.35329 0 11.6704 0 0 0 3.44378 0 1.0688 
0 0 -0.141302 2.63321 4.48736 -32.2451 0 0 0 0 0 0 -1.48685 0 -10.1127 -1.07645 0 -1.4188 0 0 0 -1.63595 0 -0.502348 -3.41096 0 -19.2362 1.59946 0 19.9844 0 0 0 3.45319 0 1.0716 
0 0 -0.141686 2.63321 4.48736 -32.2438 0 0 0 0 0 0 -1.48685 0 -10.1091 -1.07645 0 -1.41211 0 0 0 -1.63595 0 -0.502348 -3.41096 0 -19.2241 1.59946 0 19.993 0 0 0 3.45319 0 1.0716 
0 0 -0.141686 2.63321 4.48736 -32.2438 0 0 0 0 0 0 -1.48685 0 -10.1091 -1.07645 0 -1.41211 0 0 0 -1.63595 0 -0.502348 -3.41096 0 -19.2241 1.59946 0 19.993 0 0 0 3.45319 0 1.0716 
0 0 -0.141686 2.63321 4.48736 -32.2438 0 0 0 0 0 0 -1.48685 0 -10.1091 -1.07645 0 -1.41211 0 0 0 -1.63595 0 -0.502348 -3.41096 0 -19.2241 1.59946 0 19.993 0 0 0 3.45319 0 1.0716 
0 0 -0.172951 6.55433 4.51889 34.2314 0 0 0 0 0 0 -0.736458 0 2.99907 -1.16242 0 -3.92024 0 0 0 -1.44631 0 -0.440061 -3.35652 0 -18.2305 1.40135 0 11.7161 0 0 0 3.3964 0 1.0545 
0 0 -0.17211 6.55433 4.51889 34.2284 0 0 0 0 0 0 -0.736458 0 2.99137 -1.16242 0 -3.93463 0 0 0 -1.44631 0 -0.440061 -3.35652 0 -18.2566 1.40135 0 11.6976 0 0 0 3.3964 0 1.0545 
0 0 -0.17211 6.55433 4.51889 34.2284 0 0 0 0 0 0 -0.736458 0 2.99137 -1.16242 0 -3.93463 0 0 0 -1.44631 0 -0.440061 -3.35652 0 -18.2566 1.40135 0 11.6976 0 0 0 3.3964 0 1.0545 
0 0 -0.129592 2.54631 4.39208 -32.1955 0 0 0 0 0 0 -1.43338 0 -9.95701 -1.0236 0 -1.32712 0 0 0 -1.67945 0 -0.51653 -3.36853 0 -19.3027 1.64458 0 20.0229 0 0 0 3.40899 0 1.05828 
0 0 -0.130009 2.54631 4.39208 -32.194 0 0 0 0 0 0 -1.43338 0 -9.95314 -1.0236 0 -1.3199 0 0 0 -1.67945 0 -0.51653 -3.36853 0 -19.2896 1.64458 0 20.0322 0 0 0 3.40899 0 1.05828 
0 0 -0.130009 2.54631 4.39208 -32.194 0 0 0 0 0 0 -1.43338 0 -9.95314 -1.0236 0 -1.3199 0 0 0 -1.67945 0 -0.51653 -3.36853 0 -19.2896 1.64458 0 20.0322 0 0 0 3.40899 0 1.05828 
0 0 -0.160823 6.47101 4.42665 34.2532 0 0 0 0 0 0 -0.682363 0 3.18278 -1.10991 0 -3.81494 0 0 0 -1.48682 0 -0.453276 -3.31678 0 -18.2944 1.44338 0 11.7465 0 0 0 3.35499 0 1.04202 
0 0 -0.160005 6.47101 4.42665 34.2503 0 0 0 0 0 0 -0.682363 0 3.1753 -1.10991 0 -3.82889 0 0 0 -1.48682 0 -0.453276 -3.31678 0 -18.3197 1.44338 0 11.7286 0 0 0 3.35499 0 1.04202 
0 0 -0.160005 6.47101 4.42665 34.2503 0 0 0 0 0 0 -0.682363 0 3.1753 -1.10991 0 -3.82889 0 0 0 -1.48682 0 -0.453276 -3.31678 0 -18.3197 1.44338 0 11.7286 0 0 0 3.35499 0 1.04202 
0 0 -0.160005 6.47101 4.42665 34.2503 0 0 0 0 0 0 -0.682363 0 3.1753 -1.10991 0 -3.82889 0 0 0 -1.48682 0 -0.453276 -3.31678 0 -18.3197 1.44338 0 11.7286 0 0 0 3.35499 0 1.04202 
0 0 -0.121099 2.46359 4.30175 -32.1673 0 0 0 0 0 0 -1.38076 0 -9.79269 -0.971198 0 -1.20531 0 0 0 -1.71848 0 -0.529282 -3.3306 0 -19.3401 1.68514 0 20.0728 0 0 0 3.36944 0 1.04636 
0 0 -0.121539 2.46359 4.30175 -32.1657 0 0 0 0 0 0 -1.38076 0 -9.78862 -0.971198 0 -1.19772 0 0 0 -1.71848 0 -0.529282 -3.3306 0 -19.3263 1.68514 0 20.0826 0 0 0 3.36944 0 1.04636 
0 0 -0.121539 2.46359 4.30175 -32.1657 0 0 0 0 0 0 -1.38076 0 -9.78862 -0.971198 0 -1.19772 0 0 0 -1.71848 0 -0.529282 -3.3306 0 -19.3263 1.68514 0 20.0826 0 0 0 3.36944 0 1.04636 
0 0 -0.151547 6.38898 4.33749 34.2524 0 0 0 0 0 0 -0.628338 0 3.37822 -1.0573 0 -3.68421 0 0 0 -1.52414 0 -0.465487 -3.28023 0 -18.3237 1.48222 0 11.7924 0 0 0 3.31685 0 1.03054 
0 0 -0.150743 6.38898 4.33749 34.2496 0 0 0 0 0 0 -0.628338 0 3.37089 -1.0573 0 -3.69789 0 0 0 -1.52414 0 -0.465487 -3.28023 0 -18.3485 1.48222 0 11.7749 0 0 0 3.31685 0 1.03054 
0 0 -0.150743 6.38898 4.33749 34.2496 0 0 0 0 0 0 -0.628338 0 3.37089 -1.0573 0 -3.69789 0 0 0 -1.52414 0 -0.465487 -3.28023 0 -18.3485 1.48222 0 11.7749 0 0 0 3.31685 0 1.03054 
0 0 -0.115083 2.37912 4.21279 -32.1691 0 0 0 0 0 0 -1.32773 0 -9.61844 -0.918086 0 -1.05779 0 0 0 -1.75548 0 -0.541413 -3.29475 0 -19.3442 1.72373 0 20.1421 0 0 0 3.332 0 1.0351 
0 0 -0.115538 2.37912 4.21279 -32.1675 0 0 0 0 0 0 -1.32773 0 -9.61425 -0.918086 0 -1.04999 0 0 0 -1.75548 0 -0.541413 -3.29475 0 -19.33 1.72373 0 20.1521 0 0 0 3.332 0 1.0351 
0 0 -0.115538 2.37912 4.21279 -32.1675 0 0 0 0 0 0 -1.32773 0 -9.61425 -0.918086 0 -1.04999 0 0 0 -1.75548 0 -0.541413 -3.29475 0 -19.33 1.72373 0 20.1521 0 0 0 3.332 0 1.0351 
0 0 -0.115538 2.37912 4.21279 -32.1675 0 0 0 0 0 0 -1.32773 0 -9.61425 -0.918086 0 -1.04999 0 0 0 -1.75548 0 -0.541413 -3.29475 0 -19.33 1.72373 0 20.1521 0 0 0 3.332 0 1.0351 
0 0 -0.144251 6.30317 4.24844 34.2179 0 0 0 0 0 0 -0.57361 0 3.58399 -1.00373 0 -3.5326 0 0 0 -1.56045 0 -0.477413 -3.24475 0 -18.3192 1.52016 0 11.8593 0 0 0 3.27977 0 1.01939 
0 0 -0.143451 6.30317 4.24844 34.2151 0 0 0 0 0 0 -0.57361 0 3.57674 -1.00373 0 -3.54615 0 0 0 -1.56045 0 -0.477413 -3.24475 0 -18.3438 1.52016 0 11.8419 0 0 0 3.27977 0 1.01939 
0 0 -0.143451 6.30317 4.24844 34.2151 0 0 0 0 0 0 -0.57361 0 3.57674 -1.00373 0 -3.54615 0 0 0 -1.56045 0 -0.477413 -3.24475 0 -18.3438 1.52016 0 11.8419 0 0 0 3.27977 0 1.01939 
0 0 -0.110703 2.28929 4.12304 -32.2032 0 0 0 0 0 0 -1.27386 0 -9.43648 -0.863919 0 -0.89301 0 0 0 -1.79232 0 -0.553527 -3.25916 0 -19.3173 1.76227 0 20.2328 0 0 0 3.29477 0 1.02392 
0 0 -0.111165 2.28929 4.12304 -32.2016 0 0 0 0 0 0 -1.27386 0 -9.43225 -0.863919 0 -0.885127 0 0 0 -1.79232 0 -0.553527 -3.25916 0 -19.303 1.76227 0 20.2429 0 0 0 3.29477 0 1.02392 
0 0 -0.111165 2.28929 4.12304 -32.2016 0 0 0 0 0 0 -1.27386 0 -9.43225 -0.863919 0 -0.885127 0 0 0 -1.79232 0 -0.553527 -3.25916 0 -19.303 1.76227 0 20.2429 0 0 0 3.29477 0 1.02392 
0 0 -0.138054 6.21094 4.15802 34.1463 0 0 0 0 0 0 -0.518167 0 3.79555 -0.949159 0 -3.36818 0 0 0 -1.59724 0 -0.489537 -3.2089 0 -18.2869 1.55872 0 11.9473 0 0 0 3.24223 0 1.00813 
0 0 -0.137251 6.21094 4.15802 34.1435 0 0 0 0 0 0 -0.518167 0 3.78831 -0.949159 0 -3.38172 0 0 0 -1.59724 0 -0.489537 -3.2089 0 -18.3115 1.55872 0 11.9299 0 0 0 3.24223 0 1.00813 
0 0 -0.137251 6.21094 4.15802 34.1435 0 0 0 0 0 0 -0.518167 0 3.78831 -0.949159 0 -3.38172 0 0 0 -1.59724 0 -0.489537 -3.2089 0 -18.3115 1.55872 0 11.9299 0 0 0 3.24223 0 1.00813 
0 0 -0.137251 6.21094 4.15802 34.1435 0 0 0 0 0 0 -0.518167 0 3.78831 -0.949159 0 -3.38172 0 0 0 -1.59724 0 -0.489537 -3.2089 0 -18.3115 1.55872 0 11.9299 0 0 0 3.24223 0 1.00813 
0 0 -0.112162 2.19875 4.03187 -32.1828 0 0 0 0 0 0 -1.22006 0 -9.21443 -0.809201 0 -0.639893 0 0 0 -1.83018 0 -0.56601 -3.2227 0 -19.1142 1.80197 0 20.4515 0 0 0 3.25658 0 1.01247 
0 0 -0.112626 2.19875 4.03187 -32.1812 0 0 0 0 0 0 -1.22006 0 -9.21021 -0.809201 0 -0.632022 0 0 0 -1.83018 0 -0.56601 -3.2227 0 -19.0999 1.80197 0 20.4616 0 0 0 3.25658 0 1.01247 
0 0 -0.112626 2.19875 4.03187 -32.1812 0 0 0 0 0 0 -1.22006 0 -9.21021 -0.809201 0 -0.632022 0 0 0 -1.83018 0 -0.56601 -3.2227 0 -19.0999 1.80197 0 20.4616 0 0 0 3.25658 0 1.01247 
0 0 -0.156725 6.15186 4.06676 34.5481 0 0 0 0 0 0 -0.459718 0 4.26093 -0.893722 0 -2.78698 0 0 0 -1.63357 0 -0.501537 -3.17307 0 -17.5264 1.59688 0 12.5334 0 0 0 3.20467 0 0.996877 
0 0 -0.155886 6.15186 4.06676 34.5452 0 0 0 0 0 0 -0.459718 0 4.2534 -0.893722 0 -2.80106 0 0 0 -1.63357 0 -0.501537 -3.17307 0 -17.552 1.59688 0 12.5153 0 0 0 3.20467 0 0.996877 
0 0 -0.155886 6.15186 4.06676 34.5452 0 0 0 0 0 0 -0.459718 0 4.2534 -0.893722 0 -2.80106 0 0 0 -1.63357 0 -0.501537 -3.17307 0 -17.552 1.59688 0 12.5153 0 0 0 3.20467 0 0.996877 
0 0 -0.160436 2.17208 3.93052 -31.3826 0 0 0 0 0 0 -1.15222 0 -8.43617 -0.736198 0 0.626149 0 0 0 -1.86099 0 -0.576201 -3.19435 0 -17.7044 1.83439 0 21.5125 0 0 0 3.22681 0 1.00356 
0 0 -0.160766 2.17208 3.93052 -31.3814 0 0 0 0 0 0 -1.15222 0 -8.43316 -0.736198 0 0.631751 0 0 0 -1.86099 0 -0.576201 -3.19435 0 -17.6942 1.83439 0 21.5197 0 0 0 3.22681 0 1.00356 
0 0 -0.160766 2.17208 3.93052 -31.3814 0 0 0 0 0 0 -1.15222 0 -8.43316 -0.736198 0 0.631751 0 0 0 -1.86099 0 -0.576201 -3.19435 0 -17.6942 1.83439 0 21.5197 0 0 0 3.22681 0 1.00356 
0 0 -0.160766 2.17208 3.93052 -31.3814 0 0 0 0 0 0 -1.15222 0 -8.43316 -0.736198 0 0.631751 0 0 0 -1.86099 0 -0.576201 -3.19435 0 -17.6942 1.83439 0 21.5197 0 0 0 3.22681 0 1.00356 
0 0 -0.232665 6.19756 3.95463 36.1335 0 0 0 0 0 0 -0.358626 0 5.62838 -0.797862 0 -0.872844 0 0 0 -1.64916 0 -0.506752 -3.1568 0 -15.4097 1.61347 0 13.9623 0 0 0 3.18749 0 0.991765 
0 0 -0.23156 6.19756 3.95463 36.1297 0 0 0 0 0 0 -0.358626 0 5.61855 -0.797862 0 -0.891232 0 0 0 -1.64916 0 -0.506752 -3.1568 0 -15.443 1.61347 0 13.9387 0 0 0 3.18749 0 0.991765 
0 0 -0.23156 6.19756 3.95463 36.1297 0 0 0 0 0 0 -0.358626 0 5.61855 -0.797862 0 -0.891232 0 0 0 -1.64916 0 -0.506752 -3.1568 0 -15.443 1.61347 0 13.9387 0 0 0 3.18749 0 0.991765 
0 0 -0.263431 2.26471 3.79391 -29.353 0 0 0 0 0 0 -1.01637 0 -6.65371 -0.596173 0 3.39034 0 0 0 -1.85946 0 -0.575796 -3.19777 0 -15.07 1.83309 0 23.3518 0 0 0 3.2302 0 1.00464 
0 0 -0.263379 2.26471 3.79391 -29.3531 0 0 0 0 0 0 -1.01637 0 -6.65407 -0.596173 0 3.38962 0 0 0 -1.85946 0 -0.575796 -3.19777 0 -15.0713 1.83309 0 23.3509 0 0 0 3.2302 0 1.00464 
0 0 -0.263379 2.26471 3.79391 -29.3531 0 0 0 0 0 0 -1.01637 0 -6.65407 -0.596173 0 3.38962 0 0 0 -1.85946 0 -0.575796 -3.19777 0 -15.0713 1.83309 0 23.3509 0 0 0 3.2302 0 1.00464 
0 0 -0.353234 6.34831 3.79892 38.7091 0 0 0 0 0 0 -0.239749 0 7.17495 -0.619497 0 2.39056 0 0 0 -1.65464 0 -0.508658 -3.17945 0 -12.2957 1.61952 0 16.6627 0 0 0 3.21097 0 0.998881 
0 0 -0.351722 6.34831 3.79892 38.704 0 0 0 0 0 0 -0.239749 0 7.16161 -0.619497 0 2.36559 0 0 0 -1.65464 0 -0.508658 -3.17945 0 -12.3411 1.61952 0 16.6307 0 0 0 3.21097 0 0.998881 
0 0 -0.351722 6.34831 3.79892 38.704 0 0 0 0 0 0 -0.239749 0 7.16161 -0.619497 0 2.36559 0 0 0 -1.65464 0 -0.508658 -3.17945 0 -12.3411 1.61952 0 16.6307 0 0 0 3.21097 0 0.998881 
0 0 -0.351722 6.34831 3.79892 38.704 0 0 0 0 0 0 -0.239749 0 7.16161 -0.619497 0 2.36559 0 0 0 -1.65464 0 -0.508658 -3.17945 0 -12.3411 1.61952 0 16.6307 0 0 0 3.21097 0 0.998881 
0 0 -0.402702 2.45766 3.60803 -26.2726 0 0 0 0 0 0 -0.834995 0 -4.08745 -0.366314 0 7.37158 0 0 0 -1.83903 0 -0.569191 -3.24175 0 -11.551 1.81208 0 25.8031 0 0 0 3.27598 0 1.01845 
0 0 -0.401988 2.45766 3.60803 -26.2749 0 0 0 0 0 0 -0.834995 0 -4.0936 -0.366314 0 7.36002 0 0 0 -1.83903 0 -0.569191 -3.24175 0 -11.572 1.81208 0 25.7883 0 0 0 3.27598 0 1.01845 
0 0 -0.401988 2.45766 3.60803 -26.2749 0 0 0 0 0 0 -0.834995 0 -4.0936 -0.366314 0 7.36002 0 0 0 -1.83903 0 -0.569191 -3.24175 0 -11.572 1.81208 0 25.7883 0 0 0 3.27598 0 1.01845 
0 0 -0.51154 6.58062 3.58954 42.1575 0 0 0 0 0 0 -0.0946109 0 9.11135 -0.349075 0 6.86911 0 0 0 -1.65325 0 -0.508307 -3.2405 0 -8.1658 1.61839 0 20.4126 0 0 0 3.27458 0 1.01806 
0 0 -0.509482 6.58062 3.58954 42.1505 0 0 0 0 0 0 -0.0946109 0 9.09335 -0.349075 0 6.83538 0 0 0 -1.65325 0 -0.508307 -3.2405 0 -8.22704 1.61839 0 20.3694 0 0 0 3.27458 0 1.01806 
0 0 -0.509482 6.58062 3.58954 42.1505 0 0 0 0 0 0 -0.0946109 0 9.09335 -0.349075 0 6.83538 0 0 0 -1.65325 0 -0.508307 -3.2405 0 -8.22704 1.61839 0 20.3694 0 0 0 3.27458 0 1.01806 
0 0 -0.564177 2.70732 3.36191 -22.489 0 0 0 0 0 0 -0.602835 0 -0.802374 -0.0410489 0 12.4119 0 0 0 -1.80613 0 -0.558487 -3.32089 0 -7.30283 1.77801 0 28.7806 0 0 0 3.35854 0 1.04331 
0 0 -0.562546 2.70732 3.36191 -22.4944 0 0 0 0 0 0 -0.602835 0 -0.816425 -0.0410489 0 12.3855 0 0 0 -1.80613 0 -0.558487 -3.32089 0 -7.35077 1.77801 0 28.7468 0 0 0 3.35854 0 1.04331 
0 0 -0.562546 2.70732 3.36191 -22.4944 0 0 0 0 0 0 -0.602835 0 -0.816425 -0.0410489 0 12.3855 0 0 0 -1.80613 0 -0.558487 -3.32089 0 -7.35077 1.77801 0 28.7468 0 0 0 3.35854 0 1.04331 
0 0 -0.562546 2.70732 3.36191 -22.4944 0 0 0 0 0 0 -0.602835 0 -0.816425 -0.0410489 0 12.3855 0 0 0 -1.80613 0 -0.558487 -3.32089 0 -7.35077 1.77801 0 28.7468 0 0 0 3.35854 0 1.04331 
0 0 -0.686454 6.8413 3.31585 46.1083 0 0 0 0 0 0 0.0911664 0 11.4631 0.0132599 0 12.2787 0 0 0 -1.64876 0 -0.506921 -3.32914 0 -3.27028 1.61397 0 24.9248 0 0 0 3.36707 0 1.0459 
0 0 -0.683722 6.8413 3.31585 46.0992 0 0 0 0 0 0 0.0911664 0 11.4394 0.0132599 0 12.2343 0 0 0 -1.64876 0 -0.506921 -3.32914 0 -3.35096 1.61397 0 24.8678 0 0 0 3.36707 0 1.0459 
0 0 -0.683722 6.8413 3.31585 46.0992 0 0 0 0 0 0 0.0911664 0 11.4394 0.0132599 0 12.2343 0 0 0 -1.64876 0 -0.506921 -3.32914 0 -3.35096 1.61397 0 24.8678 0 0 0 3.36707 0 1.0459 
0 0 -0.738579 2.9756 3.04771 -18.1233 0 0 0 0 0 0 -0.316306 0 3.14218 0.371241 0 18.3558 0 0 0 -1.76967 0 -0.5466 -3.41898 0 -2.18366 1.74019 0 32.3976 0 0 0 3.46093 0 1.07412 
0 0 -0.735837 2.9756 3.04771 -18.1324 0 0 0 0 0 0 -0.316306 0 3.11869 0.371241 0 18.3116 0 0 0 -1.76967 0 -0.5466 -3.41898 0 -2.26381 1.74019 0 32.3411 0 0 0 3.46093 0 1.07412 
0 0 -0.735837 2.9756 3.04771 -18.1324 0 0 0 0 0 0 -0.316306 0 3.11869 0.371241 0 18.3116 0 0 0 -1.76967 0 -0.5466 -3.41898 0 -2.26381 1.74019 0 32.3411 0 0 0 3.46093 0 1.07412 
0 0 -0.863778 7.10419 2.96813 50.4877 0 0 0 0 0 0 0.320442 0 14.1873 0.46133 0 18.4722 0 0 0 -1.65181 0 -0.50799 -3.42948 0 2.27347 1.61737 0 30.1607 0 0 0 3.47182 0 1.07742 
0 0 -0.860219 7.10419 2.96813 50.4759 0 0 0 0 0 0 0.320442 0 14.1567 0.46133 0 18.4148 0 0 0 -1.65181 0 -0.50799 -3.42948 0 2.16931 1.61737 0 30.0872 0 0 0 3.47182 0 1.07742 
0 0 -0.860219 7.10419 2.96813 50.4759 0 0 0 0 0 0 0.320442 0 14.1567 0.46133 0 18.4148 0 0 0 -1.65181 0 -0.50799 -3.42948 0 2.16931 1.61737 0 30.0872 0 0 0 3.47182 0 1.07742 
0 0 -0.860219 7.10419 2.96813 50.4759 0 0 0 0 0 0 0.320442 0 14.1567 0.46133 0 18.4148 0 0 0 -1.65181 0 -0.50799 -3.42948 0 2.16931 1.61737 0 30.0872 0 0 0 3.47182 0 1.07742 
0 0 -0.909774 3.24013 2.65319 -13.2579 0 0 0 0 0 0 0.0296168 0 7.68932 0.866896 0 25.0012 0 0 0 -1.74179 0 -0.537506 -3.52011 0 3.56298 1.71126 0 36.5216 0 0 0 3.56654 0 1.10588 
0 0 -0.905734 3.24013 2.65319 -13.271 0 0 0 0 0 0 0.0296168 0 7.65506 0.866896 0 24.9368 0 0 0 -1.74179 0 -0.537506 -3.52011 0 3.44601 1.71126 0 36.4391 0 0 0 3.56654 0 1.10588 
0 0 -0.905734 3.24013 2.65319 -13.271 0 0 0 0 0 0 0.0296168 0 7.65506 0.866896 0 24.9368 0 0 0 -1.74179 0 -0.537506 -3.52011 0 3.44601 1.71126 0 36.4391 0 0 0 3.56654 0 1.10588 
0 0 -1.04233 7.36317 2.53305 55.4223 0 0 0 0 0 0 0.597234 0 17.2942 0.991298 0 25.4157 0 0 0 -1.67745 0 -0.516445 -3.52437 0 8.59571 1.64426 0 36.2623 0 0 0 3.57092 0 1.10722 
0 0 -1.03782 7.36317 2.53305 55.4077 0 0 0 0 0 0 0.597234 0 17.256 0.991298 0 25.344 0 0 0 -1.67745 0 -0.516445 -3.52437 0 8.4655 1.64426 0 36.1704 0 0 0 3.57092 0 1.10722 
0 0 -1.03782 7.36317 2.53305 55.4077 0 0 0 0 0 0 0.597234 0 17.256 0.991298 0 25.344 0 0 0 -1.67745 0 -0.516445 -3.52437 0 8.4655 1.64426 0 36.1704 0 0 0 3.57092 0 1.10722 
0 0 -1.07909 3.55869 2.20735 -7.39798 0 0 0 0 0 0 0.437632 0 12.8064 1.36544 0 31.245 0 0 0 -1.73814 0 -0.53633 -3.5728 0 10.8136 1.70751 0 41.1921 0 0 0 3.62156 0 1.12243 
0 0 -1.07363 3.55869 2.20735 -7.41542 0 0 0 0 0 0 0.437632 0 12.7608 1.36544 0 31.1593 0 0 0 -1.73814 0 -0.53633 -3.5728 0 10.6579 1.70751 0 41.0823 0 0 0 3.62156 0 1.12243 
0 0 -1.07363 3.55869 2.20735 -7.41542 0 0 0 0 0 0 0.437632 0 12.7608 1.36544 0 31.1593 0 0 0 -1.73814 0 -0.53633 -3.5728 0 10.6579 1.70751 0 41.0823 0 0 0 3.62156 0 1.12243 
0 0 -1.07363 3.55869 2.20735 -7.41542 0 0 0 0 0 0 0.437632 0 12.7608 1.36544 0 31.1593 0 0 0 -1.73814 0 -0.53633 -3.5728 0 10.6579 1.70751 0 41.0823 0 0 0 3.62156 0 1.12243 
0 0 -1.19404 4.03806 2.20742 18.3254 0 0 0 0 0 0 0.923765 0 20.6774 1.32293 0 29.7091 0 0 0 -1.68237 0 -0.51807 -3.53036 0 16.3737 1.64943 0 41.7179 0 0 0 3.57712 0 1.10909 
0 0 -1.18807 4.03806 2.20742 18.3066 0 0 0 0 0 0 0.923765 0 20.6281 1.32293 0 29.6163 0 0 0 -1.68237 0 -0.51807 -3.53036 0 16.205 1.64943 0 41.5989 0 0 0 3.57712 0 1.10909 
0 0 -1.18807 4.03806 2.20742 18.3066 0 0 0 0 0 0 0.923765 0 20.6281 1.32293 0 29.6163 0 0 0 -1.68237 0 -0.51807 -3.53036 0 16.205 1.64943 0 41.5989 0 0 0 3.57712 0 1.10909 
0 0 -1.25042 1.47363 1.91533 -11.2223 0 0 0 0 0 0 0.891039 0 18.2321 1.63069 0 36.0656 0 0 0 -1.68219 0 -0.518038 -3.54602 0 18.7589 1.64932 0 45.2317 0 0 0 3.59345 0 1.11401 
0 0 -1.24343 1.47363 1.91533 -11.2439 0 0 0 0 0 0 0.891039 0 18.1753 1.63069 0 35.9586 0 0 0 -1.68219 0 -0.518038 -3.54602 0 18.5644 1.64932 0 45.0945 0 0 0 3.59345 0 1.11401 
0 0 -1.24343 1.47363 1.91533 -11.2439 0 0 0 0 0 0 0.891039 0 18.1753 1.63069 0 35.9586 0 0 0 -1.68219 0 -0.518038 -3.54602 0 18.5644 1.64932 0 45.0945 0 0 0 3.59345 0 1.11401 
0 0 -1.37329 6.97593 1.81304 66.0831 0 0 0 0 0 0 1.28656 0 24.2414 1.7335 0 37.1082 0 0 0 -1.68452 0 -0.518833 -3.54654 0 22.8774 1.65185 0 48.0812 0 0 0 3.59392 0 1.11417 
0 0 -1.36604 6.97593 1.81304 66.0609 0 0 0 0 0 0 1.28656 0 24.1829 1.7335 0 36.9981 0 0 0 -1.68452 0 -0.518833 -3.54654 0 22.677 1.65185 0 47.9399 0 0 0 3.59392 0 1.11417 
0 0 -1.36604 6.97593 1.81304 66.0609 0 0 0 0 0 0 1.28656 0 24.1829 1.7335 0 36.9981 0 0 0 -1.68452 0 -0.518833 -3.54654 0 22.677 1.65185 0 47.9399 0 0 0 3.59392 0 1.11417 
0 0 -1.36604 6.97593 1.81304 66.0609 0 0 0 0 0 0 1.28656 0 24.1829 1.7335 0 36.9981 0 0 0 -1.68452 0 -0.518833 -3.54654 0 22.677 1.65185 0 47.9399 0 0 0 3.59392 0 1.11417 
-0.00473568 -2.95145 3.75455 0 0 0 0 0 0 -4.28891 -3.18123 20.6174 1.31238 0 21.219 0 0 0 0 0 0 -1.67242 0 -0.514815 0 0 0 1.63907 0 48.5394 -1.95908 8.44835e-16 -0.633572 3.55627 0 1.35495 
-0.00473568 -2.95145 3.75911 0 0 0 0 0 0 -4.28891 -14.3935 57.6236 1.31238 0 21.1829 0 0 0 0 0 0 -1.67242 0 -0.514815 0 0 0 1.63907 0 48.4523 -1.95908 20.2041 -2.84059 3.55627 0.0964097 1.32522 
-0.00473568 -2.95145 3.75911 0 0 0 0 0 0 -4.28891 -21.9529 82.5755 1.31238 0 21.1829 0 0 0 0 0 0 -1.67242 0 -0.514815 0 0 0 1.63907 0 48.4523 -1.95908 33.5128 -4.29438 3.55627 0.192819 1.29548 
1.40479 -3.28447 32.7144 0 0 0 0 0 0 -9.07339 -30.1057 46.7101 1.62365 0 27.2459 0 0 0 0 0 0 -1.69167 0 -0.521659 0 0 0 1.66081 0 55.4119 2.65066 44.6484 11.0044 1.69767 0.289229 0.706719 
1.40479 -3.28447 32.7184 0 0 0 0 0 0 -9.07339 -35.7556 66.1825 1.62365 0 27.215 0 0 0 0 0 0 -1.69167 0 -0.521659 0 0 0 1.66081 0 55.3368 2.65066 54.1605 9.96439 1.69767 0.377536 0.67852 
1.40479 -3.28447 32.7184 0 0 0 0 0 0 -9.07339 -40.6726 83.1273 1.62365 0 27.215 0 0 0 0 0 0 -1.69167 0 -0.521659 0 0 0 1.66081 0 55.3368 2.65066 62.1806 9.08753 1.69767 0.471922 0.648379 
3.59913 -3.18947 50.6392 0 0 0 0 0 0 -16.2758 -46.8478 60.6523 1.57778 0 27.9474 0 0 0 0 0 0 -1.64378 0 -0.50622 0 0 0 1.61169 0 60.0081 11.542 68.5476 23.0613 -2.39629 0.566308 -0.622676 
3.59913 -3.18947 50.6456 0 0 0 0 0 0 -16.2758 -49.8258 71.1034 1.57778 0 27.9013 0 0 0 0 0 0 -1.64378 0 -0.50622 0 0 0 1.61169 0 59.896 11.542 73.0797 22.5671 -2.39629 0.660707 -0.654839 
3.59913 -3.18947 50.6456 0 0 0 0 0 0 -16.2758 -51.7371 77.8056 1.57778 0 27.9013 0 0 0 0 0 0 -1.64378 0 -0.50622 0 0 0 1.61169 0 59.896 11.542 75.4418 22.3096 -2.39629 0.755098 -0.687001 
3.59913 -3.18947 50.6456 0 0 0 0 0 0 -16.2758 -52.4304 80.2285 1.57778 0 27.9013 0 0 0 0 0 0 -1.64378 0 -0.50622 0 0 0 1.61169 0 59.896 11.542 75.6523 22.2867 -2.39629 0.849493 -0.719163 
5.2183 -2.81048 55.8517 0 0 0 0 0 0 -23.1777 -54.1833 59.4277 1.39401 0 31.0432 0 0 0 0 0 0 -1.4557 0 -0.44485 0 0 0 1.41646 0 64.5277 22.0722 75.4431 27.8987 -7.31738 0.943888 -2.25598 
5.2183 -2.81048 55.8594 0 0 0 0 0 0 -23.1777 -54.5996 60.854 1.39401 0 30.9919 0 0 0 0 0 0 -1.4557 0 -0.44485 0 0 0 1.41646 0 64.4021 22.0722 75.0202 27.9446 -7.31738 1.04543 -2.29294 
5.2183 -2.81048 55.8594 0 0 0 0 0 0 -23.1777 -54.8177 61.5996 1.39401 0 30.9919 0 0 0 0 0 0 -1.4557 0 -0.44485 0 0 0 1.41646 0 64.4021 22.0722 74.4148 28.0103 -7.31738 1.14048 -2.32754 
7.2607 -2.79349 69.759 0 0 0 0 0 0 -31.0423 -56.9829 35.7582 1.69173 0 38.9176 0 0 0 0 0 0 -1.15098 0 -0.345914 0 0 0 1.10171 0 67.1236 32.4315 73.6241 27.5276 -11.7343 1.23553 -3.72193 
7.2607 -2.79349 69.7669 0 0 0 0 0 0 -31.0423 -57.4721 37.4113 1.69173 0 38.8683 0 0 0 0 0 0 -1.15098 0 -0.345914 0 0 0 1.10171 0 67.0024 32.4315 72.5077 27.6484 -11.7343 1.36855 -3.77282 
7.2607 -2.79349 69.7669 0 0 0 0 0 0 -31.0423 -57.3467 36.9934 1.69173 0 38.8683 0 0 0 0 0 0 -1.15098 0 -0.345914 0 0 0 1.10171 0 67.0024 32.4315 71.357 27.7728 -11.7343 1.46632 -3.81022 
8.72194 -2.79401 73.3539 0 0 0 0 0 0 -37.5367 -58.6222 30.221 1.93097 0 41.3108 0 0 0 0 0 0 -0.917381 0 -0.270868 0 0 0 0.862931 0 71.76 40.9293 70.0382 21.6226 -14.8562 1.5641 -4.82394 
8.72194 -2.79401 73.3629 0 0 0 0 0 0 -37.5367 -59.1731 32.0503 1.93097 0 41.2606 0 0 0 0 0 0 -0.917381 0 -0.270868 0 0 0 0.862931 0 71.6353 40.9293 68.1656 21.8243 -14.8562 1.76137 -4.90165 
8.72194 -2.79401 73.3629 0 0 0 0 0 0 -37.5367 -58.7074 30.5398 1.93097 0 41.2606 0 0 0 0 0 0 -0.917381 0 -0.270868 0 0 0 0.862931 0 71.6353 40.9293 66.5071 22.0029 -14.8562 1.86501 -4.94247 
8.72194 -2.79401 73.3629 0 0 0 0 0 0 -37.5367 -58.1443 28.7102 1.93097 0 41.2606 0 0 0 0 0 0 -0.917381 0 -0.270868 0 0 0 0.862931 0 71.6353 40.9293 64.6889 22.1988 -14.8562 1.96867 -4.9833 
11.3643 -3.05891 97.6701 0 0 0 0 0 0 -45.3326 -60.4525 5.36349 2.11952 0 43.7288 0 0 0 0 0 0 -0.990424 0 -0.294876 0 0 0 0.939277 0 82.7781 47.9296 62.7115 17.3243 -16.8374 2.07232 -5.67488 
11.3643 -3.05891 97.6799 0 0 0 0 0 0 -45.3326 -60.7219 6.28687 2.11952 0 43.681 0 0 0 0 0 0 -0.990424 0 -0.294876 0 0 0 0.939277 0 82.6576 47.9296 59.8602 17.6298 -16.8374 2.37143 -5.79438 
11.3643 -3.05891 97.6799 0 0 0 0 0 0 -45.3326 -59.8196 3.36601 2.11952 0 43.681 0 0 0 0 0 0 -0.990424 0 -0.294876 0 0 0 0.939277 0 82.6576 47.9296 57.5402 17.8784 -16.8374 2.48442 -5.83953 
11.8357 -3.33008 86.3497 0 0 0 0 0 0 -49.0304 -59.6371 22.5293 2.27058 0 44.6041 0 0 0 0 0 0 -1.10716 0 -0.332633 0 0 0 1.05939 0 88.4694 52.0738 55.0505 8.32385 -17.5443 2.59743 -6.16885 
11.8357 -3.33008 86.362 0 0 0 0 0 0 -49.0304 -59.5731 22.4239 2.27058 0 44.543 0 0 0 0 0 0 -1.10716 0 -0.332633 0 0 0 1.05939 0 88.3159 52.0738 51.2827 8.72493 -17.5443 3.01288 -6.33477 
11.8357 -3.33008 86.362 0 0 0 0 0 0 -49.0304 -58.3011 18.4307 2.27058 0 44.543 0 0 0 0 0 0 -1.10716 0 -0.332633 0 0 0 1.05939 0 88.3159 52.0738 48.3908 9.03276 -17.5443 3.13854 -6.38496 
11.5942 -3.75568 81.913 0 0 0 0 0 0 -51.3481 -57.1827 21.5687 2.38924 0 45.3576 0 0 0 0 0 0 -1.40452 0 -0.42913 0 0 0 1.36637 0 97.6547 53.9937 45.2831 1.99002 -17.0101 3.26421 -6.32539 
11.5942 -3.75568 81.9252 0 0 0 0 0 0 -51.3481 -56.4343 19.4062 2.38924 0 45.2983 0 0 0 0 0 0 -1.40452 0 -0.42913 0 0 0 1.36637 0 97.5053 53.9937 40.3186 2.51365 -17.0101 3.73917 -6.51292 
11.5942 -3.75568 81.9252 0 0 0 0 0 0 -51.3481 -54.6605 13.9737 2.38924 0 45.2983 0 0 0 0 0 0 -1.40452 0 -0.42913 0 0 0 1.36637 0 97.5053 53.9937 36.5809 2.90788 -17.0101 3.87787 -6.56768 
11.5942 -3.75568 81.9252 0 0 0 0 0 0 -51.3481 -52.6758 7.89003 2.38924 0 45.2983 0 0 0 0 0 0 -1.40452 0 -0.42913 0 0 0 1.36637 0 97.5053 53.9937 32.4428 3.34434 -17.0101 4.01659 -6.62244 
9.60828 -4.31994 63.6053 0 0 0 0 0 0 -50.9499 -49.0674 21.1778 2.48269 0 46.0338 0 0 0 0 0 0 -1.85864 0 -0.577129 0 0 0 1.83722 0 107.62 53.2676 27.7523 -4.72715 -15.2238 4.15533 -6.13772 
9.60828 -4.31994 63.6176 0 0 0 0 0 0 -50.9499 -46.0435 12.2093 2.48269 0 45.9719 0 0 0 0 0 0 -1.85864 0 -0.577129 0 0 0 1.83722 0 107.465 53.2676 18.9337 -3.80621 -15.2238 4.62551 -6.31905 
9.60828 -4.31994 63.6176 0 0 0 0 0 0 -50.9499 -41.3019 -2.07242 2.48269 0 45.9719 0 0 0 0 0 0 -1.85864 0 -0.577129 0 0 0 1.83722 0 107.465 53.2676 9.64393 -2.83605 -15.2238 4.77506 -6.37672 
3.54808 -5.03936 11.4976 0 0 0 0 0 0 -45.1703 -31.036 28.4154 2.55834 0 51.4581 0 0 0 0 0 0 -2.47843 0 -0.779456 0 0 0 2.48102 0 123.311 49.507 -6.36111e-15 -11.1738 -12.232 4.92464 -5.45649 
3.54808 -5.03936 11.4031 0 0 0 0 0 0 -45.1703 -32.3352 32.4123 2.55834 0 51.2417 0 0 0 0 0 0 -2.47843 0 -0.779456 0 0 0 2.48102 0 122.99 49.507 6.36111e-15 -11.1738 -12.232 5.28479 -5.59033 
3.54808 -5.03936 11.4031 0 0 0 0 0 0 -45.1703 -32.4308 32.763 2.55834 0 51.2417 0 0 0 0 0 0 -2.47843 0 -0.779456 0 0 0 2.48102 0 122.99 49.507 3.18055e-15 -11.1738 -12.232 5.44068 -5.64826 
4.36716 -6.08094 60.6451 0 0 0 0 0 0 -46.986 -34.5027 -29.4814 2.62315 0 49.0104 0 0 0 0 0 0 -3.41862 0 -1.08638 0 0 0 3.45788 0 135.738 45.5705 -3.18055e-15 -11.8286 -8.57421 5.59662 -4.45449 
4.36716 -6.08094 60.7639 0 0 0 0 0 0 -46.986 -35.147 -27.5361 2.62315 0 49.1063 0 0 0 0 0 0 -3.41862 0 -1.08638 0 0 0 3.45788 0 135.753 45.5705 -9.54166e-15 -11.8286 -8.57421 5.60605 -4.45785 
4.36716 -6.08094 60.7639 0 0 0 0 0 0 -46.986 -35.166 -27.4191 2.62315 0 49.1063 0 0 0 0 0 0 -3.41862 0 -1.08638 0 0 0 3.45788 0 135.753 45.5705 -9.54166e-15 -11.8286 -8.57421 5.75807 -4.51205 
4.36716 -6.08094 60.7639 0 0 0 0 0 0 -46.986 -35.1811 -27.314 2.62315 0 49.1063 0 0 0 0 0 0 -3.41862 0 -1.08638 0 0 0 3.45788 0 135.753 45.5705 3.18055e-15 -11.8286 -8.57421 5.91013 -4.56626 
-0.487064 -7.00713 5.2429 0 0 0 0 0 0 -40.7898 -31.2749 39.4526 2.67141 0 52.2834 0 0 0 0 0 0 -4.25929 0 -1.36209 0 0 0 4.33587 0 146.131 38.632 -3.18055e-15 -21.5935 -4.13726 6.06223 -3.08932 
-0.487064 -7.00713 5.25741 0 0 0 0 0 0 -40.7898 -31.549 40.2347 2.67141 0 52.2038 0 0 0 0 0 0 -4.25929 0 -1.36209 0 0 0 4.33587 0 145.932 38.632 -3.18055e-15 -21.5935 -4.13726 5.96615 -3.057 
-0.487064 -7.00713 5.25741 0 0 0 0 0 0 -40.7898 -31.516 40.1937 2.67141 0 52.2038 0 0 0 0 0 0 -4.25929 0 -1.36209 0 0 0 4.33587 0 145.932 38.632 3.18055e-15 -21.5935 -4.13726 6.11221 -3.10613 
-3.09823 -8.26883 11.7419 0 0 0 0 0 0 -37.5055 -30.0381 22.6284 2.7101 0 56.4998 0 0 0 0 0 0 -5.43077 0 -1.74596 0 0 0 5.55894 0 166.317 32.3868 0 -19.8441 -0.0485669 6.25832 -1.75087 
-3.09823 -8.26883 11.7557 0 0 0 0 0 0 -37.5055 -29.8611 21.988 2.7101 0 56.4186 0 0 0 0 0 0 -5.43077 0 -1.74596 0 0 0 5.55894 0 166.116 32.3868 6.36111e-15 -19.8441 -0.0485669 5.92147 -1.64379 
-3.09823 -8.26883 11.7557 0 0 0 0 0 0 -37.5055 -29.7995 21.8365 2.7101 0 56.4186 0 0 0 0 0 0 -5.43077 0 -1.74596 0 0 0 5.55894 0 166.116 32.3868 -6.36111e-15 -19.8441 -0.0485669 6.05655 -1.68673 
-5.16543 -9.5351 12.104 0 0 0 0 0 0 -34.6581 -28.928 22.2214 2.74111 0 60.2074 0 0 0 0 0 0 -6.61263 0 -2.13338 0 0 0 6.79423 0 180.533 26.8992 6.36111e-15 -18.0376 3.40959 6.19166 -0.565551 
-5.16543 -9.5351 12.1208 0 0 0 0 0 0 -34.6581 -28.3971 20.4447 2.74111 0 60.107 0 0 0 0 0 0 -6.61263 0 -2.13338 0 0 0 6.79423 0 180.284 26.8992 -9.54166e-15 -18.0376 3.40959 5.64734 -0.40071 
-5.16543 -9.5351 12.1208 0 0 0 0 0 0 -34.6581 -28.3234 20.2385 2.74111 0 60.107 0 0 0 0 0 0 -6.61263 0 -2.13338 0 0 0 6.79423 0 180.284 26.8992 -9.54166e-15 -18.0376 3.40959 5.7679 -0.43722 
-5.16543 -9.5351 12.1208 0 0 0 0 0 0 -34.6581 -28.2611 20.0681 2.74111 0 60.107 0 0 0 0 0 0 -6.61263 0 -2.13338 0 0 0 6.79423 0 180.284 26.8992 0 -18.0376 3.40959 5.88848 -0.473738 
-6.92475 -10.7725 14.5981 0 0 0 0 0 0 -32.2311 -27.8467 21.2597 2.76603 0 63.288 0 0 0 0 0 0 -7.77217 0 -2.51334 0 0 0 8.00671 0 193.086 22.3021 6.36111e-15 -15.7005 6.18869 6.00909 0.394989 
-6.92475 -10.7725 14.6162 0 0 0 0 0 0 -32.2311 -27.0375 18.5864 2.76603 0 63.1802 0 0 0 0 0 0 -7.77217 0 -2.51334 0 0 0 8.00671 0 192.819 22.3021 -6.36111e-15 -15.7005 6.18869 5.28063 0.607662 
-6.92475 -10.7725 14.6162 0 0 0 0 0 0 -32.2311 -26.9789 18.4184 2.76603 0 63.1802 0 0 0 0 0 0 -7.77217 0 -2.51334 0 0 0 8.00671 0 192.819 22.3021 -9.54166e-15 -15.7005 6.18869 5.38448 0.577345 
-7.34057 -12.1035 30.4037 0 0 0 0 0 0 -31.7035 -28.0469 9.21973 2.78604 0 65.9481 0 0 0 0 0 0 -9.02585 0 -2.92382 0 0 0 9.3177 0 207.751 18.9182 -3.18055e-15 -12.0527 8.18846 5.48834 1.17042 
-7.34057 -12.1035 30.422 0 0 0 0 0 0 -31.7035 -27.1179 6.1583 2.78604 0 65.8409 0 0 0 0 0 0 -9.02585 0 -2.92382 0 0 0 9.3177 0 207.484 18.9182 -9.54166e-15 -12.0527 8.18846 4.67397 1.40293 
-7.34057 -12.1035 30.422 0 0 0 0 0 0 -31.7035 -27.0747 6.02692 2.78604 0 65.8409 0 0 0 0 0 0 -9.02585 0 -2.92382 0 0 0 9.3177 0 207.484 18.9182 -3.18055e-15 -12.0527 8.18846 4.76073 1.37816 
-8.05813 -13.408 36.4235 0 0 0 0 0 0 -30.9264 -28.0379 12.3449 2.80209 0 67.6338 0 0 0 0 0 0 -10.2585 0 -3.32686 0 0 0 10.6062 0 219.364 16.1136 -9.54166e-15 -10.364 9.62789 4.84749 1.7824 
0 0 -3.30715 35.5975 34.6246 28.8205 0 0 0 0 0 0 2.80209 0 71.1433 -16.165 0 17.1984 0 0 0 -10.2585 0 -3.32686 -9.22935 -9.21325 135.796 10.6062 0 223.905 0 0 0 9.62789 0 2.89842 
0 0 0 35.5975 25.4113 59.1283 7.35577 2.60139 1.84227 0 0 0 0 0 0 -16.165 0 18.8947 -2.80217 1.59028e-15 -2.35403 -10.2585 0 -3.07476 -9.22935 0 70.5587 0 0 0 0 0 0 9.62789 0 2.89842 
0 0 0 35.5975 25.4113 59.1283 7.35577 -5.90063 26.5181 0 0 0 0 0 0 -16.165 0 18.8947 -2.80217 14.7195 -3.82911 -10.2585 0.0303293 -3.08548 -9.22935 0 70.5587 0 0 0 0 0 0 9.62789 0 2.89842 
0 0 0 29.7566 22.3066 49.3307 9.46955 -10.9553 62.729 0 0 0 0 0 0 -12.8384 0 49.3367 -0.381962 24.8497 1.68729 -13.9641 0.0606586 -4.30685 -9.45441 0 97.0146 0 0 0 0 0 0 9.86548 0 2.96859 
0 0 0 29.7566 22.3066 49.2891 9.46955 -14.9202 74.726 0 0 0 0 0 0 -12.8384 0 49.2284 -0.381962 32.3988 0.928304 -13.9641 0.0909885 -4.31807 -9.45441 0 96.7178 0 0 0 0 0 0 9.86548 0 2.96859 
0 0 0 29.7566 22.3066 49.2891 9.46955 -19.5911 88.8579 0 0 0 0 0 0 -12.8384 0 49.2284 -0.381962 39.8457 0.179593 -13.9641 0.121318 -4.32929 -9.45441 0 96.7178 0 0 0 0 0 0 9.86548 0 2.96859 
0 0 0 23.0785 19.9265 20.0768 10.5086 -20.7691 94.2741 0 0 0 0 0 0 -10.6705 0 62.3996 6.20982 46.5522 11.3326 -18.5423 0.151647 -5.85004 -9.24608 0 121.958 0 0 0 0 0 0 9.63071 0 2.90304 
0 0 0 23.0785 19.9265 20.0119 10.5086 -24.7657 106.304 0 0 0 0 0 0 -10.6705 0 62.0404 6.20982 52.5935 10.7252 -18.5423 0.189861 -5.86483 -9.24608 0 121.35 0 0 0 0 0 0 9.63071 0 2.90304 
0 0 0 23.0785 19.9265 20.0119 10.5086 -28.5154 117.59 0 0 0 0 0 0 -10.6705 0 62.0404 6.20982 58.1002 10.1715 -18.5423 0.221504 -5.87709 -9.24608 0 121.35 0 0 0 0 0 0 9.63071 0 2.90304 
0 0 0 14.6793 16.9497 -41.3633 11.245 -26.16 107.463 0 0 0 0 0 0 -7.96641 0 81.2366 16.9979 63.0269 21.7993 -24.4838 0.253148 -7.8377 -8.9757 0 124.755 0 0 0 0 0 0 9.32968 0 2.81795 
0 0 0 14.6793 16.9497 -41.3993 11.245 -29.5446 116.793 0 0 0 0 0 0 -7.96641 0 81.0561 16.9979 67.4033 21.3571 -24.4838 0.275731 -7.84689 -8.9757 0 124.422 0 0 0 0 0 0 9.32968 0 2.81795 
0 0 0 14.6793 16.9497 -41.3993 11.245 -32.4776 124.885 0 0 0 0 0 0 -7.96641 0 81.0561 16.9979 71.0937 20.9843 -24.4838 0.306368 -7.85936 -8.9757 0 124.422 0 0 0 0 0 0 9.32968 0 2.81795 
0 0 0 14.6793 16.9497 -41.3993 11.245 -35.0963 132.113 0 0 0 0 0 0 -7.96641 0 81.0561 16.9979 74.1113 20.6795 -24.4838 0.337005 -7.87184 -8.9757 0 124.422 0 0 0 0 0 0 9.32968 0 2.81795 
0 0 0 11.0088 14.8855 -10.7907 7.06887 -36.7993 94.7758 0 0 0 0 0 0 -5.79785 0 87.1899 26.6094 76.3996 17.2376 -29.561 0.367643 -9.51558 -9.08169 0 114.852 0 0 0 0 0 0 9.43348 0 2.85096 
0 0 0 11.0088 14.8855 -10.8361 7.06887 -39.4658 102.424 0 0 0 0 0 0 -5.79785 0 86.9598 26.6094 77.9148 17.0831 -29.561 0.343892 -9.50557 -9.08169 0 114.43 0 0 0 0 0 0 9.43348 0 2.85096 
0 0 0 11.0088 14.8855 -10.8361 7.06887 -40.8132 106.311 0 0 0 0 0 0 -5.79785 0 86.9598 26.6094 78.472 17.0263 -29.561 0.370345 -9.51672 -9.08169 0 114.43 0 0 0 0 0 0 9.43348 0 2.85096 
0 0 0 6.42577 13.1736 -33.6584 2.36826 -39.4841 88.7872 0 0 0 0 0 0 -4.06759 0 91.894 38.7349 78.3921 25.0936 -34.9875 0.396799 -11.2314 -9.10115 0 114.262 0 0 0 0 0 0 9.45109 0 2.8569 
0 0 0 6.42577 13.1736 -33.6995 2.36826 -41.5631 94.8306 0 0 0 0 0 0 -4.06759 0 91.6823 38.7349 77.9693 25.1372 -34.9875 0.322394 -11.1991 -9.10115 0 113.873 0 0 0 0 0 0 9.45109 0 2.8569 
0 0 0 6.42577 13.1736 -33.6995 2.36826 -42.3618 97.1782 0 0 0 0 0 0 -4.06759 0 91.6823 38.7349 77.6086 25.1744 -34.9875 0.342544 -11.2079 -9.10115 0 113.873 0 0 0 0 0 0 9.45109 0 2.8569 
0 0 0 5.68194 12.1337 -9.27787 -5.76933 -44.1532 61.1647 0 0 0 0 0 0 -2.89899 0 91.7012 49.3065 77.1398 21.4208 -38.5053 0.362694 -12.2481 -9.23078 0 107.158 0 0 0 0 0 0 9.58729 0 2.8974 
0 0 0 5.68194 12.1337 -9.32779 -5.76933 -46.3499 68.0195 0 0 0 0 0 0 -2.89899 0 91.4421 49.3065 75.6809 21.5725 -38.5053 0.209869 -12.1809 -9.23078 0 106.682 0 0 0 0 0 0 9.58729 0 2.8974 
0 0 0 5.68194 12.1337 -9.32779 -5.76933 -46.8415 69.5672 0 0 0 0 0 0 -2.89899 0 91.4421 49.3065 74.9156 21.6521 -38.5053 0.220915 -12.1858 -9.23078 0 106.682 0 0 0 0 0 0 9.58729 0 2.8974 
0 0 0 5.68194 12.1337 -9.32779 -5.76933 -47.263 70.8945 0 0 0 0 0 0 -2.89899 0 91.4421 49.3065 74.0473 21.7424 -38.5053 0.231961 -12.1906 -9.23078 0 106.682 0 0 0 0 0 0 9.58729 0 2.8974 
0 0 0 2.5381 11.0258 -35.1061 -12.5631 -45.777 57.0781 0 0 0 0 0 0 -1.74953 0 95.2029 59.8433 73.0764 22.8475 -40.8083 0.243007 -12.8237 -9.27269 0 103.308 0 0 0 0 0 0 9.63447 0 2.91044 
0 0 0 2.5381 11.0258 -35.1516 -12.5631 -47.387 62.2042 0 0 0 0 0 0 -1.74953 0 94.9649 59.8433 69.9423 23.1765 -40.8083 0.0227139 -12.7263 -9.27269 0 102.872 0 0 0 0 0 0 9.63447 0 2.91044 
0 0 0 2.5381 11.0258 -35.1516 -12.5631 -47.4587 62.4346 0 0 0 0 0 0 -1.74953 0 94.9649 59.8433 68.6598 23.3112 -40.8083 0.0237019 -12.7267 -9.27269 0 102.872 0 0 0 0 0 0 9.63447 0 2.91044 
0 0 0 1.52813 10.1745 -27.9127 -21.5913 -47.4088 22.6088 0 0 0 0 0 0 -0.833594 0 94.8152 67.9553 67.273 17.4309 -40.164 0.024689 -12.3537 -9.33745 0 95.4252 0 0 0 0 0 0 9.70516 0 2.93059 
0 0 0 1.52813 10.1745 -27.9636 -21.5913 -48.0682 24.7744 0 0 0 0 0 0 -0.833594 0 94.5503 67.9553 62.1468 17.9716 -40.164 -0.291806 -12.2136 -9.33745 0 94.94 0 0 0 0 0 0 9.70516 0 2.93059 
0 0 0 1.52813 10.1745 -27.9636 -21.5913 -47.7434 23.6903 0 0 0 0 0 0 -0.833594 0 94.5503 67.9553 60.3999 18.1559 -40.164 -0.30303 -12.2086 -9.33745 0 94.94 0 0 0 0 0 0 9.70516 0 2.93059 
0 0 0 -0.870022 9.32057 -47.0731 -29.0763 -45.6442 4.78119 0 0 0 0 0 0 -0.0952268 0 93.3983 74.3274 58.5322 14.1723 -37.8683 -0.314253 -11.3333 -9.22229 0 91.984 0 0 0 0 0 0 9.58797 0 2.89453 
0 0 0 -0.870022 9.32057 -47.1183 -29.0763 -44.7574 1.77153 0 0 0 0 0 0 -0.0952268 0 93.1645 74.3274 50.7143 15.0066 -37.8683 -0.655912 -11.1824 -9.22229 0 91.5565 0 0 0 0 0 0 9.58797 0 2.89453 
0 0 0 -0.870022 9.32057 -47.1183 -29.0763 -43.9437 -0.976682 0 0 0 0 0 0 -0.0952268 0 93.1645 74.3274 48.3258 15.2615 -37.8683 -0.67853 -11.1724 -9.22229 0 91.5565 0 0 0 0 0 0 9.58797 0 2.89453 
0 0 0 -0.870022 9.32057 -47.1183 -29.0763 -43.0172 -4.10548 0 0 0 0 0 0 -0.0952268 0 93.1645 74.3274 45.7511 15.5363 -37.8683 -0.70115 -11.1624 -9.22229 0 91.5565 0 0 0 0 0 0 9.58797 0 2.89453 
0 0 0 2.46679 8.42206 -3.05033 -40.4486 -45.6847 -58.6976 0 0 0 0 0 0 0.499573 0 91.311 76.8048 42.9622 4.88879 -32.7516 -0.723768 -9.37315 -8.91932 0 89.0001 0 0 0 0 0 0 9.26549 0 2.79966 
0 0 0 2.46679 8.42206 -3.09336 -40.4486 -41.2374 -74.0977 0 0 0 0 0 0 0.499573 0 91.1746 76.8048 29.1966 6.37848 -32.7516 -1.11361 -9.20263 -8.91932 0 88.7381 0 0 0 0 0 0 9.26549 0 2.79966 
0 0 0 2.46679 8.42206 -3.09336 -40.4486 -39.0836 -81.5687 0 0 0 0 0 0 0.499573 0 91.1746 76.8048 24.5489 6.88147 -32.7516 -1.14736 -9.18787 -8.91932 0 88.7381 0 0 0 0 0 0 9.26549 0 2.79966 
0 0 0 2.68445 8.05419 -8.52629 -46.7183 -37.2405 -65.6819 0 0 0 0 0 0 0.971673 0 87.9793 77.9878 18.6948 4.25761 -28.1967 -1.18111 -7.75903 -9.02378 0 72.4104 0 0 0 0 0 0 9.38017 0 2.83238 
0 0 0 2.68445 8.05419 -8.5856 -46.7183 -30.0415 -91.9541 0 0 0 0 0 0 0.971673 0 87.5945 77.9878 1.27222e-14 6.30802 -28.1967 -1.32883 -7.69559 -9.02378 0 71.7168 0 0 0 0 0 0 9.38017 0 2.83238 
0 0 0 2.68445 8.05419 -8.5856 -46.7183 -30.2403 -91.215 0 0 0 0 0 0 0.971673 0 87.5945 77.9878 -6.36111e-15 6.30802 -28.1967 -1.36575 -7.67973 -9.02378 0 71.7168 0 0 0 0 0 0 9.38017 0 2.83238 
0 0 0 3.02613 7.07488 -8.59131 -49.5191 -31.3123 -71.8627 0 0 0 0 0 0 1.34733 0 85.2475 74.9568 0 -8.95747 -22.3368 -1.40267 -5.96335 -8.42015 0 81.5039 0 0 0 0 0 0 8.73632 0 2.64323 
0 0 0 3.02613 7.07488 -8.62743 -49.5191 -33.7643 -63.0094 0 0 0 0 0 0 1.34733 0 85.0786 74.9568 6.36111e-15 -8.95747 -22.3368 -1.42052 -5.95599 -8.42015 0 81.1988 0 0 0 0 0 0 8.73632 0 2.64323 
0 0 0 3.02613 7.07488 -8.62743 -49.5191 -33.8754 -62.5936 0 0 0 0 0 0 1.34733 0 85.0786 74.9568 0 -8.95747 -22.3368 -1.45695 -5.94097 -8.42015 0 81.1988 0 0 0 0 0 0 8.73632 0 2.64323 
0 0 0 3.02613 7.07488 -8.62743 -49.5191 -33.9817 -62.195 0 0 0 0 0 0 1.34733 0 85.0786 74.9568 -6.36111e-15 -8.95747 -22.3368 -1.49339 -5.92595 -8.42015 0 81.1988 0 0 0 0 0 0 8.73632 0 2.64323 
0 0 0 3.12537 6.06413 -4.95215 -51.4565 -34.8533 -53.1428 0 0 0 0 0 0 1.6549 0 82.1227 69.9637 -1.27222e-14 -13.2519 -15.4094 -1.52982 -3.86131 -7.71767 0 80.3201 0 0 0 0 0 0 7.98925 0 2.42317 
0 0 0 3.12537 6.06413 -4.99224 -51.4565 -36.9808 -45.6631 0 0 0 0 0 0 1.6549 0 81.9416 69.9637 0 -13.2519 -15.4094 -1.43108 -3.89955 -7.71767 0 79.9944 0 0 0 0 0 0 7.98925 0 2.42317 
0 0 0 3.12537 6.06413 -4.99224 -51.4565 -37.0232 -45.4992 0 0 0 0 0 0 1.6549 0 81.9416 69.9637 -2.54444e-14 -13.2519 -15.4094 -1.46436 -3.88666 -7.71767 0 79.9944 0 0 0 0 0 0 7.98925 0 2.42317 
0 0 0 7.18831 4.99353 54.6317 -57.0548 -41.9863 -78.1803 0 0 0 0 0 0 1.89708 0 78.7616 63.9559 -1.27222e-14 -14.5708 -8.43939 -1.49765 -1.80837 -6.88964 0 80.8382 0 0 0 0 0 0 7.10907 0 2.16361 
0 0 0 7.18831 4.99353 54.5939 -57.0548 -43.908 -71.5627 0 0 0 0 0 0 1.89708 0 78.5959 63.9559 -1.90833e-14 -14.5708 -8.43939 -1.26646 -1.89068 -6.88964 0 80.5413 0 0 0 0 0 0 7.10907 0 2.16361 
0 0 0 7.18831 4.99353 54.5939 -57.0548 -43.9047 -71.569 0 0 0 0 0 0 1.89708 0 78.5959 63.9559 0 -14.5708 -8.43939 -1.294 -1.88088 -6.88964 0 80.5413 0 0 0 0 0 0 7.10907 0 2.16361 
0 0 0 5.92273 4.00822 16.8992 -55.4718 -43.5244 -3.50349 0 0 0 0 0 0 2.09066 0 75.0402 56.3881 -1.27222e-14 -18.5687 -1.62602 -1.32153 0.164617 -6.09822 0 78.0721 0 0 0 0 0 0 6.26708 0 1.91542 
0 0 0 5.92273 4.00822 16.8593 -55.4718 -45.3104 2.4767 0 0 0 0 0 0 2.09066 0 74.8693 56.3881 -6.36111e-15 -18.5687 -1.62602 -0.935684 0.0417932 -6.09822 0 77.7667 0 0 0 0 0 0 6.26708 0 1.91542 
0 0 0 5.92273 4.00822 16.8593 -55.4718 -45.2772 2.36821 0 0 0 0 0 0 2.09066 0 74.8693 56.3881 -1.27222e-14 -18.5687 -1.62602 -0.954781 0.0478721 -6.09822 0 77.7667 0 0 0 0 0 0 6.26708 0 1.91542 
0 0 0 5.92273 4.00822 16.8593 -55.4718 -45.2459 2.26585 0 0 0 0 0 0 2.09066 0 74.8693 56.3881 0 -18.5687 -1.62602 -0.973879 0.0539513 -6.09822 0 77.7667 0 0 0 0 0 0 6.26708 0 1.91542 
0 0 0 2.0804 2.91372 -13.5057 -52.263 0.840295 -125.492 0 0 0 0 0 0 2.24551 0 71.5119 49.7077 0 -13.5797 4.64061 0 1.71057 -5.15889 0 80.5961 0 0 0 0 0 0 5.26513 0 1.62067 
0 0 0 2.0804 2.91372 -13.5402 -52.263 0.840295 -125.492 0 0 0 0 0 0 2.24551 0 71.3654 49.7077 0 -13.5797 4.64061 0 1.71057 -5.15889 0 80.3345 0 0 0 0 0 0 5.26513 0 1.62067 
0 0 0 2.0804 2.91372 -13.5402 -52.263 0.840295 -125.492 0 0 0 0 0 0 2.24551 0 71.3654 49.7077 0 -13.5797 4.64061 0 1.71057 -5.15889 0 80.3345 0 0 0 0 0 0 5.26513 0 1.62067 
0 0 0 8.80332 1.99675 89.6125 -56.5379 -6.76091 -173.753 0 0 0 0 0 0 2.36931 0 67.5417 39.1616 0 -24.4284 11.3008 0 3.86341 -4.36592 0 75.992 0 0 0 0 0 0 4.41832 0 1.37166 
0 0 0 8.80332 1.99675 89.57 -56.5379 -6.76091 -173.753 0 0 0 0 0 0 2.36931 0 67.3639 39.1616 0 -24.4284 11.3008 0 3.86341 -4.36592 0 75.6749 0 0 0 0 0 0 4.41832 0 1.37166 
0 0 0 8.80332 1.99675 89.57 -56.5379 -6.76091 -173.753 0 0 0 0 0 0 2.36931 0 67.3639 39.1616 0 -24.4284 11.3008 0 3.86341 -4.36592 0 75.6749 0 0 0 0 0 0 4.41832 0 1.37166 
0 0 0 5.27784 0.829396 16.5628 -50.1114 -4.35484 -81.1244 0 0 0 0 0 0 2.46823 0 64.9867 30.7277 0 -17.1311 15.5497 0 5.31382 -3.29768 0 84.3297 0 0 0 0 0 0 3.27354 0 1.0359 
0 0 0 5.27784 0.829396 16.5313 -50.1114 -4.35484 -81.1244 0 0 0 0 0 0 2.46823 0 64.8551 30.7277 0 -17.1311 15.5497 0 5.31382 -3.29768 0 84.0948 0 0 0 0 0 0 3.27354 0 1.0359 
0 0 0 5.27784 0.829396 16.5313 -50.1114 -4.35484 -81.1244 0 0 0 0 0 0 2.46823 0 64.8551 30.7277 0 -17.1311 15.5497 0 5.31382 -3.29768 0 84.0948 0 0 0 0 0 0 3.27354 0 1.0359 
0 0 0 5.27784 0.829396 16.5313 -50.1114 -4.35484 -81.1244 0 0 0 0 0 0 2.46823 0 64.8551 30.7277 0 -17.1311 15.5497 0 5.31382 -3.29768 0 84.0948 0 0 0 0 0 0 3.27354 0 1.0359 
0 0 0 3.785 -0.69192 31.8441 -47.1955 -4.39871 -95.3029 0 0 0 0 0 0 2.54763 0 62.8836 23.9706 0 -11.5624 18.4222 0 6.3627 -1.85593 0 98.4596 0 0 0 0 0 0 1.72913 0 0.582179 
0 0 0 3.785 -0.69192 31.8131 -47.1955 -4.39871 -95.3029 0 0 0 0 0 0 2.54763 0 62.7537 23.9706 0 -11.5624 18.4222 0 6.3627 -1.85593 0 98.2277 0 0 0 0 0 0 1.72913 0 0.582179 
0 0 0 3.785 -0.69192 31.8131 -47.1955 -4.39871 -95.3029 0 0 0 0 0 0 2.54763 0 62.7537 23.9706 0 -11.5624 18.4222 0 6.3627 -1.85593 0 98.2277 0 0 0 0 0 0 1.72913 0 0.582179 
0 0 0 -1.68044 -1.95049 -24.4878 -38.4028 -0.0554108 -42.5551 0 0 0 0 0 0 2.61114 0 59.9072 18.5704 0 -7.62116 19.3847 0 6.82697 -0.660954 0 98.4928 0 0 0 0 0 0 0.446555 0 0.205568 
0 0 0 -1.68044 -1.95049 -24.531 -38.4028 -0.0554108 -42.5551 0 0 0 0 0 0 2.61114 0 59.7255 18.5704 0 -7.62116 19.3847 0 6.82697 -0.660954 0 98.1679 0 0 0 0 0 0 0.446555 0 0.205568 
0 0 0 -1.68044 -1.95049 -24.531 -38.4028 -0.0554108 -42.5551 0 0 0 0 0 0 2.61114 0 59.7255 18.5704 0 -7.62116 19.3847 0 6.82697 -0.660954 0 98.1679 0 0 0 0 0 0 0.446555 0 0.205568 
0 0 0 -1.72783 -3.28126 14.6835 -36.1871 -1.17471 -77.6189 0 0 0 0 0 0 2.6619 0 57.3447 14.259 0 -4.74587 19.4267 0 6.98162 0.619026 0 106.297 0 0 0 0 0 0 -0.928967 0 -0.198432 
0 0 0 -1.72783 -3.28126 14.6466 -36.1871 -1.17471 -77.6189 0 0 0 0 0 0 2.6619 0 57.1876 14.259 0 -4.74587 19.4267 0 6.98162 0.619026 0 106.016 0 0 0 0 0 0 -0.928967 0 -0.198432 
0 0 0 -1.72783 -3.28126 14.6466 -36.1871 -1.17471 -77.6189 0 0 0 0 0 0 2.6619 0 57.1876 14.259 0 -4.74587 19.4267 0 6.98162 0.619026 0 106.016 0 0 0 0 0 0 -0.928967 0 -0.198432 
0 0 0 -1.72783 -3.28126 14.6466 -36.1871 -1.17471 -77.6189 0 0 0 0 0 0 2.6619 0 57.1876 14.259 0 -4.74587 19.4267 0 6.98162 0.619026 0 106.016 0 0 0 0 0 0 -0.928967 0 -0.198432 
0 0 0 -6.87553 -4.417 -48.3414 -26.9437 3.10102 -19.0981 0 0 0 0 0 0 2.70243 0 54.6287 10.8194 0 -2.80145 18.4547 0 6.77132 1.71425 0 107.747 0 0 0 0 0 0 -2.11462 0 -0.544824 
0 0 0 -6.87553 -4.417 -48.3794 -26.9437 3.10102 -19.0981 0 0 0 0 0 0 2.70243 0 54.4642 10.8194 0 -2.80145 18.4547 0 6.77132 1.71425 0 107.452 0 0 0 0 0 0 -2.11462 0 -0.544824 
0 0 0 -6.87553 -4.417 -48.3794 -26.9437 3.10102 -19.0981 0 0 0 0 0 0 2.70243 0 54.4642 10.8194 0 -2.80145 18.4547 0 6.77132 1.71425 0 107.452 0 0 0 0 0 0 -2.11462 0 -0.544824 
0 0 0 -6.27602 -5.54423 -2.26831 -25.1315 1.61906 -57.9385 0 0 0 0 0 0 2.73475 0 52.2604 8.07522 0 -1.50562 17.0542 0 6.37478 2.80917 0 113.367 0 0 0 0 0 0 -3.30796 0 -0.891899 
0 0 0 -6.27602 -5.54423 -2.30108 -25.1315 1.61906 -57.9385 0 0 0 0 0 0 2.73475 0 52.1156 8.07522 0 -1.50562 17.0542 0 6.37478 2.80917 0 113.106 0 0 0 0 0 0 -3.30796 0 -0.891899 
0 0 0 -6.27602 -5.54423 -2.30108 -25.1315 1.61906 -57.9385 0 0 0 0 0 0 2.73475 0 52.1156 8.07522 0 -1.50562 17.0542 0 6.37478 2.80917 0 113.106 0 0 0 0 0 0 -3.30796 0 -0.891899 
0 0 0 -11.1755 -6.46353 -68.9716 -15.6395 5.9176 4.09349 0 0 0 0 0 0 2.76051 0 50.3009 5.88589 0 -0.759527 15.0774 0 5.73676 3.70275 0 114.428 0 0 0 0 0 0 -4.30029 0 -1.17621 
0 0 0 -11.1755 -6.46353 -69.0026 -15.6395 5.9176 4.09349 0 0 0 0 0 0 2.76051 0 50.16 5.88589 0 -0.759527 15.0774 0 5.73676 3.70275 0 114.173 0 0 0 0 0 0 -4.30029 0 -1.17621 
0 0 0 -11.1755 -6.46353 -69.0026 -15.6395 5.9176 4.09349 0 0 0 0 0 0 2.76051 0 50.16 5.88589 0 -0.759527 15.0774 0 5.73676 3.70275 0 114.173 0 0 0 0 0 0 -4.30029 0 -1.17621 
0 0 0 -11.1755 -6.46353 -69.0026 -15.6395 5.9176 4.09349 0 0 0 0 0 0 2.76051 0 50.16 5.88589 0 -0.759527 15.0774 0 5.73676 3.70275 0 114.173 0 0 0 0 0 0 -4.30029 0 -1.17621 
0 0 0 -10.1093 -7.32314 -18.1616 -14.229 4.275 -39.0662 0 0 0 0 0 0 2.781 0 48.7967 4.13805 0 -0.34617 13.0298 0 5.03369 4.54192 0 118.579 0 0 0 0 0 0 -5.24713 0 -1.44428 
0 0 0 -10.1093 -7.32314 -18.1877 -14.229 4.275 -39.0662 0 0 0 0 0 0 2.781 0 48.6742 4.13805 0 -0.34617 13.0298 0 5.03369 4.54192 0 118.356 0 0 0 0 0 0 -5.24713 0 -1.44428 
0 0 0 -10.1093 -7.32314 -18.1877 -14.229 4.275 -39.0662 0 0 0 0 0 0 2.781 0 48.6742 4.13805 0 -0.34617 13.0298 0 5.03369 4.54192 0 118.356 0 0 0 0 0 0 -5.24713 0 -1.44428 
0 0 0 -15.3713 -8.09147 -89.0609 -4.8145 8.94504 25.3776 0 0 0 0 0 0 2.80051 0 48.3272 2.74212 0 -0.217632 10.7316 0 4.21348 5.2914 0 122.41 0 0 0 0 0 0 -6.1073 0 -1.68486 
0 0 0 -15.3713 -8.09147 -89.0804 -4.8145 8.94504 25.3776 0 0 0 0 0 0 2.80051 0 48.2321 2.74212 0 -0.217632 10.7316 0 4.21348 5.2914 0 122.236 0 0 0 0 0 0 -6.1073 0 -1.68486 
0 0 0 -15.3713 -8.09147 -89.0804 -4.8145 8.94504 25.3776 0 0 0 0 0 0 2.80051 0 48.2321 2.74212 0 -0.217632 10.7316 0 4.21348 5.2914 0 122.236 0 0 0 0 0 0 -6.1073 0 -1.68486 
0 0 0 -18.0663 -9.19581 -34.1049 -6.3387 8.78907 -31.782 0 0 0 0 0 0 2.8157 0 54.2437 1.61576 0 0.300672 10.867 0 4.30343 6.38118 0 142.025 0 0 0 0 0 0 -7.29674 0 -2.03304 
0 0 0 -18.0663 -9.19581 -34.1125 -6.3387 8.78907 -31.782 0 0 0 0 0 0 2.8157 0 54.2078 1.61576 0 0.300672 10.867 0 4.30343 6.38118 0 141.959 0 0 0 0 0 0 -7.29674 0 -2.03304 
0 0 0 -18.0663 -9.19581 -34.1125 -6.3387 8.78907 -31.782 0 0 0 0 0 0 2.8157 0 54.2078 1.61576 0 0.300672 10.867 0 4.30343 6.38118 0 141.959 0 0 0 0 0 0 -7.29674 0 -2.03304 
0 0 0 -18.0663 -9.19581 -34.1125 -6.3387 8.78907 -31.782 0 0 0 0 0 0 2.8157 0 54.2078 1.61576 0 0.300672 10.867 0 4.30343 6.38118 0 141.959 0 0 0 0 0 0 -7.29674 0 -2.03304 
0 0 0 -17.7102 -9.23853 -46.0755 -5.18975 8.18718 -31.7324 0 0 0 0 0 0 2.8255 0 54.1849 0.721202 0 0.713211 10.7869 0 4.24506 6.4141 0 122.74 0 0 0 0 0 0 -7.38368 0 -2.04589 
0 0 0 -17.7102 -9.23853 -46.1072 -5.18975 8.18718 -31.7324 0 0 0 0 0 0 2.8255 0 54.0344 0.721202 0 0.713211 10.7869 0 4.24506 6.4141 0 122.466 0 0 0 0 0 0 -7.38368 0 -2.04589 
2.62539 13.2977 -73.258 0 0 0 0 0 0 17.3906 21.3657 -12.7102 -0.719589 0 19.0002 0 0 0 0 0 0 10.7869 0 3.99295 0 0 0 -12.6138 0 -34.402 -2.82575 0 0.527512 -7.38368 0 -1.79379 
11.9309 13.6876 47.897 0 0 0 0 0 0 6.21376 5.04906 -76.8626 -2.95215 0 -7.29597 0 0 0 0 0 0 9.2288 0 3.40599 0 0 0 -10.761 0 1.00752 0.439892 12.3789 10.541 -9.33119 -0.00216179 -2.34577 
11.9309 13.6876 47.8939 0 0 0 0 0 0 6.21376 1.62238 -64.7002 -2.95215 0 -7.26211 0 0 0 0 0 0 9.2288 0 3.40599 0 0 0 -10.761 0 1.08981 0.439892 19.7158 9.72193 -9.33119 -0.00432287 -2.34495 
11.9309 13.6876 47.8939 0 0 0 0 0 0 6.21376 -2.50557 -50.0488 -2.95215 0 -7.26211 0 0 0 0 0 0 9.2288 0 3.40599 0 0 0 -10.761 0 1.08981 0.439892 27.3014 8.87516 -9.33119 -0.00648466 -2.34412 
11.9637 15.3782 -24.3696 0 0 0 0 0 0 7.20952 -4.37096 55.8109 -6.78847 0 -33.19 0 0 0 0 0 0 7.37743 0 2.72379 0 0 0 -8.60774 0 21.9559 1.40798 33.9089 0.175253 -9.71696 -0.00864644 -2.42479 
11.9637 15.3782 -24.3697 0 0 0 0 0 0 7.20952 -7.61404 67.3954 -6.78847 0 -33.1892 0 0 0 0 0 0 7.37743 0 2.72379 0 0 0 -8.60774 0 21.9579 1.40798 39.8774 -0.491723 -9.71696 -0.0127547 -2.42322 
11.9637 15.3782 -24.3697 0 0 0 0 0 0 7.20952 -10.6206 78.1348 -6.78847 0 -33.1892 0 0 0 0 0 0 7.37743 0 2.72379 0 0 0 -8.60774 0 21.9579 1.40798 45.4078 -1.10975 -9.71696 -0.0153059 -2.42224 
11.9637 15.3782 -24.3697 0 0 0 0 0 0 7.20952 -13.4058 88.0832 -6.78847 0 -33.1892 0 0 0 0 0 0 7.37743 0 2.72379 0 0 0 -8.60774 0 21.9579 1.40798 50.5222 -1.68129 -9.71696 -0.0178564 -2.42126 
15.6811 15.5395 35.209 0 0 0 0 0 0 -3.1052 -20.7094 1.7127 -7.97418 0 -25.1281 0 0 0 0 0 0 6.51263 0 2.39772 0 0 0 -7.57865 0 12.9359 10.8351 55.2452 27.0422 -14.3854 -0.0204077 -3.76787 
15.6811 15.5395 35.2131 0 0 0 0 0 0 -3.1052 -21.9768 6.55834 -7.97418 0 -25.1576 0 0 0 0 0 0 6.51263 0 2.39772 0 0 0 -7.57865 0 12.8615 10.8351 58.9376 26.6327 -14.3854 -0.0229589 -3.76684 
15.6811 15.5395 35.2131 0 0 0 0 0 0 -3.1052 -24.1865 15.0059 -7.97418 0 -25.1576 0 0 0 0 0 0 6.51263 0 2.39772 0 0 0 -7.57865 0 12.8615 10.8351 62.9317 26.1897 -14.3854 -0.0255094 -3.76582 
22.0855 17.0331 64.2981 0 0 0 0 0 0 -11.6412 -30.5012 1.66002 -10.6304 0 -46.3982 0 0 0 0 0 0 5.48807 0 2.02894 0 0 0 -6.41234 0 21.9584 19.0228 66.5161 21.3081 -18.724 -0.0280607 -5.06054 
22.0855 17.0331 64.299 0 0 0 0 0 0 -11.6412 -32.1873 7.99658 -10.6304 0 -46.4044 0 0 0 0 0 0 5.48807 0 2.02894 0 0 0 -6.41234 0 21.9424 19.0228 69.665 20.9626 -18.724 0.000543051 -5.07242 
22.0855 17.0331 64.299 0 0 0 0 0 0 -11.6412 -33.7951 14.0477 -10.6304 0 -46.4044 0 0 0 0 0 0 5.48807 0 2.02894 0 0 0 -6.41234 0 21.9424 19.0228 72.374 20.6653 -18.724 0.000588748 -5.07244 
23.0448 17.4155 25.011 0 0 0 0 0 0 -15.316 -34.5678 52.4005 -11.1637 0 -37.3016 0 0 0 0 0 0 5.36828 0 1.98077 0 0 0 -6.25922 0 8.51633 27.1502 74.6061 20.0921 -22.7824 0.000633752 -6.31372 
23.0448 17.4155 25.0149 0 0 0 0 0 0 -15.316 -36.1618 58.2944 -11.1637 0 -37.3244 0 0 0 0 0 0 5.36828 0 1.98077 0 0 0 -6.25922 0 8.45716 27.1502 76.5791 19.8779 -22.7824 0.0562575 -6.33736 
23.0448 17.4155 25.0149 0 0 0 0 0 0 -15.316 -37.0759 61.6853 -11.1637 0 -37.3244 0 0 0 0 0 0 5.36828 0 1.98077 0 0 0 -6.25922 0 8.45716 27.1502 77.7366 19.7522 -22.7824 0.0600086 -6.33895 
23.0448 17.4155 25.0149 0 0 0 0 0 0 -15.316 -37.7094 64.0348 -11.1637 0 -37.3244 0 0 0 0 0 0 5.36828 0 1.98077 0 0 0 -6.25922 0 8.45716 27.1502 78.2727 19.694 -22.7824 0.0637588 -6.34055 
32.2378 18.3208 120.222 0 0 0 0 0 0 -29.476 -46.2885 -44.9224 -12.6459 0 -50.1484 0 0 0 0 0 0 4.84262 0 1.79817 0 0 0 -5.68016 0 17.6258 37.5769 78.5033 27.3048 -27.2539 0.0675092 -7.74177 
32.2378 18.3208 120.226 0 0 0 0 0 0 -29.476 -47.9325 -38.8061 -12.6459 0 -50.1715 0 0 0 0 0 0 4.84262 0 1.79817 0 0 0 -5.68016 0 17.5649 37.5769 79.2017 27.2299 -27.2539 0.178231 -7.78974 
32.2378 18.3208 120.226 0 0 0 0 0 0 -29.476 -48.3681 -37.1823 -12.6459 0 -50.1715 0 0 0 0 0 0 4.84262 0 1.79817 0 0 0 -5.68016 0 17.5649 37.5769 79.3079 27.2185 -27.2539 0.187611 -7.79381 
30.1702 20.413 7.37479 0 0 0 0 0 0 -24.8411 -42.4423 96.8018 -15.4164 0 -71.3847 0 0 0 0 0 0 4.22266 0 1.58351 0 0 0 -5.00019 0 22.321 42.9215 79.3636 10.2961 -29.6763 0.196992 -8.66276 
30.1702 20.413 7.37925 0 0 0 0 0 0 -24.8411 -44.8921 105.227 -15.4164 0 -71.4076 0 0 0 0 0 0 4.22266 0 1.58351 0 0 0 -5.00019 0 22.2596 42.9215 80.1171 10.2158 -29.6763 0.400807 -8.75155 
30.1702 20.413 7.37925 0 0 0 0 0 0 -24.8411 -45.2339 106.403 -15.4164 0 -71.4076 0 0 0 0 0 0 4.22266 0 1.58351 0 0 0 -5.00019 0 22.2596 42.9215 80.0457 10.2234 -29.6763 0.419026 -8.75949 
33.0243 21.2215 68.8304 0 0 0 0 0 0 -32.8394 -47.4906 1.87195 -16.5952 0 -68.3886 0 0 0 0 0 0 3.86728 0 1.46697 0 0 0 -4.62934 0 19.4461 51.2246 79.9279 19.9994 -32.1332 0.437245 -9.61811 
33.0243 21.2215 68.8383 0 0 0 0 0 0 -32.8394 -50.1777 11.1849 -16.5952 0 -68.4272 0 0 0 0 0 0 3.86728 0 1.46697 0 0 0 -4.62934 0 19.3413 51.2246 80.3963 19.9499 -32.1332 0.664082 -9.71751 
33.0243 21.2215 68.8383 0 0 0 0 0 0 -32.8394 -50.4172 12.0138 -16.5952 0 -68.4272 0 0 0 0 0 0 3.86728 0 1.46697 0 0 0 -4.62934 0 19.3413 51.2246 80.1569 19.9752 -32.1332 0.690646 -9.72915 
33.0243 21.2215 68.8383 0 0 0 0 0 0 -32.8394 -50.6333 12.7617 -16.5952 0 -68.4272 0 0 0 0 0 0 3.86728 0 1.46697 0 0 0 -4.62934 0 19.3413 51.2246 79.8749 20.005 -32.1332 0.717211 -9.74079 
35.0085 22.9924 54.6973 0 0 0 0 0 0 -36.1146 -50.5861 34.3229 -19.2655 0 -90.2367 0 0 0 0 0 0 3.01451 0 1.18276 0 0 0 -3.72792 0 31.3377 57.0705 79.551 11.7166 -33.7525 0.743776 -10.4624 
35.0085 22.9924 54.7028 0 0 0 0 0 0 -36.1146 -53.6645 44.6701 -19.2655 0 -90.2635 0 0 0 0 0 0 3.01451 0 1.18276 0 0 0 -3.72792 0 31.2641 57.0705 79.635 11.7078 -33.7525 1.10944 -10.6226 
35.0085 22.9924 54.7028 0 0 0 0 0 0 -36.1146 -53.7707 45.0236 -19.2655 0 -90.2635 0 0 0 0 0 0 3.01451 0 1.18276 0 0 0 -3.72792 0 31.2641 57.0705 79.1968 11.754 -33.7525 1.1477 -10.6394 
36.9294 24.0086 67.9039 0 0 0 0 0 0 -41.1547 -54.8028 21.1452 -20.9507 0 -92.8652 0 0 0 0 0 0 2.35679 0 0.972322 0 0 0 -3.05862 0 31.2568 61.7331 78.7201 7.84199 -33.9407 1.18596 -10.9051 
36.9294 24.0086 67.9108 0 0 0 0 0 0 -41.1547 -57.8273 31.1751 -20.9507 0 -92.8998 0 0 0 0 0 0 2.35679 0 0.972322 0 0 0 -3.05862 0 31.161 61.7331 78.2745 7.88859 -33.9407 1.58528 -11.0794 
36.9294 24.0086 67.9108 0 0 0 0 0 0 -41.1547 -57.8191 31.1385 -20.9507 0 -92.8998 0 0 0 0 0 0 2.35679 0 0.972322 0 0 0 -3.05862 0 31.161 61.7331 77.6937 7.94932 -33.9407 1.63484 -11.101 
39.2509 25.6913 57.1525 0 0 0 0 0 0 -43.2706 -58.0536 48.4777 -23.6648 0 -111.967 0 0 0 0 0 0 1.37364 0 0.646906 0 0 0 -2.02644 0 41.037 64.1241 77.0773 0.0713561 -33.239 1.68439 -11.1287 
39.2509 25.6913 57.1575 0 0 0 0 0 0 -43.2706 -60.9289 57.6102 -23.6648 0 -111.994 0 0 0 0 0 0 1.37364 0 0.646906 0 0 0 -2.02644 0 40.9602 64.1241 76.0502 0.177553 -33.239 2.15267 -11.331 
39.2509 25.6913 57.1575 0 0 0 0 0 0 -43.2706 -60.8068 57.2237 -23.6648 0 -111.994 0 0 0 0 0 0 1.37364 0 0.646906 0 0 0 -2.02644 0 40.9602 64.1241 75.3416 0.250828 -33.239 2.2142 -11.3576 
39.2509 25.6913 57.1575 0 0 0 0 0 0 -43.2706 -60.664 56.7713 -23.6648 0 -111.994 0 0 0 0 0 0 1.37364 0 0.646906 0 0 0 -2.02644 0 40.9602 64.1241 74.5996 0.327555 -33.239 2.27574 -11.3841 
39.8319 26.4931 56.4497 0 0 0 0 0 0 -46.4606 -60.2265 38.2997 -25.214 0 -112.941 0 0 0 0 0 0 0.646058 0 0.412139 0 0 0 -1.28058 0 40.1336 65.1721 73.8247 -3.21674 -30.5975 2.33728 -10.6749 
39.8319 26.4931 56.4552 0 0 0 0 0 0 -46.4606 -62.5042 45.3915 -25.214 0 -112.973 0 0 0 0 0 0 0.646058 0 0.412139 0 0 0 -1.28058 0 40.0435 65.1721 72.1369 -3.04574 -30.5975 2.72006 -10.8375 
39.8319 26.4931 56.4552 0 0 0 0 0 0 -46.4606 -62.2505 44.6023 -25.214 0 -112.973 0 0 0 0 0 0 0.646058 0 0.412139 0 0 0 -1.28058 0 40.0435 65.1721 71.2826 -2.95919 -30.5975 2.78985 -10.8672 
41.2529 26.4297 82.965 0 0 0 0 0 0 -51.2513 -64.5701 30.9541 -25.5894 0 -108.416 0 0 0 0 0 0 0.221482 0 0.27411 0 0 0 -0.842361 0 36.7371 64.729 70.3971 -7.9667 -27.4736 2.85966 -9.97512 
41.2529 26.4297 82.8317 0 0 0 0 0 0 -51.2513 -66.3989 36.6576 -25.5894 0 -108.449 0 0 0 0 0 0 0.221482 0 0.27411 0 0 0 -0.842361 0 36.6751 64.729 68.1409 -7.74239 -27.4736 3.22701 -10.1272 
41.2529 26.4297 82.8317 0 0 0 0 0 0 -51.2513 -66.0398 35.5682 -25.5894 0 -108.449 0 0 0 0 0 0 0.221482 0 0.27411 0 0 0 -0.842361 0 36.6751 64.729 67.1852 -7.64738 -27.4736 3.30393 -10.159 
41.6439 28.9186 0.146878 0 0 0 0 0 0 -48.1553 -60.7116 86.2844 -29.666 0 -148.709 0 0 0 0 0 0 -1.26048 0 -0.227251 0 0 0 0.745871 0 59.6088 62.9791 66.199 -10.6186 -23.5867 3.38085 -8.91638 
41.6439 28.9186 0.296189 0 0 0 0 0 0 -48.1553 -61.8365 89.5345 -29.666 0 -148.724 0 0 0 0 0 0 -1.26048 0 -0.227251 0 0 0 0.745871 0 59.5555 62.9791 63.4899 -10.3539 -23.5867 3.60239 -9.00513 
41.6439 28.9186 0.296189 0 0 0 0 0 0 -48.1553 -61.3778 88.2774 -29.666 0 -148.724 0 0 0 0 0 0 -1.26048 0 -0.227251 0 0 0 0.745871 0 59.5555 62.9791 62.4388 -10.2512 -23.5867 3.68255 -9.03725 
41.6439 28.9186 0.296189 0 0 0 0 0 0 -48.1553 -60.9017 86.9714 -29.666 0 -148.724 0 0 0 0 0 0 -1.26048 0 -0.227251 0 0 0 0.745871 0 59.5555 62.9791 61.3571 -10.1455 -23.5867 3.76272 -9.06937 
41.8148 29.1575 45.3053 0 0 0 0 0 0 -53.2199 -60.9461 5.81174 -30.7807 0 -138.555 0 0 0 0 0 0 -2.06656 0 -0.503324 0 0 0 1.61981 0 52.5149 60.9068 60.245 -9.99944 -17.9506 3.8429 -7.14469 
41.8148 29.1575 45.3097 0 0 0 0 0 0 -53.2199 -61.3311 6.94075 -30.7807 0 -138.587 0 0 0 0 0 0 -2.06656 0 -0.503324 0 0 0 1.61981 0 52.4242 60.9068 56.9743 -9.68243 -17.9506 3.85676 -7.15 
41.8148 29.1575 45.3097 0 0 0 0 0 0 -53.2199 -60.7549 5.27156 -30.7807 0 -138.587 0 0 0 0 0 0 -2.06656 0 -0.503324 0 0 0 1.61981 0 52.4242 60.9068 55.7947 -9.56809 -17.9506 3.93559 -7.1802 
46.3551 29.8543 81.0267 0 0 0 0 0 0 -60.0228 -64.9752 -3.12618 -32.7978 0 -154.123 0 0 0 0 0 0 -3.26408 0 -0.920812 0 0 0 2.9419 0 63.8991 58.0598 54.5827 -13.5702 -13.1133 4.01443 -5.51963 
46.3551 29.8543 81.0295 0 0 0 0 0 0 -60.0228 -64.8911 -3.36706 -32.7978 0 -154.143 0 0 0 0 0 0 -3.26408 0 -0.920812 0 0 0 2.9419 0 63.8394 58.0598 50.8771 -13.2117 -13.1133 4.03968 -5.52877 
46.3551 29.8543 81.0295 0 0 0 0 0 0 -60.0228 -64.216 -5.34992 -32.7978 0 -154.143 0 0 0 0 0 0 -3.26408 0 -0.920812 0 0 0 2.9419 0 63.8394 58.0598 49.589 -13.0871 -13.1133 4.1175 -5.55695 
43.0234 30.1887 44.2729 0 0 0 0 0 0 -59.1482 -60.6813 31.143 -34.2989 0 -159.064 0 0 0 0 0 0 -4.32651 0 -1.28903 0 0 0 4.10904 0 66.8776 53.1926 48.2643 -17.4091 -7.16923 4.19533 -3.4911 
43.0234 30.1887 44.2761 0 0 0 0 0 0 -59.1482 -59.9329 28.8193 -34.2989 0 -159.09 0 0 0 0 0 0 -4.32651 0 -1.28903 0 0 0 4.10904 0 66.8038 53.1926 44.0908 -17.0037 -7.16923 4.06765 -3.44815 
43.0234 30.1887 44.2761 0 0 0 0 0 0 -59.1482 -59.1474 26.4085 -34.2989 0 -159.09 0 0 0 0 0 0 -4.32651 0 -1.28903 0 0 0 4.10904 0 66.8038 53.1926 42.6647 -16.8652 -7.16923 4.14174 -3.47307 
43.0234 30.1887 44.2761 0 0 0 0 0 0 -59.1482 -58.339 23.927 -34.2989 0 -159.09 0 0 0 0 0 0 -4.32651 0 -1.28903 0 0 0 4.10904 0 66.8038 53.1926 41.1926 -16.7222 -7.16923 4.21583 -3.49799 
46.1183 30.024 66.4044 0 0 0 0 0 0 -62.9832 -60.6833 -7.64859 -35.0728 0 -159.281 0 0 0 0 0 0 -5.18428 0 -1.58497 0 0 0 5.04825 0 67.6079 48.7774 39.6715 -16.3043 -2.09649 4.28993 -1.74049 
46.1183 30.024 66.4071 0 0 0 0 0 0 -62.9832 -59.2111 -12.2937 -35.0728 0 -159.304 0 0 0 0 0 0 -5.18428 0 -1.58497 0 0 0 5.04825 0 67.5442 48.7774 34.9859 -15.8447 -2.09649 4.05576 -1.66736 
46.1183 30.024 66.4071 0 0 0 0 0 0 -62.9832 -58.2527 -15.2548 -35.0728 0 -159.304 0 0 0 0 0 0 -5.18428 0 -1.58497 0 0 0 5.04825 0 67.5442 48.7774 33.2875 -15.6782 -2.09649 4.12462 -1.68886 
41.8221 29.5804 22.9792 0 0 0 0 0 0 -58.942 -53.1564 32.0189 -35.4297 0 -159.041 0 0 0 0 0 0 -5.91586 0 -1.83717 0 0 0 5.84896 0 68.7944 42.72 31.5122 -20.2658 3.43289 4.19348 0.202677 
41.8221 29.5804 22.9813 0 0 0 0 0 0 -58.942 -50.8702 24.7861 -35.4297 0 -159.059 0 0 0 0 0 0 -5.91586 0 -1.83717 0 0 0 5.84896 0 68.7448 42.72 25.8603 -19.704 3.43289 3.86974 0.294852 
41.8221 29.5804 22.9813 0 0 0 0 0 0 -58.942 -49.6408 20.903 -35.4297 0 -159.059 0 0 0 0 0 0 -5.91586 0 -1.83717 0 0 0 5.84896 0 68.7448 42.72 23.698 -19.4891 3.43289 3.93225 0.277054 
43.8485 28.8778 46.9764 0 0 0 0 0 0 -59.9411 -50.6196 -11.3582 -35.5114 0 -158.159 0 0 0 0 0 0 -6.63038 0 -2.0841 0 0 0 6.63367 0 71.8476 37.0342 21.3496 -19.1303 8.2233 3.99477 1.8801 
43.8485 28.8778 46.978 0 0 0 0 0 0 -59.9411 -46.6931 -23.8405 -35.5114 0 -158.173 0 0 0 0 0 0 -6.63038 0 -2.0841 0 0 0 6.63367 0 71.8085 37.0342 13.2282 -18.3102 8.2233 3.59713 1.98332 
43.8485 28.8778 46.978 0 0 0 0 0 0 -59.9411 -44.2441 -31.5737 -35.5114 0 -158.173 0 0 0 0 0 0 -6.63038 0 -2.0841 0 0 0 6.63367 0 71.8085 37.0342 8.79475 -17.8626 8.2233 3.65255 1.96893 
43.8485 28.8778 46.978 0 0 0 0 0 0 -59.9411 -39.4924 -46.5874 -35.5114 0 -158.173 0 0 0 0 0 0 -6.63038 0 -2.0841 0 0 0 6.63367 0 71.8085 37.0342 9.54166e-15 -16.9746 8.2233 3.70797 1.95455 
38.3051 27.8659 4.03625 0 0 0 0 0 0 -52.9868 -34.601 13.3861 -35.1795 0 -154.469 0 0 0 0 0 0 -7.25029 0 -2.298 0 0 0 7.31374 0 73.4121 29.0608 -9.54166e-15 -24.4434 13.5679 3.76339 3.71618 
38.3051 27.8659 4.03772 0 0 0 0 0 0 -52.9868 -34.6956 13.7355 -35.1795 0 -154.482 0 0 0 0 0 0 -7.25029 0 -2.298 0 0 0 7.31374 0 73.3758 29.0608 -6.36111e-15 -24.4434 13.5679 3.30719 3.82086 
38.3051 27.8659 4.03772 0 0 0 0 0 0 -52.9868 -34.5482 13.258 -35.1795 0 -154.482 0 0 0 0 0 0 -7.25029 0 -2.298 0 0 0 7.31374 0 73.3758 29.0608 -3.18055e-15 -24.4434 13.5679 3.35517 3.80985 
39.6047 26.5206 35.9952 0 0 0 0 0 0 -52.4223 -36.9691 -22.0893 -34.4892 0 -149.269 0 0 0 0 0 0 -7.84481 0 -2.50387 0 0 0 7.96871 0 76.3426 22.6957 0 -20.4898 17.512 3.40316 5.0521 
39.6047 26.5206 35.9964 0 0 0 0 0 0 -52.4223 -36.692 -22.9932 -34.4892 0 -149.279 0 0 0 0 0 0 -7.84481 0 -2.50387 0 0 0 7.96871 0 76.3136 22.6957 6.36111e-15 -20.4898 17.512 2.89141 5.15823 
39.6047 26.5206 35.9964 0 0 0 0 0 0 -52.4223 -36.5193 -23.5481 -34.4892 0 -149.279 0 0 0 0 0 0 -7.84481 0 -2.50387 0 0 0 7.96871 0 76.3136 22.6957 6.36111e-15 -20.4898 17.512 2.9316 5.14989 
36.057 24.746 42.158 0 0 0 0 0 0 -50.5168 -36.2188 -11.6048 -33.3006 0 -142.907 0 0 0 0 0 0 -8.38339 0 -2.68793 0 0 0 8.55463 0 71.6755 20.0881 3.18055e-15 -8.96919 17.7892 2.9718 5.25558 
36.057 24.746 42.1592 0 0 0 0 0 0 -50.5168 -35.933 -12.5502 -33.3006 0 -142.917 0 0 0 0 0 0 -8.38339 0 -2.68793 0 0 0 8.55463 0 71.6461 20.0881 1.27222e-14 -8.96919 17.7892 2.92452 5.26522 
36.057 24.746 42.1592 0 0 0 0 0 0 -50.5168 -35.758 -13.1402 -33.3006 0 -142.917 0 0 0 0 0 0 -8.38339 0 -2.68793 0 0 0 8.55463 0 71.6461 20.0881 9.54166e-15 -8.96919 17.7892 2.96355 5.25726 
36.057 24.746 42.1592 0 0 0 0 0 0 -50.5168 -35.5831 -13.7302 -33.3006 0 -142.917 0 0 0 0 0 0 -8.38339 0 -2.68793 0 0 0 8.55463 0 71.6461 20.0881 3.18055e-15 -8.96919 17.7892 3.00258 5.2493 
34.3886 23.0075 39.4617 0 0 0 0 0 0 -47.2398 -36.1961 8.80406 -31.9434 0 -135.027 0 0 0 0 0 0 -8.73821 0 -2.8077 0 0 0 8.93588 0 72.0563 15.4914 -6.36111e-15 -15.0207 18.7093 3.04161 5.5902 
34.3886 23.0075 39.4624 0 0 0 0 0 0 -47.2398 -36.0064 8.17713 -31.9434 0 -135.034 0 0 0 0 0 0 -8.73821 0 -2.8077 0 0 0 8.93588 0 72.0368 15.4914 0 -15.0207 18.7093 3.04482 5.58957 
34.3886 23.0075 39.4624 0 0 0 0 0 0 -47.2398 -35.8319 7.60095 -31.9434 0 -135.034 0 0 0 0 0 0 -8.73821 0 -2.8077 0 0 0 8.93588 0 72.0368 15.4914 1.59028e-14 -15.0207 18.7093 3.0834 5.58204 
27.5065 20.4158 -3.56279 0 0 0 0 0 0 -40.3673 -31.5218 40.8163 -28.9153 0 -111.97 0 0 0 0 0 0 -8.36862 0 -2.67061 0 0 0 8.49953 0 59.9793 11.8188 -9.54166e-15 -12.0437 19.305 3.12198 5.78521 
27.5065 20.4158 -3.56193 0 0 0 0 0 0 -40.3673 -31.1546 39.6245 -28.9153 0 -111.98 0 0 0 0 0 0 -8.36862 0 -2.67061 0 0 0 8.49953 0 59.9537 11.8188 -1.27222e-14 -12.0437 19.305 2.99778 5.80886 
27.5065 20.4158 -3.56193 0 0 0 0 0 0 -40.3673 -30.9833 39.0458 -28.9153 0 -111.98 0 0 0 0 0 0 -8.36862 0 -2.67061 0 0 0 8.49953 0 59.9537 11.8188 3.18055e-15 -12.0437 19.305 3.03437 5.80189 
27.1039 17.6688 28.9932 0 0 0 0 0 0 -39.6905 -32.9087 1.73279 -25.3971 0 -93.3325 0 0 0 0 0 0 -7.70155 0 -2.42797 0 0 0 7.72831 0 52.0448 9.62313 -1.90833e-14 -7.45681 19.0493 3.07097 5.70417 
27.1039 17.6688 28.9931 0 0 0 0 0 0 -39.6905 -32.4674 0.28891 -25.3971 0 -93.3312 0 0 0 0 0 0 -7.70155 0 -2.42797 0 0 0 7.72831 0 52.0481 9.62313 -3.18055e-15 -7.45681 19.0493 2.91032 5.73505 
27.1039 17.6688 28.9931 0 0 0 0 0 0 -39.6905 -32.3027 -0.256551 -25.3971 0 -93.3312 0 0 0 0 0 0 -7.70155 0 -2.42797 0 0 0 7.72831 0 52.0481 9.62313 9.54166e-15 -7.45681 19.0493 2.94459 5.72846 
27.1039 17.6688 28.9931 0 0 0 0 0 0 -39.6905 -32.1402 -0.794616 -25.3971 0 -93.3312 0 0 0 0 0 0 -7.70155 0 -2.42797 0 0 0 7.72831 0 52.0481 9.62313 -9.54166e-15 -7.45681 19.0493 2.97886 5.72187 
26.1495 14.6771 44.5749 0 0 0 0 0 0 -38.8897 -33.9817 7.91015 -21.4102 0 -72.734 0 0 0 0 0 0 -6.8381 0 -2.11433 0 0 0 6.73304 0 44.7903 7.12638 -6.36111e-15 -8.35095 18.9597 3.01313 5.67854 
26.1495 14.6771 44.5743 0 0 0 0 0 0 -38.8897 -33.5527 6.49089 -21.4102 0 -72.7276 0 0 0 0 0 0 -6.8381 0 -2.11433 0 0 0 6.73304 0 44.8067 7.12638 -6.36111e-15 -8.35095 18.9597 2.85038 5.70994 
26.1495 14.6771 44.5743 0 0 0 0 0 0 -38.8897 -33.3992 5.98621 -21.4102 0 -72.7276 0 0 0 0 0 0 -6.8381 0 -2.11433 0 0 0 6.73304 0 44.8067 7.12638 0 -8.35095 18.9597 2.88243 5.70376 
20.1819 12.1847 7.90327 0 0 0 0 0 0 -32.951 -29.7788 50.4112 -18.0068 0 -60.0476 0 0 0 0 0 0 -6.04612 0 -1.82685 0 0 0 5.82212 0 41.9949 5.12972 0 -6.78464 18.4627 2.91449 5.51481 
20.1819 12.1847 7.90212 0 0 0 0 0 0 -32.951 -29.3044 48.8675 -18.0068 0 -60.035 0 0 0 0 0 0 -6.04612 0 -1.82685 0 0 0 5.82212 0 42.0266 5.12972 1.27222e-14 -6.78464 18.4627 2.72083 5.55296 
20.1819 12.1847 7.90212 0 0 0 0 0 0 -32.951 -29.1628 48.4004 -18.0068 0 -60.035 0 0 0 0 0 0 -6.04612 0 -1.82685 0 0 0 5.82212 0 42.0266 5.12972 2.22639e-14 -6.78464 18.4627 2.75043 5.54713 
19.2064 9.57969 45.5117 0 0 0 0 0 0 -33.375 -30.8864 5.04709 -14.4296 0 -42.6002 0 0 0 0 0 0 -5.20225 0 -1.51959 0 0 0 4.84994 0 37.4401 5.0216 1.27222e-14 -0.895637 17.3018 2.78003 5.12381 
19.2064 9.57969 45.5105 0 0 0 0 0 0 -33.375 -30.3575 3.29484 -14.4296 0 -42.5875 0 0 0 0 0 0 -5.20225 0 -1.51959 0 0 0 4.84994 0 37.4717 5.0216 6.36111e-15 -0.895637 17.3018 2.51248 5.17902 
19.2064 9.57969 45.5105 0 0 0 0 0 0 -33.375 -30.2283 2.86546 -14.4296 0 -42.5875 0 0 0 0 0 0 -5.20225 0 -1.51959 0 0 0 4.84994 0 37.4717 5.0216 0 -0.895637 17.3018 2.53894 5.17356 
19.2064 9.57969 45.5105 0 0 0 0 0 0 -33.375 -30.1024 2.44683 -14.4296 0 -42.5875 0 0 0 0 0 0 -5.20225 0 -1.51959 0 0 0 4.84994 0 37.4717 5.0216 -6.36111e-15 -0.895637 17.3018 2.5654 5.1681 
10.2331 8.41359 -42.8713 0 0 0 0 0 0 -23.4179 -22.0164 83.796 -12.8046 0 -44.2812 0 0 0 0 0 0 -4.80076 0 -1.3745 0 0 0 4.39109 0 42.5382 3.69982 -6.36111e-15 -4.68343 16.6937 2.59187 4.92114 
10.2331 8.41359 -42.8731 0 0 0 0 0 0 -23.4179 -21.4524 82.0257 -12.8046 0 -44.2618 0 0 0 0 0 0 -4.80076 0 -1.3745 0 0 0 4.39109 0 42.5862 3.69982 -1.27222e-14 -4.68343 16.6937 2.2468 4.99453 
10.2331 8.41359 -42.8731 0 0 0 0 0 0 -23.4179 -21.339 81.6534 -12.8046 0 -44.2618 0 0 0 0 0 0 -4.80076 0 -1.3745 0 0 0 4.39109 0 42.5862 3.69982 0 -4.68343 16.6937 2.2695 4.9897 
12.8141 6.19411 52.0962 0 0 0 0 0 0 -29.2521 -26.3029 -38.1979 -9.66817 0 -21.9032 0 0 0 0 0 0 -4.00303 0 -1.08426 0 0 0 3.47423 0 33.5223 6.92806 3.18055e-15 9.94785 14.3244 2.29221 4.16003 
12.8141 6.19411 52.0952 0 0 0 0 0 0 -29.2521 -25.6156 -40.4379 -9.66817 0 -21.8919 0 0 0 0 0 0 -4.00303 0 -1.08426 0 0 0 3.47423 0 33.5499 6.92806 -3.18055e-15 9.94785 14.3244 1.80797 4.27226 
12.8141 6.19411 52.0952 0 0 0 0 0 0 -29.2521 -25.5159 -40.7773 -9.66817 0 -21.8919 0 0 0 0 0 0 -4.00303 0 -1.08426 0 0 0 3.47423 0 33.5499 6.92806 -6.36111e-15 9.94785 14.3244 1.8257 4.26815 
6.00675 6.51887 -50.062 0 0 0 0 0 0 -20.4854 -17.9866 71.8665 -10.2442 0 -41.8596 0 0 0 0 0 0 -4.21963 0 -1.16388 0 0 0 3.72551 0 50.9342 4.97378 -6.36111e-15 -6.83374 15.0879 1.84343 4.48359 
6.00675 6.51887 -50.0641 0 0 0 0 0 0 -20.4854 -17.6088 70.6955 -10.2442 0 -41.8362 0 0 0 0 0 0 -4.21963 0 -1.16388 0 0 0 3.72551 0 50.9916 4.97378 0 -6.83374 15.0879 1.57428 4.5451 
6.00675 6.51887 -50.0641 0 0 0 0 0 0 -20.4854 -17.5169 70.3939 -10.2442 0 -41.8362 0 0 0 0 0 0 -4.21963 0 -1.16388 0 0 0 3.72551 0 50.9916 4.97378 0 -6.83374 15.0879 1.58928 4.54167 
6.00675 6.51887 -50.0641 0 0 0 0 0 0 -20.4854 -17.4287 70.1044 -10.2442 0 -41.8362 0 0 0 0 0 0 -4.21963 0 -1.16388 0 0 0 3.72551 0 50.9916 4.97378 3.18055e-15 -6.83374 15.0879 1.60428 4.53825 
11.3498 4.66833 70.9126 0 0 0 0 0 0 -29.4302 -24.9614 -67.201 -7.62087 0 -14.864 0 0 0 0 0 0 -3.54845 0 -0.919083 0 0 0 2.95273 0 32.8993 7.36298 1.59028e-14 7.42116 13.9114 1.61928 4.1619 
11.3498 4.66833 70.9129 0 0 0 0 0 0 -29.4302 -24.8577 -67.5546 -7.62087 0 -14.8683 0 0 0 0 0 0 -3.54845 0 -0.919083 0 0 0 2.95273 0 32.8887 7.36298 9.54166e-15 7.42116 13.9114 1.61412 4.16312 
11.3498 4.66833 70.9129 0 0 0 0 0 0 -29.4302 -24.782 -67.8164 -7.62087 0 -14.8683 0 0 0 0 0 0 -3.54845 0 -0.919083 0 0 0 2.95273 0 32.8887 7.36298 9.54166e-15 7.42116 13.9114 1.62894 4.15962 
5.31056 5.95616 -52.6462 0 0 0 0 0 0 -19.8783 -16.7929 75.5368 -9.51123 0 -45.0754 0 0 0 0 0 0 -4.06504 0 -1.11012 0 0 0 3.55525 0 53.3863 5.32059 -1.27222e-14 -7.13145 14.5189 1.64375 4.3419 
5.31056 5.95616 -52.6478 0 0 0 0 0 0 -19.8783 -16.6779 75.1749 -9.51123 0 -45.0563 0 0 0 0 0 0 -4.06504 0 -1.11012 0 0 0 3.55525 0 53.433 5.32059 -3.18055e-15 -7.13145 14.5189 1.59001 4.3544 
0 0 -1.20634 21.2183 19.5653 -40.597 0 0 0 0 0 0 -9.51123 0 -38.2014 -5.32282 0 15.8726 0 0 0 -4.06504 0 -1.11012 -14.2366 0 -63.7359 3.55525 0 69.5622 0 0 0 14.5189 0 4.47235 
0 0 -1.29228 28.5033 21.2031 82.4875 0 0 0 0 0 0 -7.4466 0 -9.41381 -8.34083 0 -39.083 0 0 0 -3.25373 0 -0.817431 -12.8584 0 -21.5047 2.63103 0 46.185 0 0 0 13.1092 0 4.039 
0 0 -1.29355 28.5033 21.2031 82.4944 0 0 0 0 0 0 -7.4466 0 -9.40066 -8.34083 0 -39.055 0 0 0 -3.25373 0 -0.817431 -12.8584 0 -21.4543 2.63103 0 46.2173 0 0 0 13.1092 0 4.039 
0 0 -1.29355 28.5033 21.2031 82.4944 0 0 0 0 0 0 -7.4466 0 -9.40066 -8.34083 0 -39.055 0 0 0 -3.25373 0 -0.817431 -12.8584 0 -21.4543 2.63103 0 46.2173 0 0 0 13.1092 0 4.039 
0 0 -1.29355 28.5033 21.2031 82.4944 0 0 0 0 0 0 -7.4466 0 -9.40066 -8.34083 0 -39.055 0 0 0 -3.25373 0 -0.817431 -12.8584 0 -21.4543 2.63103 0 46.2173 0 0 0 13.1092 0 4.039 
0 0 -1.21882 22.9615 21.1418 -26.9067 0 0 0 0 0 0 -7.92674 0 -24.0025 -8.71506 0 -20.891 0 0 0 -3.23765 0 -0.814725 -12.424 0 -33.6839 2.62194 0 56.8681 0 0 0 12.672 0 3.9019 
0 0 -1.21915 22.9615 21.1418 -26.9048 0 0 0 0 0 0 -7.92674 0 -23.9989 -8.71506 0 -20.8835 0 0 0 -3.23765 0 -0.814725 -12.424 0 -33.6703 2.62194 0 56.8768 0 0 0 12.672 0 3.9019 
0 0 -1.21915 22.9615 21.1418 -26.9048 0 0 0 0 0 0 -7.92674 0 -23.9989 -8.71506 0 -20.8835 0 0 0 -3.23765 0 -0.814725 -12.424 0 -33.6703 2.62194 0 56.8768 0 0 0 12.672 0 3.9019 
0 0 -1.32342 27.7854 21.8745 55.3685 0 0 0 0 0 0 -6.36606 0 -7.13549 -10.2067 0 -37.7211 0 0 0 -2.69669 0 -0.621534 -11.666 0 -23.1565 2.0119 0 45.6444 0 0 0 11.901 0 3.66353 
0 0 -1.32296 27.7854 21.8745 55.3662 0 0 0 0 0 0 -6.36606 0 -7.13998 -10.2067 0 -37.7306 0 0 0 -2.69669 0 -0.621534 -11.666 0 -23.1737 2.0119 0 45.6334 0 0 0 11.901 0 3.66353 
